P3
181 200
255
0 0 0 0 0 0 0 0 0 0 0 0 0 0 0 0 0 0 0 0 0 0 0 0 
0 0 0 0 0 0 0 0 0 0 0 0 0 0 0 0 0 0 0 0 0 0 0 0 
0 0 0 0 0 0 0 0 0 0 0 0 0 0 0 0 0 0 0 0 0 0 0 0 
0 0 0 0 0 0 0 0 0 0 0 0 0 0 0 0 0 0 0 0 0 0 0 0 
0 0 0 0 0 0 0 0 0 0 0 0 0 0 0 0 0 0 0 0 0 0 0 0 
0 0 0 0 0 0 0 0 0 0 0 0 0 0 0 0 0 0 0 0 0 0 0 0 
0 0 0 0 0 0 0 0 0 0 0 0 0 0 0 0 0 0 0 0 0 0 0 0 
0 0 0 0 0 0 0 0 0 0 0 0 0 0 0 0 0 0 0 0 0 0 0 0 
0 0 0 0 0 0 0 0 0 0 0 0 0 0 0 0 0 0 0 0 0 0 0 0 
0 0 0 0 0 0 0 0 0 0 0 0 0 0 0 0 0 0 0 0 0 0 0 0 
0 0 0 0 0 0 0 0 0 0 0 0 0 0 0 0 0 0 0 0 0 0 0 0 
0 0 0 0 0 0 0 0 0 0 0 0 0 0 0 0 0 0 0 0 0 0 0 0 
0 0 0 0 0 0 0 0 0 0 0 0 0 0 0 0 0 0 0 0 0 0 0 0 
0 0 0 0 0 0 0 0 0 0 0 0 0 0 0 0 0 0 0 0 0 0 0 0 
0 0 0 0 0 0 0 0 0 0 0 0 0 0 0 0 0 0 0 0 0 0 0 0 
0 0 0 0 0 0 0 0 0 0 0 0 0 0 0 0 0 0 0 0 0 0 0 0 
0 0 0 0 0 0 0 0 0 0 0 0 0 0 0 0 0 0 0 0 0 0 0 0 
0 0 0 0 0 0 0 0 0 0 0 0 0 0 0 0 0 0 0 0 0 0 0 0 
0 0 0 0 0 0 0 0 0 0 0 0 0 0 0 0 0 0 0 0 0 0 0 0 
0 0 0 0 0 0 0 0 0 0 0 0 0 0 0 0 0 0 0 0 0 0 0 0 
0 0 0 0 0 0 0 0 0 0 0 0 0 0 0 0 0 0 0 0 0 0 0 0 
0 0 0 0 0 0 0 0 0 0 0 0 0 0 0 0 0 0 0 0 0 0 0 0 
0 0 0 0 0 0 0 0 0 0 0 0 0 0 0 
0 0 0 0 0 0 0 0 0 0 0 0 0 0 0 0 0 0 0 0 0 0 0 0 
0 0 0 0 0 0 0 0 0 0 0 0 0 0 0 0 0 0 0 0 0 0 0 0 
0 0 0 0 0 0 0 0 0 0 0 0 0 0 0 0 0 0 0 0 0 0 0 0 
0 0 0 0 0 0 0 0 0 0 0 0 0 0 0 0 0 0 0 0 0 0 0 0 
0 0 0 0 0 0 0 0 0 0 0 0 0 0 0 0 0 0 0 0 0 0 0 0 
0 0 0 0 0 0 0 0 0 0 0 0 0 0 0 0 0 0 0 0 0 0 0 0 
0 0 0 0 0 0 0 0 0 0 0 0 0 0 0 0 0 0 0 0 0 0 0 0 
0 0 0 0 0 0 0 0 0 0 0 0 0 0 0 0 0 0 0 0 0 0 0 0 
0 0 0 0 0 0 0 0 0 0 0 0 0 0 0 0 0 0 0 0 0 0 0 0 
0 0 0 0 0 0 0 0 0 0 0 0 0 0 0 0 0 0 0 0 0 0 0 0 
0 0 0 0 0 0 0 0 0 0 0 0 0 0 0 0 0 0 0 0 0 0 0 0 
0 0 0 0 0 0 0 0 0 0 0 0 0 0 0 0 0 0 0 0 0 0 0 0 
0 0 0 0 0 0 0 0 0 0 0 0 0 0 0 0 0 0 0 0 0 0 0 0 
0 0 0 0 0 0 0 0 0 0 0 0 0 0 0 0 0 0 0 0 0 0 0 0 
0 0 0 0 0 0 0 0 0 0 0 0 0 0 0 0 0 0 0 0 0 0 0 0 
0 0 0 0 0 0 0 0 0 0 0 0 0 0 0 0 0 0 0 0 0 0 0 0 
0 0 0 0 0 0 0 0 0 0 0 0 0 0 0 0 0 0 0 0 0 0 0 0 
0 0 0 0 0 0 0 0 0 0 0 0 0 0 0 0 0 0 0 0 0 0 0 0 
0 0 0 0 0 0 0 0 0 0 0 0 0 0 0 0 0 0 0 0 0 0 0 0 
0 0 0 0 0 0 0 0 0 0 0 0 0 0 0 0 0 0 0 0 0 0 0 0 
0 0 0 0 0 0 0 0 0 0 0 0 0 0 0 0 0 0 0 0 0 0 0 0 
0 0 0 0 0 0 0 0 0 0 0 0 0 0 0 0 0 0 0 0 0 0 0 0 
0 0 0 0 0 0 0 0 0 0 0 0 0 0 0 
0 0 0 0 0 0 0 0 0 0 0 0 0 0 0 0 0 0 0 0 0 0 0 0 
0 0 0 0 0 0 0 0 0 0 0 0 0 0 0 0 0 0 0 0 0 0 0 0 
0 0 0 0 0 0 0 0 0 0 0 0 0 0 0 0 0 0 0 0 0 0 0 0 
0 0 0 0 0 0 0 0 0 0 0 0 0 0 0 0 0 0 0 0 0 0 0 0 
0 0 0 0 0 0 0 0 0 0 0 0 0 0 0 0 0 0 0 0 0 0 0 0 
0 0 0 0 0 0 0 0 0 0 0 0 0 0 0 0 0 0 0 0 0 0 0 0 
0 0 0 0 0 0 0 0 0 0 0 0 0 0 0 0 0 0 0 0 0 0 0 0 
0 0 0 0 0 0 0 0 0 0 0 0 0 0 0 0 0 0 0 0 0 0 0 0 
0 0 0 0 0 0 0 0 0 0 0 0 0 0 0 0 0 0 0 0 0 0 0 0 
0 0 0 0 0 0 0 0 0 0 0 0 0 0 0 0 0 0 0 0 0 0 0 0 
0 0 0 0 0 0 0 0 0 0 0 0 0 0 0 0 0 0 0 0 0 0 0 0 
0 0 0 0 0 0 0 0 0 0 0 0 0 0 0 0 0 0 0 0 0 0 0 0 
0 0 0 0 0 0 0 0 0 0 0 0 0 0 0 0 0 0 0 0 0 0 0 0 
0 0 0 0 0 0 0 0 0 0 0 0 0 0 0 0 0 0 0 0 0 0 0 0 
0 0 0 0 0 0 0 0 0 0 0 0 0 0 0 0 0 0 0 0 0 0 0 0 
0 0 0 0 0 0 0 0 0 0 0 0 0 0 0 0 0 0 0 0 0 0 0 0 
0 0 0 0 0 0 0 0 0 0 0 0 0 0 0 0 0 0 0 0 0 0 0 0 
0 0 0 0 0 0 0 0 0 0 0 0 0 0 0 0 0 0 0 0 0 0 0 0 
0 0 0 0 0 0 0 0 0 0 0 0 0 0 0 0 0 0 0 0 0 0 0 0 
0 0 0 0 0 0 0 0 0 0 0 0 0 0 0 0 0 0 0 0 0 0 0 0 
0 0 0 0 0 0 0 0 0 0 0 0 0 0 0 0 0 0 0 0 0 0 0 0 
0 0 0 0 0 0 0 0 0 0 0 0 0 0 0 0 0 0 0 0 0 0 0 0 
0 0 0 0 0 0 0 0 0 0 0 0 0 0 0 
0 0 0 0 0 0 0 0 0 0 0 0 0 0 0 0 0 0 0 0 0 0 0 0 
0 0 0 0 0 0 0 0 0 0 0 0 0 0 0 0 0 0 0 0 0 0 0 0 
0 0 0 0 0 0 0 0 0 0 0 0 0 0 0 0 0 0 0 0 0 0 0 0 
0 0 0 0 0 0 0 0 0 0 0 0 0 0 0 0 0 0 0 0 0 0 0 0 
0 0 0 0 0 0 0 0 0 0 0 0 0 0 0 0 0 0 0 0 0 0 0 0 
0 0 0 0 0 0 0 0 0 0 0 0 0 0 0 0 0 0 0 0 0 0 0 0 
0 0 0 0 0 0 0 0 0 0 0 0 0 0 0 0 0 0 0 0 0 0 0 0 
0 0 0 0 0 0 0 0 0 0 0 0 0 0 0 0 0 0 0 0 0 0 0 0 
0 0 0 0 0 0 0 0 0 0 0 0 0 0 0 0 0 0 0 0 0 0 0 0 
0 0 0 0 0 0 0 0 0 0 0 0 0 0 0 0 0 0 0 0 0 0 0 0 
0 0 0 0 0 0 0 0 0 0 0 0 0 0 0 0 0 0 0 0 0 0 0 0 
0 0 0 0 0 0 0 0 0 0 0 0 0 0 0 0 0 0 0 0 0 0 0 0 
0 0 0 0 0 0 0 0 0 0 0 0 0 0 0 0 0 0 0 0 0 0 0 0 
0 0 0 0 0 0 0 0 0 0 0 0 0 0 0 0 0 0 0 0 0 0 0 0 
0 0 0 0 0 0 0 0 0 0 0 0 0 0 0 0 0 0 0 0 0 0 0 0 
0 0 0 0 0 0 0 0 0 0 0 0 0 0 0 0 0 0 0 0 0 0 0 0 
0 0 0 0 0 0 0 0 0 0 0 0 0 0 0 0 0 0 0 0 0 0 0 0 
0 0 0 0 0 0 0 0 0 0 0 0 0 0 0 0 0 0 0 0 0 0 0 0 
0 0 0 0 0 0 0 0 0 0 0 0 0 0 0 0 0 0 0 0 0 0 0 0 
0 0 0 0 0 0 0 0 0 0 0 0 0 0 0 0 0 0 0 0 0 0 0 0 
0 0 0 0 0 0 0 0 0 0 0 0 0 0 0 0 0 0 0 0 0 0 0 0 
0 0 0 0 0 0 0 0 0 0 0 0 0 0 0 0 0 0 0 0 0 0 0 0 
0 0 0 0 0 0 0 0 0 0 0 0 0 0 0 
0 0 0 0 0 0 0 0 0 0 0 0 0 0 0 0 0 0 0 0 0 0 0 0 
0 0 0 0 0 0 0 0 0 0 0 0 0 0 0 0 0 0 0 0 0 0 0 0 
0 0 0 0 0 0 0 0 0 0 0 0 0 0 0 0 0 0 0 0 0 0 0 0 
0 0 0 0 0 0 0 0 0 0 0 0 0 0 0 0 0 0 0 0 0 0 0 0 
0 0 0 0 0 0 0 0 0 0 0 0 0 0 0 0 0 0 0 0 0 0 0 0 
0 0 0 0 0 0 0 0 0 0 0 0 0 0 0 0 0 0 0 0 0 0 0 0 
0 0 0 0 0 0 0 0 0 0 0 0 0 0 0 0 0 0 0 0 0 0 0 0 
0 0 0 0 0 0 0 0 0 0 0 0 0 0 0 0 0 0 0 0 0 0 0 0 
0 0 0 0 0 0 0 0 0 0 0 0 0 0 0 0 0 0 0 0 0 0 0 0 
0 0 0 0 0 0 0 0 0 0 0 0 0 0 0 0 0 0 0 0 0 0 0 0 
0 0 0 0 0 0 0 0 0 0 0 0 0 0 0 0 0 0 0 0 0 0 0 0 
0 0 0 0 0 0 0 0 0 0 0 0 0 0 0 0 0 0 0 0 0 0 0 0 
0 0 0 0 0 0 0 0 0 0 0 0 0 0 0 0 0 0 0 0 0 0 0 0 
0 0 0 0 0 0 0 0 0 0 0 0 0 0 0 0 0 0 0 0 0 0 0 0 
0 0 0 0 0 0 0 0 0 0 0 0 0 0 0 0 0 0 0 0 0 0 0 0 
0 0 0 0 0 0 0 0 0 0 0 0 0 0 0 0 0 0 0 0 0 0 0 0 
0 0 0 0 0 0 0 0 0 0 0 0 0 0 0 0 0 0 0 0 0 0 0 0 
0 0 0 0 0 0 0 0 0 0 0 0 0 0 0 0 0 0 0 0 0 0 0 0 
0 0 0 0 0 0 0 0 0 0 0 0 0 0 0 0 0 0 0 0 0 0 0 0 
0 0 0 0 0 0 0 0 0 0 0 0 0 0 0 0 0 0 0 0 0 0 0 0 
0 0 0 0 0 0 0 0 0 0 0 0 0 0 0 0 0 0 0 0 0 0 0 0 
0 0 0 0 0 0 0 0 0 0 0 0 0 0 0 0 0 0 0 0 0 0 0 0 
0 0 0 0 0 0 0 0 0 0 0 0 0 0 0 
0 0 0 0 0 0 0 0 0 0 0 0 0 0 0 0 0 0 0 0 0 0 0 0 
0 0 0 0 0 0 0 0 0 0 0 0 0 0 0 0 0 0 0 0 0 0 0 0 
0 0 0 0 0 0 0 0 0 0 0 0 0 0 0 0 0 0 0 0 0 0 0 0 
0 0 0 0 0 0 0 0 0 0 0 0 0 0 0 0 0 0 0 0 0 0 0 0 
0 0 0 0 0 0 0 0 0 0 0 0 0 0 0 0 0 0 0 0 0 0 0 0 
0 0 0 0 0 0 0 0 0 0 0 0 0 0 0 0 0 0 0 0 0 0 0 0 
0 0 0 0 0 0 0 0 0 0 0 0 0 0 0 0 0 0 0 0 0 0 0 0 
0 0 0 0 0 0 0 0 0 0 0 0 0 0 0 0 0 0 0 0 0 0 0 0 
0 0 0 0 0 0 0 0 0 0 0 0 0 0 0 0 0 0 0 0 0 0 0 0 
0 0 0 0 0 0 0 0 0 0 0 0 0 0 0 0 0 0 0 0 0 0 0 0 
0 0 0 0 0 0 0 0 0 0 0 0 0 0 0 0 0 0 0 0 0 0 0 0 
0 0 0 0 0 0 0 0 0 0 0 0 0 0 0 0 0 0 0 0 0 0 0 0 
0 0 0 0 0 0 0 0 0 0 0 0 0 0 0 0 0 0 0 0 0 0 0 0 
0 0 0 0 0 0 0 0 0 0 0 0 0 0 0 0 0 0 0 0 0 0 0 0 
0 0 0 0 0 0 0 0 0 0 0 0 0 0 0 0 0 0 0 0 0 0 0 0 
0 0 0 0 0 0 0 0 0 0 0 0 0 0 0 0 0 0 0 0 0 0 0 0 
0 0 0 0 0 0 0 0 0 0 0 0 0 0 0 0 0 0 0 0 0 0 0 0 
0 0 0 0 0 0 0 0 0 0 0 0 0 0 0 0 0 0 0 0 0 0 0 0 
0 0 0 0 0 0 0 0 0 0 0 0 0 0 0 0 0 0 0 0 0 0 0 0 
0 0 0 0 0 0 0 0 0 0 0 0 0 0 0 0 0 0 0 0 0 0 0 0 
0 0 0 0 0 0 0 0 0 0 0 0 0 0 0 0 0 0 0 0 0 0 0 0 
0 0 0 0 0 0 0 0 0 0 0 0 0 0 0 0 0 0 0 0 0 0 0 0 
0 0 0 0 0 0 0 0 0 0 0 0 0 0 0 
0 0 0 0 0 0 0 0 0 0 0 0 0 0 0 0 0 0 0 0 0 0 0 0 
0 0 0 0 0 0 0 0 0 0 0 0 0 0 0 0 0 0 0 0 0 0 0 0 
0 0 0 0 0 0 0 0 0 0 0 0 0 0 0 0 0 0 0 0 0 0 0 0 
0 0 0 0 0 0 0 0 0 0 0 0 0 0 0 0 0 0 0 0 0 0 0 0 
0 0 0 0 0 0 0 0 0 0 0 0 0 0 0 0 0 0 0 0 0 0 0 0 
0 0 0 0 0 0 0 0 0 0 0 0 0 0 0 0 0 0 0 0 0 0 0 0 
0 0 0 0 0 0 0 0 0 0 0 0 0 0 0 0 0 0 0 0 0 0 0 0 
0 0 0 0 0 0 0 0 0 0 0 0 0 0 0 0 0 0 0 0 0 0 0 0 
0 0 0 0 0 0 0 0 0 0 0 0 0 0 0 0 0 0 0 0 0 0 0 0 
0 0 0 0 0 0 0 0 0 0 0 0 0 0 0 0 0 0 0 0 0 0 0 0 
0 0 0 0 0 0 0 0 0 0 0 0 0 0 0 0 0 0 0 0 0 0 0 0 
0 0 0 0 0 0 0 0 0 0 0 0 0 0 0 0 0 0 0 0 0 0 0 0 
0 0 0 0 0 0 0 0 0 0 0 0 0 0 0 0 0 0 0 0 0 0 0 0 
0 0 0 0 0 0 0 0 0 0 0 0 0 0 0 0 0 0 0 0 0 0 0 0 
0 0 0 0 0 0 0 0 0 0 0 0 0 0 0 0 0 0 0 0 0 0 0 0 
0 0 0 0 0 0 0 0 0 0 0 0 0 0 0 0 0 0 0 0 0 0 0 0 
0 0 0 0 0 0 0 0 0 0 0 0 0 0 0 0 0 0 0 0 0 0 0 0 
0 0 0 0 0 0 0 0 0 0 0 0 0 0 0 0 0 0 0 0 0 0 0 0 
0 0 0 0 0 0 0 0 0 0 0 0 0 0 0 0 0 0 0 0 0 0 0 0 
0 0 0 0 0 0 0 0 0 0 0 0 0 0 0 0 0 0 0 0 0 0 0 0 
0 0 0 0 0 0 0 0 0 0 0 0 0 0 0 0 0 0 0 0 0 0 0 0 
0 0 0 0 0 0 0 0 0 0 0 0 0 0 0 0 0 0 0 0 0 0 0 0 
0 0 0 0 0 0 0 0 0 0 0 0 0 0 0 
0 0 0 0 0 0 0 0 0 0 0 0 0 0 0 0 0 0 0 0 0 0 0 0 
0 0 0 0 0 0 0 0 0 0 0 0 0 0 0 0 0 0 0 0 0 0 0 0 
0 0 0 0 0 0 0 0 0 0 0 0 0 0 0 0 0 0 0 0 0 0 0 0 
0 0 0 0 0 0 0 0 0 0 0 0 0 0 0 0 0 0 0 0 0 0 0 0 
0 0 0 0 0 0 0 0 0 0 0 0 0 0 0 0 0 0 0 0 0 0 0 0 
0 0 0 0 0 0 0 0 0 0 0 0 0 0 0 0 0 0 0 0 0 0 0 0 
0 0 0 0 0 0 0 0 0 0 0 0 0 0 0 0 0 0 0 0 0 0 0 0 
0 0 0 0 0 0 0 0 0 0 0 0 0 0 0 0 0 0 0 0 0 0 0 0 
0 0 0 0 0 0 0 0 0 0 0 0 0 0 0 0 0 0 0 0 0 0 0 0 
0 0 0 0 0 0 0 0 0 0 0 0 0 0 0 0 0 0 0 0 0 0 0 0 
0 0 0 0 0 0 0 0 0 0 0 0 0 0 0 0 0 0 0 0 0 0 0 0 
0 0 0 0 0 0 0 0 0 0 0 0 0 0 0 0 0 0 0 0 0 0 0 0 
0 0 0 0 0 0 0 0 0 0 0 0 0 0 0 0 0 0 0 0 0 0 0 0 
0 0 0 0 0 0 0 0 0 0 0 0 0 0 0 0 0 0 0 0 0 0 0 0 
0 0 0 0 0 0 0 0 0 0 0 0 0 0 0 0 0 0 0 0 0 0 0 0 
0 0 0 0 0 0 0 0 0 0 0 0 0 0 0 0 0 0 0 0 0 0 0 0 
0 0 0 0 0 0 0 0 0 0 0 0 0 0 0 0 0 0 0 0 0 0 0 0 
0 0 0 0 0 0 0 0 0 0 0 0 0 0 0 0 0 0 0 0 0 0 0 0 
0 0 0 0 0 0 0 0 0 0 0 0 0 0 0 0 0 0 0 0 0 0 0 0 
0 0 0 0 0 0 0 0 0 0 0 0 0 0 0 0 0 0 0 0 0 0 0 0 
0 0 0 0 0 0 0 0 0 0 0 0 0 0 0 0 0 0 0 0 0 0 0 0 
0 0 0 0 0 0 0 0 0 0 0 0 0 0 0 0 0 0 0 0 0 0 0 0 
0 0 0 0 0 0 0 0 0 0 0 0 0 0 0 
0 0 0 0 0 0 0 0 0 0 0 0 0 0 0 0 0 0 0 0 0 0 0 0 
0 0 0 0 0 0 0 0 0 0 0 0 0 0 0 0 0 0 0 0 0 0 0 0 
0 0 0 0 0 0 0 0 0 0 0 0 0 0 0 0 0 0 0 0 0 0 0 0 
0 0 0 0 0 0 0 0 0 0 0 0 0 0 0 0 0 0 0 0 0 0 0 0 
0 0 0 0 0 0 0 0 0 0 0 0 0 0 0 0 0 0 0 0 0 0 0 0 
0 0 0 0 0 0 0 0 0 0 0 0 0 0 0 0 0 0 0 0 0 0 0 0 
0 0 0 0 0 0 0 0 0 0 0 0 0 0 0 0 0 0 0 0 0 0 0 0 
0 0 0 0 0 0 0 0 0 0 0 0 0 0 0 0 0 0 0 0 0 0 0 0 
0 0 0 0 0 0 0 0 0 0 0 0 0 0 0 0 0 0 0 0 0 0 0 0 
0 0 0 0 0 0 0 0 0 0 0 0 0 0 0 0 0 0 0 0 0 0 0 0 
0 0 0 0 0 0 0 0 0 0 0 0 0 0 0 0 0 0 0 0 0 0 0 0 
0 0 0 0 0 0 0 0 0 0 0 0 0 0 0 0 0 0 0 0 0 0 0 0 
0 0 0 0 0 0 0 0 0 0 0 0 0 0 0 0 0 0 0 0 0 0 0 0 
0 0 0 0 0 0 0 0 0 0 0 0 0 0 0 0 0 0 0 0 0 0 0 0 
0 0 0 0 0 0 0 0 0 0 0 0 0 0 0 0 0 0 0 0 0 0 0 0 
0 0 0 0 0 0 0 0 0 0 0 0 0 0 0 0 0 0 0 0 0 0 0 0 
0 0 0 0 0 0 0 0 0 0 0 0 0 0 0 0 0 0 0 0 0 0 0 0 
0 0 0 0 0 0 0 0 0 0 0 0 0 0 0 0 0 0 0 0 0 0 0 0 
0 0 0 0 0 0 0 0 0 0 0 0 0 0 0 0 0 0 0 0 0 0 0 0 
0 0 0 0 0 0 0 0 0 0 0 0 0 0 0 0 0 0 0 0 0 0 0 0 
0 0 0 0 0 0 0 0 0 0 0 0 0 0 0 0 0 0 0 0 0 0 0 0 
0 0 0 0 0 0 0 0 0 0 0 0 0 0 0 0 0 0 0 0 0 0 0 0 
0 0 0 0 0 0 0 0 0 0 0 0 0 0 0 
0 0 0 0 0 0 0 0 0 0 0 0 0 0 0 0 0 0 0 0 0 0 0 0 
0 0 0 0 0 0 0 0 0 0 0 0 0 0 0 0 0 0 0 0 0 0 0 0 
0 0 0 0 0 0 0 0 0 0 0 0 0 0 0 0 0 0 0 0 0 0 0 0 
0 0 0 0 0 0 0 0 0 0 0 0 0 0 0 0 0 0 0 0 0 0 0 0 
0 0 0 0 0 0 0 0 0 0 0 0 0 0 0 0 0 0 0 0 0 0 0 0 
0 0 0 0 0 0 0 0 0 0 0 0 0 0 0 0 0 0 0 0 0 0 0 0 
0 0 0 0 0 0 0 0 0 0 0 0 0 0 0 0 0 0 0 0 0 0 0 0 
0 0 0 0 0 0 0 0 0 0 0 0 0 0 0 0 0 0 0 0 0 0 0 0 
0 0 0 0 0 0 0 0 0 0 0 0 0 0 0 0 0 0 0 0 0 0 0 0 
0 0 0 0 0 0 0 0 0 0 0 0 0 0 0 0 0 0 0 0 0 0 0 0 
0 0 0 0 0 0 0 0 0 0 0 0 0 0 0 0 0 0 0 0 0 0 0 0 
0 0 0 0 0 0 0 0 0 0 0 0 0 0 0 0 0 0 0 0 0 0 0 0 
0 0 0 0 0 0 0 0 0 0 0 0 0 0 0 0 0 0 0 0 0 0 0 0 
0 0 0 0 0 0 0 0 0 0 0 0 0 0 0 0 0 0 0 0 0 0 0 0 
0 0 0 0 0 0 0 0 0 0 0 0 0 0 0 0 0 0 0 0 0 0 0 0 
0 0 0 0 0 0 0 0 0 0 0 0 0 0 0 0 0 0 0 0 0 0 0 0 
0 0 0 0 0 0 0 0 0 0 0 0 0 0 0 0 0 0 0 0 0 0 0 0 
0 0 0 0 0 0 0 0 0 0 0 0 0 0 0 0 0 0 0 0 0 0 0 0 
0 0 0 0 0 0 0 0 0 0 0 0 0 0 0 0 0 0 0 0 0 0 0 0 
0 0 0 0 0 0 0 0 0 0 0 0 0 0 0 0 0 0 0 0 0 0 0 0 
0 0 0 0 0 0 0 0 0 0 0 0 0 0 0 0 0 0 0 0 0 0 0 0 
0 0 0 0 0 0 0 0 0 0 0 0 0 0 0 0 0 0 0 0 0 0 0 0 
0 0 0 0 0 0 0 0 0 0 0 0 0 0 0 
0 0 0 0 0 0 0 0 0 0 0 0 0 0 0 0 0 0 0 0 0 0 0 0 
0 0 0 0 0 0 0 0 0 0 0 0 0 0 0 0 0 0 0 0 0 0 0 0 
0 0 0 0 0 0 0 0 0 0 0 0 0 0 0 0 0 0 0 0 0 0 0 0 
0 0 0 0 0 0 0 0 0 0 0 0 0 0 0 0 0 0 0 0 0 0 0 0 
0 0 0 0 0 0 0 0 0 0 0 0 0 0 0 0 0 0 0 0 0 0 0 0 
0 0 0 0 0 0 0 0 0 0 0 0 0 0 0 0 0 0 0 0 0 0 0 0 
0 0 0 0 0 0 0 0 0 0 0 0 0 0 0 0 0 0 0 0 0 0 0 0 
0 0 0 0 0 0 0 0 0 0 0 0 0 0 0 0 0 0 0 0 0 0 0 0 
0 0 0 0 0 0 0 0 0 0 0 0 0 0 0 0 0 0 0 0 0 0 0 0 
0 0 0 0 0 0 0 0 0 0 0 0 0 0 0 0 0 0 0 0 0 0 0 0 
0 0 0 0 0 0 0 0 0 0 0 0 0 0 0 0 0 0 0 0 0 0 0 0 
0 0 0 0 0 0 0 0 0 0 0 0 0 0 0 0 0 0 0 0 0 0 0 0 
0 0 0 0 0 0 0 0 0 0 0 0 0 0 0 0 0 0 0 0 0 0 0 0 
0 0 0 0 0 0 0 0 0 0 0 0 0 0 0 0 0 0 0 0 0 0 0 0 
0 0 0 0 0 0 0 0 0 0 0 0 0 0 0 0 0 0 0 0 0 0 0 0 
0 0 0 0 0 0 0 0 0 0 0 0 0 0 0 0 0 0 0 0 0 0 0 0 
0 0 0 0 0 0 0 0 0 0 0 0 0 0 0 0 0 0 0 0 0 0 0 0 
0 0 0 0 0 0 0 0 0 0 0 0 0 0 0 0 0 0 0 0 0 0 0 0 
0 0 0 0 0 0 0 0 0 0 0 0 0 0 0 0 0 0 0 0 0 0 0 0 
0 0 0 0 0 0 0 0 0 0 0 0 0 0 0 0 0 0 0 0 0 0 0 0 
0 0 0 0 0 0 0 0 0 0 0 0 0 0 0 0 0 0 0 0 0 0 0 0 
0 0 0 0 0 0 0 0 0 0 0 0 0 0 0 0 0 0 0 0 0 0 0 0 
0 0 0 0 0 0 0 0 0 0 0 0 0 0 0 
0 0 0 0 0 0 0 0 0 0 0 0 0 0 0 0 0 0 0 0 0 0 0 0 
0 0 0 0 0 0 0 0 0 0 0 0 0 0 0 0 0 0 0 0 0 0 0 0 
0 0 0 0 0 0 0 0 0 0 0 0 0 0 0 0 0 0 0 0 0 0 0 0 
0 0 0 0 0 0 0 0 0 0 0 0 0 0 0 0 0 0 0 0 0 0 0 0 
0 0 0 0 0 0 0 0 0 0 0 0 0 0 0 0 0 0 0 0 0 0 0 0 
0 0 0 0 0 0 0 0 0 0 0 0 0 0 0 0 0 0 0 0 0 0 0 0 
0 0 0 0 0 0 0 0 0 0 0 0 0 0 0 0 0 0 0 0 0 0 0 0 
0 0 0 0 0 0 0 0 0 0 0 0 0 0 0 0 0 0 0 0 0 0 0 0 
0 0 0 0 0 0 0 0 0 0 0 0 0 0 0 0 0 0 0 0 0 0 0 0 
0 0 0 0 0 0 0 0 0 0 0 0 0 0 0 0 0 0 0 0 0 0 0 0 
0 0 0 0 0 0 0 0 0 0 0 0 0 0 0 0 0 0 0 0 0 0 0 0 
0 0 0 0 0 0 0 0 0 0 0 0 0 0 0 0 0 0 0 0 0 0 0 0 
0 0 0 0 0 0 0 0 0 0 0 0 0 0 0 0 0 0 0 0 0 0 0 0 
0 0 0 0 0 0 0 0 0 0 0 0 0 0 0 0 0 0 0 0 0 0 0 0 
0 0 0 0 0 0 0 0 0 0 0 0 0 0 0 0 0 0 0 0 0 0 0 0 
0 0 0 0 0 0 0 0 0 0 0 0 0 0 0 0 0 0 0 0 0 0 0 0 
0 0 0 0 0 0 0 0 0 0 0 0 0 0 0 0 0 0 0 0 0 0 0 0 
0 0 0 0 0 0 0 0 0 0 0 0 0 0 0 0 0 0 0 0 0 0 0 0 
0 0 0 0 0 0 0 0 0 0 0 0 0 0 0 0 0 0 0 0 0 0 0 0 
0 0 0 0 0 0 0 0 0 0 0 0 0 0 0 0 0 0 0 0 0 0 0 0 
0 0 0 0 0 0 0 0 0 0 0 0 0 0 0 0 0 0 0 0 0 0 0 0 
0 0 0 0 0 0 0 0 0 0 0 0 0 0 0 0 0 0 0 0 0 0 0 0 
0 0 0 0 0 0 0 0 0 0 0 0 0 0 0 
0 0 0 0 0 0 0 0 0 0 0 0 0 0 0 0 0 0 0 0 0 0 0 0 
0 0 0 0 0 0 0 0 0 0 0 0 0 0 0 0 0 0 0 0 0 0 0 0 
0 0 0 0 0 0 0 0 0 0 0 0 0 0 0 0 0 0 0 0 0 0 0 0 
0 0 0 0 0 0 0 0 0 0 0 0 0 0 0 0 0 0 0 0 0 0 0 0 
0 0 0 0 0 0 0 0 0 0 0 0 0 0 0 0 0 0 0 0 0 0 0 0 
0 0 0 0 0 0 0 0 0 0 0 0 0 0 0 0 0 0 0 0 0 0 0 0 
0 0 0 0 0 0 0 0 0 0 0 0 0 0 0 0 0 0 0 0 0 0 0 0 
0 0 0 0 0 0 0 0 0 0 0 0 0 0 0 0 0 0 0 0 0 0 0 0 
0 0 0 0 0 0 0 0 0 0 0 0 0 0 0 0 0 0 0 0 0 0 0 0 
0 0 0 0 0 0 0 0 0 0 0 0 0 0 0 0 0 0 0 0 0 0 0 0 
0 0 0 0 0 0 0 0 0 0 0 0 0 0 0 0 0 0 0 0 0 0 0 0 
0 0 0 0 0 0 0 0 0 0 0 0 0 0 0 0 0 0 0 0 0 0 0 0 
0 0 0 0 0 0 0 0 0 0 0 0 0 0 0 0 0 0 0 0 0 0 0 0 
0 0 0 0 0 0 0 0 0 0 0 0 0 0 0 0 0 0 0 0 0 0 0 0 
0 0 0 0 0 0 0 0 0 0 0 0 0 0 0 0 0 0 0 0 0 0 0 0 
0 0 0 0 0 0 0 0 0 0 0 0 0 0 0 0 0 0 0 0 0 0 0 0 
0 0 0 0 0 0 0 0 0 0 0 0 0 0 0 0 0 0 0 0 0 0 0 0 
0 0 0 0 0 0 0 0 0 0 0 0 0 0 0 0 0 0 0 0 0 0 0 0 
0 0 0 0 0 0 0 0 0 0 0 0 0 0 0 0 0 0 0 0 0 0 0 0 
0 0 0 0 0 0 0 0 0 0 0 0 0 0 0 0 0 0 0 0 0 0 0 0 
0 0 0 0 0 0 0 0 0 0 0 0 0 0 0 0 0 0 0 0 0 0 0 0 
0 0 0 0 0 0 0 0 0 0 0 0 0 0 0 0 0 0 0 0 0 0 0 0 
0 0 0 0 0 0 0 0 0 0 0 0 0 0 0 
0 0 0 0 0 0 0 0 0 0 0 0 0 0 0 0 0 0 0 0 0 0 0 0 
0 0 0 0 0 0 0 0 0 0 0 0 0 0 0 0 0 0 0 0 0 0 0 0 
0 0 0 0 0 0 0 0 0 0 0 0 0 0 0 0 0 0 0 0 0 0 0 0 
0 0 0 0 0 0 0 0 0 0 0 0 0 0 0 0 0 0 0 0 0 0 0 0 
0 0 0 0 0 0 0 0 0 0 0 0 0 0 0 0 0 0 0 0 0 0 0 0 
0 0 0 0 0 0 0 0 0 0 0 0 0 0 0 0 0 0 0 0 0 0 0 0 
0 0 0 0 0 0 0 0 0 0 0 0 0 0 0 0 0 0 0 0 0 0 0 0 
0 0 0 0 0 0 0 0 0 0 0 0 0 0 0 0 0 0 0 0 0 0 0 0 
0 0 0 0 0 0 0 0 0 0 0 0 0 0 0 0 0 0 0 0 0 0 0 0 
0 0 0 0 0 0 0 0 0 0 0 0 0 0 0 0 0 0 0 0 0 0 0 0 
0 0 0 0 0 0 0 0 0 0 0 0 0 0 0 0 0 0 0 0 0 0 0 0 
0 0 0 0 0 0 0 0 0 0 0 0 0 0 0 0 0 0 0 0 0 0 0 0 
0 0 0 0 0 0 0 0 0 0 0 0 0 0 0 0 0 0 0 0 0 0 0 0 
0 0 0 0 0 0 0 0 0 0 0 0 0 0 0 0 0 0 0 0 0 0 0 0 
0 0 0 0 0 0 0 0 0 0 0 0 0 0 0 0 0 0 0 0 0 0 0 0 
0 0 0 0 0 0 0 0 0 0 0 0 0 0 0 0 0 0 0 0 0 0 0 0 
0 0 0 0 0 0 0 0 0 0 0 0 0 0 0 0 0 0 0 0 0 0 0 0 
0 0 0 0 0 0 0 0 0 0 0 0 0 0 0 0 0 0 0 0 0 0 0 0 
0 0 0 0 0 0 0 0 0 0 0 0 0 0 0 0 0 0 0 0 0 0 0 0 
0 0 0 0 0 0 0 0 0 0 0 0 0 0 0 0 0 0 0 0 0 0 0 0 
0 0 0 0 0 0 0 0 0 0 0 0 0 0 0 0 0 0 0 0 0 0 0 0 
0 0 0 0 0 0 0 0 0 0 0 0 0 0 0 0 0 0 0 0 0 0 0 0 
0 0 0 0 0 0 0 0 0 0 0 0 0 0 0 
0 0 0 0 0 0 0 0 0 0 0 0 0 0 0 0 0 0 0 0 0 0 0 0 
0 0 0 0 0 0 0 0 0 0 0 0 0 0 0 0 0 0 0 0 0 0 0 0 
0 0 0 0 0 0 0 0 0 0 0 0 0 0 0 0 0 0 0 0 0 0 0 0 
0 0 0 0 0 0 0 0 0 0 0 0 0 0 0 0 0 0 0 0 0 0 0 0 
0 0 0 0 0 0 0 0 0 0 0 0 0 0 0 0 0 0 0 0 0 0 0 0 
0 0 0 0 0 0 0 0 0 0 0 0 0 0 0 0 0 0 0 0 0 0 0 0 
0 0 0 0 0 0 0 0 0 0 0 0 0 0 0 0 0 0 0 0 0 0 0 0 
0 0 0 0 0 0 0 0 0 0 0 0 0 0 0 0 0 0 0 0 0 0 0 0 
0 0 0 0 0 0 0 0 0 0 0 0 0 0 0 0 0 0 0 0 0 0 0 0 
0 0 0 0 0 0 0 0 0 0 0 0 0 0 0 0 0 0 0 0 0 0 0 0 
0 0 0 0 0 0 0 0 0 0 0 0 0 0 0 0 0 0 0 0 0 0 0 0 
0 0 0 0 0 0 0 0 0 0 0 0 0 0 0 0 0 0 0 0 0 0 0 0 
0 0 0 0 0 0 0 0 0 0 0 0 0 0 0 0 0 0 0 0 0 0 0 0 
0 0 0 0 0 0 0 0 0 0 0 0 0 0 0 0 0 0 0 0 0 0 0 0 
0 0 0 0 0 0 0 0 0 0 0 0 0 0 0 0 0 0 0 0 0 0 0 0 
0 0 0 0 0 0 0 0 0 0 0 0 0 0 0 0 0 0 0 0 0 0 0 0 
0 0 0 0 0 0 0 0 0 0 0 0 0 0 0 0 0 0 0 0 0 0 0 0 
0 0 0 0 0 0 0 0 0 0 0 0 0 0 0 0 0 0 0 0 0 0 0 0 
0 0 0 0 0 0 0 0 0 0 0 0 0 0 0 0 0 0 0 0 0 0 0 0 
0 0 0 0 0 0 0 0 0 0 0 0 0 0 0 0 0 0 0 0 0 0 0 0 
0 0 0 0 0 0 0 0 0 0 0 0 0 0 0 0 0 0 0 0 0 0 0 0 
0 0 0 0 0 0 0 0 0 0 0 0 0 0 0 0 0 0 0 0 0 0 0 0 
0 0 0 0 0 0 0 0 0 0 0 0 0 0 0 
0 0 0 0 0 0 0 0 0 0 0 0 0 0 0 0 0 0 0 0 0 0 0 0 
0 0 0 0 0 0 0 0 0 0 0 0 0 0 0 0 0 0 0 0 0 0 0 0 
0 0 0 0 0 0 0 0 0 0 0 0 0 0 0 0 0 0 0 0 0 0 0 0 
0 0 0 0 0 0 0 0 0 0 0 0 0 0 0 0 0 0 0 0 0 0 0 0 
0 0 0 0 0 0 0 0 0 0 0 0 0 0 0 0 0 0 0 0 0 0 0 0 
0 0 0 0 0 0 0 0 0 0 0 0 0 0 0 0 0 0 0 0 0 0 0 0 
0 0 0 0 0 0 0 0 0 0 0 0 0 0 0 0 0 0 0 0 0 0 0 0 
0 0 0 0 0 0 0 0 0 0 0 0 0 0 0 0 0 0 0 0 0 0 0 0 
0 0 0 0 0 0 0 0 0 0 0 0 0 0 0 0 0 0 0 0 0 0 0 0 
0 0 0 0 0 0 0 0 0 0 0 0 0 0 0 0 0 0 0 0 0 0 0 0 
0 0 0 0 0 0 0 0 0 0 0 0 0 0 0 0 0 0 0 0 0 0 0 0 
0 0 0 0 0 0 0 0 0 0 0 0 0 0 0 0 0 0 0 0 0 0 0 0 
0 0 0 0 0 0 0 0 0 0 0 0 0 0 0 0 0 0 0 0 0 0 0 0 
0 0 0 0 0 0 0 0 0 0 0 0 0 0 0 0 0 0 0 0 0 0 0 0 
0 0 0 0 0 0 0 0 0 0 0 0 0 0 0 0 0 0 0 0 0 0 0 0 
0 0 0 0 0 0 0 0 0 0 0 0 0 0 0 0 0 0 0 0 0 0 0 0 
0 0 0 0 0 0 0 0 0 0 0 0 0 0 0 0 0 0 0 0 0 0 0 0 
0 0 0 0 0 0 0 0 0 0 0 0 0 0 0 0 0 0 0 0 0 0 0 0 
0 0 0 0 0 0 0 0 0 0 0 0 0 0 0 0 0 0 0 0 0 0 0 0 
0 0 0 0 0 0 0 0 0 0 0 0 0 0 0 0 0 0 0 0 0 0 0 0 
0 0 0 0 0 0 0 0 0 0 0 0 0 0 0 0 0 0 0 0 0 0 0 0 
0 0 0 0 0 0 0 0 0 0 0 0 0 0 0 0 0 0 0 0 0 0 0 0 
0 0 0 0 0 0 0 0 0 0 0 0 0 0 0 
0 0 0 0 0 0 0 0 0 0 0 0 0 0 0 0 0 0 0 0 0 0 0 0 
0 0 0 0 0 0 0 0 0 0 0 0 0 0 0 0 0 0 0 0 0 0 0 0 
0 0 0 0 0 0 0 0 0 0 0 0 0 0 0 0 0 0 0 0 0 0 0 0 
0 0 0 0 0 0 0 0 0 0 0 0 0 0 0 0 0 0 0 0 0 0 0 0 
0 0 0 0 0 0 0 0 0 0 0 0 0 0 0 0 0 0 0 0 0 0 0 0 
0 0 0 0 0 0 0 0 0 0 0 0 0 0 0 0 0 0 0 0 0 0 0 0 
0 0 0 0 0 0 0 0 0 0 0 0 0 0 0 0 0 0 0 0 0 0 0 0 
0 0 0 0 0 0 0 0 0 0 0 0 0 0 0 0 0 0 0 0 0 0 0 0 
0 0 0 0 0 0 0 0 0 0 0 0 0 0 0 0 0 0 0 0 0 0 0 0 
0 0 0 0 0 0 0 0 0 0 0 0 0 0 0 0 0 0 0 0 0 0 0 0 
0 0 0 0 0 0 0 0 0 0 0 0 0 0 0 0 0 0 0 0 0 0 0 0 
0 0 0 0 0 0 0 0 0 0 0 0 0 0 0 0 0 0 0 0 0 0 0 0 
0 0 0 0 0 0 0 0 0 0 0 0 0 0 0 0 0 0 0 0 0 0 0 0 
0 0 0 0 0 0 0 0 0 0 0 0 0 0 0 0 0 0 0 0 0 0 0 0 
0 0 0 0 0 0 0 0 0 0 0 0 0 0 0 0 0 0 0 0 0 0 0 0 
0 0 0 0 0 0 0 0 0 0 0 0 0 0 0 0 0 0 0 0 0 0 0 0 
0 0 0 0 0 0 0 0 0 0 0 0 0 0 0 0 0 0 0 0 0 0 0 0 
0 0 0 0 0 0 0 0 0 0 0 0 0 0 0 0 0 0 0 0 0 0 0 0 
0 0 0 0 0 0 0 0 0 0 0 0 0 0 0 0 0 0 0 0 0 0 0 0 
0 0 0 0 0 0 0 0 0 0 0 0 0 0 0 0 0 0 0 0 0 0 0 0 
0 0 0 0 0 0 0 0 0 0 0 0 0 0 0 0 0 0 0 0 0 0 0 0 
0 0 0 0 0 0 0 0 0 0 0 0 0 0 0 0 0 0 0 0 0 0 0 0 
0 0 0 0 0 0 0 0 0 0 0 0 0 0 0 
0 0 0 0 0 0 0 0 0 0 0 0 0 0 0 0 0 0 0 0 0 0 0 0 
0 0 0 0 0 0 0 0 0 0 0 0 0 0 0 0 0 0 0 0 0 0 0 0 
0 0 0 0 0 0 0 0 0 0 0 0 0 0 0 0 0 0 0 0 0 0 0 0 
0 0 0 0 0 0 0 0 0 0 0 0 0 0 0 0 0 0 0 0 0 0 0 0 
0 0 0 0 0 0 0 0 0 0 0 0 0 0 0 0 0 0 0 0 0 0 0 0 
0 0 0 0 0 0 0 0 0 0 0 0 0 0 0 0 0 0 0 0 0 0 0 0 
0 0 0 0 0 0 0 0 0 0 0 0 0 0 0 0 0 0 0 0 0 0 0 0 
0 0 0 0 0 0 0 0 0 0 0 0 0 0 0 0 0 0 0 0 0 0 0 0 
0 0 0 0 0 0 0 0 0 0 0 0 0 0 0 0 0 0 0 0 0 0 0 0 
0 0 0 0 0 0 0 0 0 0 0 0 0 0 0 0 0 0 0 0 0 0 0 0 
0 0 0 0 0 0 0 0 0 0 0 0 0 0 0 0 0 0 0 0 0 0 0 0 
0 0 0 0 0 0 0 0 0 0 0 0 0 0 0 0 0 0 0 0 0 0 0 0 
0 0 0 0 0 0 0 0 0 0 0 0 0 0 0 0 0 0 0 0 0 0 0 0 
0 0 0 0 0 0 0 0 0 0 0 0 0 0 0 0 0 0 0 0 0 0 0 0 
0 0 0 0 0 0 0 0 0 0 0 0 0 0 0 0 0 0 0 0 0 0 0 0 
0 0 0 0 0 0 0 0 0 0 0 0 0 0 0 0 0 0 0 0 0 0 0 0 
0 0 0 0 0 0 0 0 0 0 0 0 0 0 0 0 0 0 0 0 0 0 0 0 
0 0 0 0 0 0 0 0 0 0 0 0 0 0 0 0 0 0 0 0 0 0 0 0 
0 0 0 0 0 0 0 0 0 0 0 0 0 0 0 0 0 0 0 0 0 0 0 0 
0 0 0 0 0 0 0 0 0 0 0 0 0 0 0 0 0 0 0 0 0 0 0 0 
0 0 0 0 0 0 0 0 0 0 0 0 0 0 0 0 0 0 0 0 0 0 0 0 
0 0 0 0 0 0 0 0 0 0 0 0 0 0 0 0 0 0 0 0 0 0 0 0 
0 0 0 0 0 0 0 0 0 0 0 0 0 0 0 
0 0 0 0 0 0 0 0 0 0 0 0 0 0 0 0 0 0 0 0 0 0 0 0 
0 0 0 0 0 0 0 0 0 0 0 0 0 0 0 0 0 0 0 0 0 0 0 0 
0 0 0 0 0 0 0 0 0 0 0 0 0 0 0 0 0 0 0 0 0 0 0 0 
0 0 0 0 0 0 0 0 0 0 0 0 0 0 0 0 0 0 0 0 0 0 0 0 
0 0 0 0 0 0 0 0 0 0 0 0 0 0 0 0 0 0 0 0 0 0 0 0 
0 0 0 0 0 0 0 0 0 0 0 0 0 0 0 0 0 0 0 0 0 0 0 0 
0 0 0 0 0 0 0 0 0 0 0 0 0 0 0 0 0 0 0 0 0 0 0 0 
0 0 0 0 0 0 0 0 0 0 0 0 0 0 0 0 0 0 0 0 0 0 0 0 
0 0 0 0 0 0 0 0 0 0 0 0 0 0 0 0 0 0 0 0 0 0 0 0 
0 0 0 0 0 0 0 0 0 0 0 0 0 0 0 0 0 0 0 0 0 0 0 0 
0 0 0 0 0 0 0 0 0 0 0 0 0 0 0 0 0 0 0 0 0 0 0 0 
0 0 0 0 0 0 0 0 0 0 0 0 0 0 0 0 0 0 0 0 0 0 0 0 
0 0 0 0 0 0 0 0 0 0 0 0 0 0 0 0 0 0 0 0 0 0 0 0 
0 0 0 0 0 0 0 0 0 0 0 0 0 0 0 0 0 0 0 0 0 0 0 0 
0 0 0 0 0 0 0 0 0 0 0 0 0 0 0 0 0 0 0 0 0 0 0 0 
0 0 0 0 0 0 0 0 0 0 0 0 0 0 0 0 0 0 0 0 0 0 0 0 
0 0 0 0 0 0 0 0 0 0 0 0 0 0 0 0 0 0 0 0 0 0 0 0 
0 0 0 0 0 0 0 0 0 0 0 0 0 0 0 0 0 0 0 0 0 0 0 0 
0 0 0 0 0 0 0 0 0 0 0 0 0 0 0 0 0 0 0 0 0 0 0 0 
0 0 0 0 0 0 0 0 0 0 0 0 0 0 0 0 0 0 0 0 0 0 0 0 
0 0 0 0 0 0 0 0 0 0 0 0 0 0 0 0 0 0 0 0 0 0 0 0 
0 0 0 0 0 0 0 0 0 0 0 0 0 0 0 0 0 0 0 0 0 0 0 0 
0 0 0 0 0 0 0 0 0 0 0 0 0 0 0 
0 0 0 0 0 0 0 0 0 0 0 0 0 0 0 0 0 0 0 0 0 0 0 0 
0 0 0 0 0 0 0 0 0 0 0 0 0 0 0 0 0 0 0 0 0 0 0 0 
0 0 0 0 0 0 0 0 0 0 0 0 0 0 0 0 0 0 0 0 0 0 0 0 
0 0 0 0 0 0 0 0 0 0 0 0 0 0 0 0 0 0 0 0 0 0 0 0 
0 0 0 0 0 0 0 0 0 0 0 0 0 0 0 0 0 0 0 0 0 0 0 0 
0 0 0 0 0 0 0 0 0 0 0 0 0 0 0 0 0 0 0 0 0 0 0 0 
0 0 0 0 0 0 0 0 0 0 0 0 0 0 0 0 0 0 0 0 0 0 0 0 
0 0 0 0 0 0 0 0 0 0 0 0 0 0 0 0 0 0 0 0 0 0 0 0 
0 0 0 0 0 0 0 0 0 0 0 0 0 0 0 0 0 0 0 0 0 0 0 0 
0 0 0 0 0 0 0 0 0 0 0 0 0 0 0 0 0 0 0 0 0 0 0 0 
0 0 0 0 0 0 0 0 0 0 0 0 0 0 0 0 0 0 0 0 0 0 0 0 
0 0 0 0 0 0 0 0 0 0 0 0 0 0 0 0 0 0 0 0 0 0 0 0 
0 0 0 0 0 0 0 0 0 0 0 0 0 0 0 0 0 0 0 0 0 0 0 0 
0 0 0 0 0 0 0 0 0 0 0 0 0 0 0 0 0 0 0 0 0 0 0 0 
0 0 0 0 0 0 0 0 0 0 0 0 0 0 0 0 0 0 0 0 0 0 0 0 
0 0 0 0 0 0 0 0 0 0 0 0 0 0 0 0 0 0 0 0 0 0 0 0 
0 0 0 0 0 0 0 0 0 0 0 0 0 0 0 0 0 0 0 0 0 0 0 0 
0 0 0 0 0 0 0 0 0 0 0 0 0 0 0 0 0 0 0 0 0 0 0 0 
0 0 0 0 0 0 0 0 0 0 0 0 0 0 0 0 0 0 0 0 0 0 0 0 
0 0 0 0 0 0 0 0 0 0 0 0 0 0 0 0 0 0 0 0 0 0 0 0 
0 0 0 0 0 0 0 0 0 0 0 0 0 0 0 0 0 0 0 0 0 0 0 0 
0 0 0 0 0 0 0 0 0 0 0 0 0 0 0 0 0 0 0 0 0 0 0 0 
0 0 0 0 0 0 0 0 0 0 0 0 0 0 0 
0 0 0 0 0 0 0 0 0 0 0 0 0 0 0 0 0 0 0 0 0 0 0 0 
0 0 0 0 0 0 0 0 0 0 0 0 0 0 0 0 0 0 0 0 0 0 0 0 
0 0 0 0 0 0 0 0 0 0 0 0 0 0 0 0 0 0 0 0 0 0 0 0 
0 0 0 0 0 0 0 0 0 0 0 0 0 0 0 0 0 0 0 0 0 0 0 0 
0 0 0 0 0 0 0 0 0 0 0 0 0 0 0 0 0 0 0 0 0 0 0 0 
0 0 0 0 0 0 0 0 0 0 0 0 0 0 0 0 0 0 0 0 0 0 0 0 
0 0 0 0 0 0 0 0 0 0 0 0 0 0 0 0 0 0 0 0 0 0 0 0 
0 0 0 0 0 0 0 0 0 0 0 0 0 0 0 0 0 0 0 0 0 0 0 0 
0 0 0 0 0 0 0 0 0 0 0 0 0 0 0 0 0 0 0 0 0 0 0 0 
0 0 0 0 0 0 0 0 0 0 0 0 0 0 0 0 0 0 0 0 0 0 0 0 
0 0 0 0 0 0 0 0 0 0 0 0 0 0 0 0 0 0 0 0 0 0 0 0 
0 0 0 0 0 0 0 0 0 0 0 0 0 0 0 0 0 0 0 0 0 0 0 0 
0 0 0 0 0 0 0 0 0 0 0 0 0 0 0 0 0 0 0 0 0 0 0 0 
0 0 0 0 0 0 0 0 0 0 0 0 0 0 0 0 0 0 0 0 0 0 0 0 
0 0 0 0 0 0 0 0 0 0 0 0 0 0 0 0 0 0 0 0 0 0 0 0 
0 0 0 0 0 0 0 0 0 0 0 0 0 0 0 0 0 0 0 0 0 0 0 0 
0 0 0 0 0 0 0 0 0 0 0 0 0 0 0 0 0 0 0 0 0 0 0 0 
0 0 0 0 0 0 0 0 0 0 0 0 0 0 0 0 0 0 0 0 0 0 0 0 
0 0 0 0 0 0 0 0 0 0 0 0 0 0 0 0 0 0 0 0 0 0 0 0 
0 0 0 0 0 0 0 0 0 0 0 0 0 0 0 0 0 0 0 0 0 0 0 0 
0 0 0 0 0 0 0 0 0 0 0 0 0 0 0 0 0 0 0 0 0 0 0 0 
0 0 0 0 0 0 0 0 0 0 0 0 0 0 0 0 0 0 0 0 0 0 0 0 
0 0 0 0 0 0 0 0 0 0 0 0 0 0 0 
0 0 0 0 0 0 0 0 0 0 0 0 0 0 0 0 0 0 0 0 0 0 0 0 
0 0 0 0 0 0 0 0 0 0 0 0 0 0 0 0 0 0 0 0 0 0 0 0 
0 0 0 0 0 0 0 0 0 0 0 0 0 0 0 0 0 0 0 0 0 0 0 0 
0 0 0 0 0 0 0 0 0 0 0 0 0 0 0 0 0 0 0 0 0 0 0 0 
0 0 0 0 0 0 0 0 0 0 0 0 0 0 0 0 0 0 0 0 0 0 0 0 
0 0 0 0 0 0 0 0 0 0 0 0 0 0 0 0 0 0 0 0 0 0 0 0 
0 0 0 0 0 0 0 0 0 0 0 0 0 0 0 0 0 0 0 0 0 0 0 0 
0 0 0 0 0 0 0 0 0 0 0 0 0 0 0 0 0 0 0 0 0 0 0 0 
0 0 0 0 0 0 0 0 0 0 0 0 0 0 0 0 0 0 0 0 0 0 0 0 
0 0 0 0 0 0 0 0 0 0 0 0 0 0 0 0 0 0 0 0 0 0 0 0 
0 0 0 0 0 0 0 0 0 0 0 0 0 0 0 0 0 0 0 0 0 0 0 0 
0 0 0 0 0 0 0 0 0 0 0 0 0 0 0 0 0 0 0 0 0 0 0 0 
0 0 0 0 0 0 0 0 0 0 0 0 0 0 0 0 0 0 0 0 0 0 0 0 
0 0 0 0 0 0 0 0 0 0 0 0 0 0 0 0 0 0 0 0 0 0 0 0 
0 0 0 0 0 0 0 0 0 0 0 0 0 0 0 0 0 0 0 0 0 0 0 0 
0 0 0 0 0 0 0 0 0 0 0 0 0 0 0 0 0 0 0 0 0 0 0 0 
0 0 0 0 0 0 0 0 0 0 0 0 0 0 0 0 0 0 0 0 0 0 0 0 
0 0 0 0 0 0 0 0 0 0 0 0 0 0 0 0 0 0 0 0 0 0 0 0 
0 0 0 0 0 0 0 0 0 0 0 0 0 0 0 0 0 0 0 0 0 0 0 0 
0 0 0 0 0 0 0 0 0 0 0 0 0 0 0 0 0 0 0 0 0 0 0 0 
0 0 0 0 0 0 0 0 0 0 0 0 0 0 0 0 0 0 0 0 0 0 0 0 
0 0 0 0 0 0 0 0 0 0 0 0 0 0 0 0 0 0 0 0 0 0 0 0 
0 0 0 0 0 0 0 0 0 0 0 0 0 0 0 
0 0 0 0 0 0 0 0 0 0 0 0 0 0 0 0 0 0 0 0 0 0 0 0 
0 0 0 0 0 0 0 0 0 0 0 0 0 0 0 0 0 0 0 0 0 0 0 0 
0 0 0 0 0 0 0 0 0 0 0 0 0 0 0 0 0 0 0 0 0 0 0 0 
0 0 0 0 0 0 0 0 0 0 0 0 0 0 0 0 0 0 0 0 0 0 0 0 
0 0 0 0 0 0 0 0 0 0 0 0 0 0 0 0 0 0 0 0 0 0 0 0 
0 0 0 0 0 0 0 0 0 0 0 0 0 0 0 0 0 0 0 0 0 0 0 0 
0 0 0 0 0 0 0 0 0 0 0 0 0 0 0 0 0 0 0 0 0 0 0 0 
0 0 0 0 0 0 0 0 0 0 0 0 0 0 0 0 0 0 0 0 0 0 0 0 
0 0 0 0 0 0 0 0 0 0 0 0 0 0 0 0 0 0 0 0 0 0 0 0 
0 0 0 0 0 0 0 0 0 0 0 0 0 0 0 0 0 0 0 0 0 0 0 0 
0 0 0 0 0 0 0 0 0 0 0 0 0 0 0 0 0 0 0 0 0 0 0 0 
0 0 0 0 0 0 0 0 0 0 0 0 0 0 0 0 0 0 0 0 0 0 0 0 
0 0 0 0 0 0 0 0 0 0 0 0 0 0 0 0 0 0 0 0 0 0 0 0 
0 0 0 0 0 0 0 0 0 0 0 0 0 0 0 0 0 0 0 0 0 0 0 0 
0 0 0 0 0 0 0 0 0 0 0 0 0 0 0 0 0 0 0 0 0 0 0 0 
0 0 0 0 0 0 0 0 0 0 0 0 0 0 0 0 0 0 0 0 0 0 0 0 
0 0 0 0 0 0 0 0 0 0 0 0 0 0 0 0 0 0 0 0 0 0 0 0 
0 0 0 0 0 0 0 0 0 0 0 0 0 0 0 0 0 0 0 0 0 0 0 0 
0 0 0 0 0 0 0 0 0 0 0 0 0 0 0 0 0 0 0 0 0 0 0 0 
0 0 0 0 0 0 0 0 0 0 0 0 0 0 0 0 0 0 0 0 0 0 0 0 
0 0 0 0 0 0 0 0 0 0 0 0 0 0 0 0 0 0 0 0 0 0 0 0 
0 0 0 0 0 0 0 0 0 0 0 0 0 0 0 0 0 0 0 0 0 0 0 0 
0 0 0 0 0 0 0 0 0 0 0 0 0 0 0 
0 0 0 0 0 0 0 0 0 0 0 0 0 0 0 0 0 0 0 0 0 0 0 0 
0 0 0 0 0 0 0 0 0 0 0 0 0 0 0 0 0 0 0 0 0 0 0 0 
0 0 0 0 0 0 0 0 0 0 0 0 0 0 0 0 0 0 0 0 0 0 0 0 
0 0 0 0 0 0 0 0 0 0 0 0 0 0 0 0 0 0 0 0 0 0 0 0 
0 0 0 0 0 0 0 0 0 0 0 0 0 0 0 0 0 0 0 0 0 0 0 0 
0 0 0 0 0 0 0 0 0 0 0 0 0 0 0 0 0 0 0 0 0 0 0 0 
0 0 0 0 0 0 0 0 0 0 0 0 0 0 0 0 0 0 0 0 0 0 0 0 
0 0 0 0 0 0 0 0 0 0 0 0 0 0 0 0 0 0 0 0 0 0 0 0 
0 0 0 0 0 0 0 0 0 0 0 0 0 0 0 0 0 0 0 0 0 0 0 0 
0 0 0 0 0 0 0 0 0 0 0 0 0 0 0 0 0 0 0 0 0 0 0 0 
0 0 0 0 0 0 0 0 0 0 0 0 0 0 0 0 0 0 0 0 0 0 0 0 
0 0 0 0 0 0 0 0 0 0 0 0 0 0 0 0 0 0 0 0 0 0 0 0 
0 0 0 0 0 0 0 0 0 0 0 0 0 0 0 0 0 0 0 0 0 0 0 0 
0 0 0 0 0 0 0 0 0 0 0 0 0 0 0 0 0 0 0 0 0 0 0 0 
0 0 0 0 0 0 0 0 0 0 0 0 0 0 0 0 0 0 0 0 0 0 0 0 
0 0 0 0 0 0 0 0 0 0 0 0 0 0 0 0 0 0 0 0 0 0 0 0 
0 0 0 0 0 0 0 0 0 0 0 0 0 0 0 0 0 0 0 0 0 0 0 0 
0 0 0 0 0 0 0 0 0 0 0 0 0 0 0 0 0 0 0 0 0 0 0 0 
0 0 0 0 0 0 0 0 0 0 0 0 0 0 0 0 0 0 0 0 0 0 0 0 
0 0 0 0 0 0 0 0 0 0 0 0 0 0 0 0 0 0 0 0 0 0 0 0 
0 0 0 0 0 0 0 0 0 0 0 0 0 0 0 0 0 0 0 0 0 0 0 0 
0 0 0 0 0 0 0 0 0 0 0 0 0 0 0 0 0 0 0 0 0 0 0 0 
0 0 0 0 0 0 0 0 0 0 0 0 0 0 0 
0 0 0 0 0 0 0 0 0 0 0 0 0 0 0 0 0 0 0 0 0 0 0 0 
0 0 0 0 0 0 0 0 0 0 0 0 0 0 0 0 0 0 0 0 0 0 0 0 
0 0 0 0 0 0 0 0 0 0 0 0 0 0 0 0 0 0 0 0 0 0 0 0 
0 0 0 0 0 0 0 0 0 0 0 0 0 0 0 0 0 0 0 0 0 0 0 0 
0 0 0 0 0 0 0 0 0 0 0 0 0 0 0 0 0 0 0 0 0 0 0 0 
0 0 0 0 0 0 0 0 0 0 0 0 0 0 0 0 0 0 0 0 0 0 0 0 
0 0 0 0 0 0 0 0 0 0 0 0 0 0 0 0 0 0 0 0 0 0 0 0 
0 0 0 0 0 0 0 0 0 0 0 0 0 0 0 0 0 0 0 0 0 0 0 0 
0 0 0 0 0 0 0 0 0 0 0 0 0 0 0 0 0 0 0 0 0 0 0 0 
0 0 0 0 0 0 0 0 0 0 0 0 0 0 0 0 0 0 0 0 0 0 0 0 
0 0 0 0 0 0 0 0 0 0 0 0 0 0 0 0 0 0 0 0 0 0 0 0 
0 0 0 0 0 0 0 0 0 0 0 0 0 0 0 0 0 0 0 0 0 0 0 0 
0 0 0 0 0 0 0 0 0 0 0 0 0 0 0 0 0 0 0 0 0 0 0 0 
0 0 0 0 0 0 0 0 0 0 0 0 0 0 0 0 0 0 0 0 0 0 0 0 
0 0 0 0 0 0 0 0 0 0 0 0 0 0 0 0 0 0 0 0 0 0 0 0 
0 0 0 0 0 0 0 0 0 0 0 0 0 0 0 0 0 0 0 0 0 0 0 0 
0 0 0 0 0 0 0 0 0 0 0 0 0 0 0 0 0 0 0 0 0 0 0 0 
0 0 0 0 0 0 0 0 0 0 0 0 0 0 0 0 0 0 0 0 0 0 0 0 
0 0 0 0 0 0 0 0 0 0 0 0 0 0 0 0 0 0 0 0 0 0 0 0 
0 0 0 0 0 0 0 0 0 0 0 0 0 0 0 0 0 0 0 0 0 0 0 0 
0 0 0 0 0 0 0 0 0 0 0 0 0 0 0 0 0 0 0 0 0 0 0 0 
0 0 0 0 0 0 0 0 0 0 0 0 0 0 0 0 0 0 0 0 0 0 0 0 
0 0 0 0 0 0 0 0 0 0 0 0 0 0 0 
0 0 0 0 0 0 0 0 0 0 0 0 0 0 0 0 0 0 0 0 0 0 0 0 
0 0 0 0 0 0 0 0 0 0 0 0 0 0 0 0 0 0 0 0 0 0 0 0 
0 0 0 0 0 0 0 0 0 0 0 0 0 0 0 0 0 0 0 0 0 0 0 0 
0 0 0 0 0 0 0 0 0 0 0 0 0 0 0 0 0 0 0 0 0 0 0 0 
0 0 0 0 0 0 0 0 0 0 0 0 0 0 0 0 0 0 0 0 0 0 0 0 
0 0 0 0 0 0 0 0 0 0 0 0 0 0 0 0 0 0 0 0 0 0 0 0 
0 0 0 0 0 0 0 0 0 0 0 0 0 0 0 0 0 0 0 0 0 0 0 0 
0 0 0 0 0 0 0 0 0 0 0 0 0 0 0 0 0 0 0 0 0 0 0 0 
0 0 0 0 0 0 0 0 0 0 0 0 0 0 0 0 0 0 0 0 0 0 0 0 
0 0 0 0 0 0 0 0 0 0 0 0 0 0 0 0 0 0 0 0 0 0 0 0 
0 0 0 0 0 0 0 0 0 0 0 0 0 0 0 0 0 0 0 0 0 0 0 0 
0 0 0 0 0 0 0 0 0 0 0 0 0 0 0 0 0 0 0 0 0 0 0 0 
0 0 0 0 0 0 0 0 0 0 0 0 0 0 0 0 0 0 0 0 0 0 0 0 
0 0 0 0 0 0 0 0 0 0 0 0 0 0 0 0 0 0 0 0 0 0 0 0 
0 0 0 0 0 0 0 0 0 0 0 0 0 0 0 0 0 0 0 0 0 0 0 0 
0 0 0 0 0 0 0 0 0 0 0 0 0 0 0 0 0 0 0 0 0 0 0 0 
0 0 0 0 0 0 0 0 0 0 0 0 0 0 0 0 0 0 0 0 0 0 0 0 
0 0 0 0 0 0 0 0 0 0 0 0 0 0 0 0 0 0 0 0 0 0 0 0 
0 0 0 0 0 0 0 0 0 0 0 0 0 0 0 0 0 0 0 0 0 0 0 0 
0 0 0 0 0 0 0 0 0 0 0 0 0 0 0 0 0 0 0 0 0 0 0 0 
0 0 0 0 0 0 0 0 0 0 0 0 0 0 0 0 0 0 0 0 0 0 0 0 
0 0 0 0 0 0 0 0 0 0 0 0 0 0 0 0 0 0 0 0 0 0 0 0 
0 0 0 0 0 0 0 0 0 0 0 0 0 0 0 
0 0 0 0 0 0 0 0 0 0 0 0 0 0 0 0 0 0 0 0 0 0 0 0 
0 0 0 0 0 0 0 0 0 0 0 0 0 0 0 0 0 0 0 0 0 0 0 0 
0 0 0 0 0 0 0 0 0 0 0 0 0 0 0 0 0 0 0 0 0 0 0 0 
0 0 0 0 0 0 0 0 0 0 0 0 0 0 0 0 0 0 0 0 0 0 0 0 
0 0 0 0 0 0 0 0 0 0 0 0 0 0 0 0 0 0 0 0 0 0 0 0 
0 0 0 0 0 0 0 0 0 0 0 0 0 0 0 0 0 0 0 0 0 0 0 0 
0 0 0 0 0 0 0 0 0 0 0 0 0 0 0 0 0 0 0 0 0 0 0 0 
0 0 0 0 0 0 0 0 0 0 0 0 0 0 0 0 0 0 0 0 0 0 0 0 
0 0 0 0 0 0 0 0 0 0 0 0 0 0 0 0 0 0 0 0 0 0 0 0 
0 0 0 0 0 0 0 0 0 0 0 0 0 0 0 0 0 0 0 0 0 0 0 0 
0 0 0 0 0 0 0 0 0 0 0 0 0 0 0 0 0 0 0 0 0 0 0 0 
0 0 0 0 0 0 0 0 0 0 0 0 0 0 0 0 0 0 0 0 0 0 0 0 
0 0 0 0 0 0 0 0 0 0 0 0 0 0 0 0 0 0 0 0 0 0 0 0 
0 0 0 0 0 0 0 0 0 0 0 0 0 0 0 0 0 0 0 0 0 0 0 0 
0 0 0 0 0 0 0 0 0 0 0 0 0 0 0 0 0 0 0 0 0 0 0 0 
0 0 0 0 0 0 0 0 0 0 0 0 0 0 0 0 0 0 0 0 0 0 0 0 
0 0 0 0 0 0 0 0 0 0 0 0 0 0 0 0 0 0 0 0 0 0 0 0 
0 0 0 0 0 0 0 0 0 0 0 0 0 0 0 0 0 0 0 0 0 0 0 0 
0 0 0 0 0 0 0 0 0 0 0 0 0 0 0 0 0 0 0 0 0 0 0 0 
0 0 0 0 0 0 0 0 0 0 0 0 0 0 0 0 0 0 0 0 0 0 0 0 
0 0 0 0 0 0 0 0 0 0 0 0 0 0 0 0 0 0 0 0 0 0 0 0 
0 0 0 0 0 0 0 0 0 0 0 0 0 0 0 0 0 0 0 0 0 0 0 0 
0 0 0 0 0 0 0 0 0 0 0 0 0 0 0 
0 0 0 0 0 0 0 0 0 0 0 0 0 0 0 0 0 0 0 0 0 0 0 0 
0 0 0 0 0 0 0 0 0 0 0 0 0 0 0 0 0 0 0 0 0 0 0 0 
0 0 0 0 0 0 0 0 0 0 0 0 0 0 0 0 0 0 0 0 0 0 0 0 
0 0 0 0 0 0 0 0 0 0 0 0 0 0 0 0 0 0 0 0 0 0 0 0 
0 0 0 0 0 0 0 0 0 0 0 0 0 0 0 0 0 0 0 0 0 0 0 0 
0 0 0 0 0 0 0 0 0 0 0 0 0 0 0 0 0 0 0 0 0 0 0 0 
0 0 0 0 0 0 0 0 0 0 0 0 0 0 0 0 0 0 0 0 0 0 0 0 
0 0 0 0 0 0 0 0 0 0 0 0 0 0 0 0 0 0 0 0 0 0 0 0 
0 0 0 0 0 0 0 0 0 0 0 0 0 0 0 0 0 0 0 0 0 0 0 0 
0 0 0 0 0 0 0 0 0 0 0 0 0 0 0 0 0 0 0 0 0 0 0 0 
0 0 0 0 0 0 0 0 0 0 0 0 0 0 0 0 0 0 0 0 0 0 0 0 
0 0 0 0 0 0 0 0 0 0 0 0 0 0 0 0 0 0 0 0 0 0 0 0 
0 0 0 0 0 0 0 0 0 0 0 0 0 0 0 0 0 0 0 0 0 0 0 0 
0 0 0 0 0 0 0 0 0 0 0 0 0 0 0 0 0 0 0 0 0 0 0 0 
0 0 0 0 0 0 0 0 0 0 0 0 0 0 0 0 0 0 0 0 0 0 0 0 
0 0 0 0 0 0 0 0 0 0 0 0 0 0 0 0 0 0 0 0 0 0 0 0 
0 0 0 0 0 0 0 0 0 0 0 0 0 0 0 0 0 0 0 0 0 0 0 0 
0 0 0 0 0 0 0 0 0 0 0 0 0 0 0 0 0 0 0 0 0 0 0 0 
0 0 0 0 0 0 0 0 0 0 0 0 0 0 0 0 0 0 0 0 0 0 0 0 
0 0 0 0 0 0 0 0 0 0 0 0 0 0 0 0 0 0 0 0 0 0 0 0 
0 0 0 0 0 0 0 0 0 0 0 0 0 0 0 0 0 0 0 0 0 0 0 0 
0 0 0 0 0 0 0 0 0 0 0 0 0 0 0 0 0 0 0 0 0 0 0 0 
0 0 0 0 0 0 0 0 0 0 0 0 0 0 0 
0 0 0 0 0 0 0 0 0 0 0 0 0 0 0 0 0 0 0 0 0 0 0 0 
0 0 0 0 0 0 0 0 0 0 0 0 0 0 0 0 0 0 0 0 0 0 0 0 
0 0 0 0 0 0 0 0 0 0 0 0 0 0 0 0 0 0 0 0 0 0 0 0 
0 0 0 0 0 0 0 0 0 0 0 0 0 0 0 0 0 0 0 0 0 0 0 0 
0 0 0 0 0 0 0 0 0 0 0 0 0 0 0 0 0 0 0 0 0 0 0 0 
0 0 0 0 0 0 0 0 0 0 0 0 0 0 0 0 0 0 0 0 0 0 0 0 
0 0 0 0 0 0 0 0 0 0 0 0 0 0 0 0 0 0 0 0 0 0 0 0 
0 0 0 0 0 0 0 0 0 0 0 0 0 0 0 0 0 0 0 0 0 0 0 0 
0 0 0 0 0 0 0 0 0 0 0 0 0 0 0 0 0 0 0 0 0 0 0 0 
0 0 0 0 0 0 0 0 0 0 0 0 0 0 0 0 0 0 0 0 0 0 0 0 
0 0 0 0 0 0 0 0 0 0 0 0 0 0 0 0 0 0 0 0 0 0 0 0 
0 0 0 0 0 0 0 0 0 0 0 0 0 0 0 0 0 0 0 0 0 0 0 0 
0 0 0 0 0 0 0 0 0 0 0 0 0 0 0 0 0 0 0 0 0 0 0 0 
0 0 0 0 0 0 0 0 0 0 0 0 0 0 0 0 0 0 0 0 0 0 0 0 
0 0 0 0 0 0 0 0 0 0 0 0 0 0 0 0 0 0 0 0 0 0 0 0 
0 0 0 0 0 0 0 0 0 0 0 0 0 0 0 0 0 0 0 0 0 0 0 0 
0 0 0 0 0 0 0 0 0 0 0 0 0 0 0 0 0 0 0 0 0 0 0 0 
0 0 0 0 0 0 0 0 0 0 0 0 0 0 0 0 0 0 0 0 0 0 0 0 
0 0 0 0 0 0 0 0 0 0 0 0 0 0 0 0 0 0 0 0 0 0 0 0 
0 0 0 0 0 0 0 0 0 0 0 0 0 0 0 0 0 0 0 0 0 0 0 0 
0 0 0 0 0 0 0 0 0 0 0 0 0 0 0 0 0 0 0 0 0 0 0 0 
0 0 0 0 0 0 0 0 0 0 0 0 0 0 0 0 0 0 0 0 0 0 0 0 
0 0 0 0 0 0 0 0 0 0 0 0 0 0 0 
0 0 0 0 0 0 0 0 0 0 0 0 0 0 0 0 0 0 0 0 0 0 0 0 
0 0 0 0 0 0 0 0 0 0 0 0 0 0 0 0 0 0 0 0 0 0 0 0 
0 0 0 0 0 0 0 0 0 0 0 0 0 0 0 0 0 0 0 0 0 0 0 0 
0 0 0 0 0 0 0 0 0 0 0 0 0 0 0 0 0 0 0 0 0 0 0 0 
0 0 0 0 0 0 0 0 0 0 0 0 0 0 0 0 0 0 0 0 0 0 0 0 
0 0 0 0 0 0 0 0 0 0 0 0 0 0 0 0 0 0 0 0 0 0 0 0 
0 0 0 0 0 0 0 0 0 0 0 0 0 0 0 0 0 0 0 0 0 0 0 0 
0 0 0 0 0 0 0 0 0 0 0 0 0 0 0 0 0 0 0 0 0 0 0 0 
0 0 0 0 0 0 0 0 0 0 0 0 0 0 0 0 0 0 0 0 0 0 0 0 
0 0 0 0 0 0 0 0 0 0 0 0 0 0 0 0 0 0 0 0 0 0 0 0 
0 0 0 0 0 0 0 0 0 0 0 0 0 0 0 0 0 0 0 0 0 0 0 0 
0 0 0 0 0 0 0 0 0 0 0 0 0 0 0 0 0 0 0 0 0 0 0 0 
0 0 0 0 0 0 0 0 0 0 0 0 0 0 0 0 0 0 0 0 0 0 0 0 
0 0 0 0 0 0 0 0 0 0 0 0 0 0 0 0 0 0 0 0 0 0 0 0 
0 0 0 0 0 0 0 0 0 0 0 0 0 0 0 0 0 0 0 0 0 0 0 0 
0 0 0 0 0 0 0 0 0 0 0 0 0 0 0 0 0 0 0 0 0 0 0 0 
0 0 0 0 0 0 0 0 0 0 0 0 0 0 0 0 0 0 0 0 0 0 0 0 
0 0 0 0 0 0 0 0 0 0 0 0 0 0 0 0 0 0 0 0 0 0 0 0 
0 0 0 0 0 0 0 0 0 0 0 0 0 0 0 0 0 0 0 0 0 0 0 0 
0 0 0 0 0 0 0 0 0 0 0 0 0 0 0 0 0 0 0 0 0 0 0 0 
0 0 0 0 0 0 0 0 0 0 0 0 0 0 0 0 0 0 0 0 0 0 0 0 
0 0 0 0 0 0 0 0 0 0 0 0 0 0 0 0 0 0 0 0 0 0 0 0 
0 0 0 0 0 0 0 0 0 0 0 0 0 0 0 
0 0 0 0 0 0 0 0 0 0 0 0 0 0 0 0 0 0 0 0 0 0 0 0 
0 0 0 0 0 0 0 0 0 0 0 0 0 0 0 0 0 0 0 0 0 0 0 0 
0 0 0 0 0 0 0 0 0 0 0 0 0 0 0 0 0 0 0 0 0 0 0 0 
0 0 0 0 0 0 0 0 0 0 0 0 0 0 0 0 0 0 0 0 0 0 0 0 
0 0 0 0 0 0 0 0 0 0 0 0 0 0 0 0 0 0 0 0 0 0 0 0 
0 0 0 0 0 0 0 0 0 0 0 0 0 0 0 0 0 0 0 0 0 0 0 0 
0 0 0 0 0 0 0 0 0 0 0 0 0 0 0 0 0 0 0 0 0 0 0 0 
0 0 0 0 0 0 0 0 0 0 0 0 0 0 0 0 0 0 0 0 0 0 0 0 
0 0 0 0 0 0 0 0 0 0 0 0 0 0 0 0 0 0 0 0 0 0 0 0 
0 0 0 0 0 0 0 0 0 0 0 0 0 0 0 0 0 0 0 0 0 0 0 0 
0 0 0 0 0 0 0 0 0 0 0 0 0 0 0 0 0 0 0 0 0 0 0 0 
0 0 0 0 0 0 0 0 0 0 0 0 0 0 0 0 0 0 0 0 0 0 0 0 
0 0 0 0 0 0 0 0 0 0 0 0 0 0 0 0 0 0 0 0 0 0 0 0 
0 0 0 0 0 0 0 0 0 0 0 0 0 0 0 0 0 0 0 0 0 0 0 0 
0 0 0 0 0 0 0 0 0 0 0 0 0 0 0 0 0 0 0 0 0 0 0 0 
0 0 0 0 0 0 0 0 0 0 0 0 0 0 0 0 0 0 0 0 0 0 0 0 
0 0 0 0 0 0 0 0 0 0 0 0 0 0 0 0 0 0 0 0 0 0 0 0 
0 0 0 0 0 0 0 0 0 0 0 0 0 0 0 0 0 0 0 0 0 0 0 0 
0 0 0 0 0 0 0 0 0 0 0 0 0 0 0 0 0 0 0 0 0 0 0 0 
0 0 0 0 0 0 0 0 0 0 0 0 0 0 0 0 0 0 0 0 0 0 0 0 
0 0 0 0 0 0 0 0 0 0 0 0 0 0 0 0 0 0 0 0 0 0 0 0 
0 0 0 0 0 0 0 0 0 0 0 0 0 0 0 0 0 0 0 0 0 0 0 0 
0 0 0 0 0 0 0 0 0 0 0 0 0 0 0 
0 0 0 0 0 0 0 0 0 0 0 0 0 0 0 0 0 0 0 0 0 0 0 0 
0 0 0 0 0 0 0 0 0 0 0 0 0 0 0 0 0 0 0 0 0 0 0 0 
0 0 0 0 0 0 0 0 0 0 0 0 0 0 0 0 0 0 0 0 0 0 0 0 
0 0 0 0 0 0 0 0 0 0 0 0 0 0 0 0 0 0 0 0 0 0 0 0 
0 0 0 0 0 0 0 0 0 0 0 0 0 0 0 0 0 0 0 0 0 0 0 0 
0 0 0 0 0 0 0 0 0 0 0 0 0 0 0 0 0 0 0 0 0 0 0 0 
0 0 0 0 0 0 0 0 0 0 0 0 0 0 0 0 0 0 0 0 0 0 0 0 
0 0 0 0 0 0 0 0 0 0 0 0 0 0 0 0 0 0 0 0 0 0 0 0 
0 0 0 0 0 0 0 0 0 0 0 0 0 0 0 0 0 0 0 0 0 0 0 0 
0 0 0 0 0 0 0 0 0 0 0 0 0 0 0 0 0 0 0 0 0 0 0 0 
0 0 0 0 0 0 0 0 0 0 0 0 0 0 0 0 0 0 0 0 0 0 0 0 
0 0 0 0 0 0 0 0 0 0 0 0 0 0 0 0 0 0 0 0 0 0 0 0 
0 0 0 0 0 0 0 0 0 0 0 0 0 0 0 0 0 0 0 0 0 0 0 0 
0 0 0 0 0 0 0 0 0 0 0 0 0 0 0 0 0 0 0 0 0 0 0 0 
0 0 0 0 0 0 0 0 0 0 0 0 0 0 0 0 0 0 0 0 0 0 0 0 
0 0 0 0 0 0 0 0 0 0 0 0 0 0 0 0 0 0 0 0 0 0 0 0 
0 0 0 0 0 0 0 0 0 0 0 0 0 0 0 0 0 0 0 0 0 0 0 0 
0 0 0 0 0 0 0 0 0 0 0 0 0 0 0 0 0 0 0 0 0 0 0 0 
0 0 0 0 0 0 0 0 0 0 0 0 0 0 0 0 0 0 0 0 0 0 0 0 
0 0 0 0 0 0 0 0 0 0 0 0 0 0 0 0 0 0 0 0 0 0 0 0 
0 0 0 0 0 0 0 0 0 0 0 0 0 0 0 0 0 0 0 0 0 0 0 0 
0 0 0 0 0 0 0 0 0 0 0 0 0 0 0 0 0 0 0 0 0 0 0 0 
0 0 0 0 0 0 0 0 0 0 0 0 0 0 0 
0 0 0 0 0 0 0 0 0 0 0 0 0 0 0 0 0 0 0 0 0 0 0 0 
0 0 0 0 0 0 0 0 0 0 0 0 0 0 0 0 0 0 0 0 0 0 0 0 
0 0 0 0 0 0 0 0 0 0 0 0 0 0 0 0 0 0 0 0 0 0 0 0 
0 0 0 0 0 0 0 0 0 0 0 0 0 0 0 0 0 0 0 0 0 0 0 0 
0 0 0 0 0 0 0 0 0 0 0 0 0 0 0 0 0 0 0 0 0 0 0 0 
0 0 0 0 0 0 0 0 0 0 0 0 0 0 0 0 0 0 0 0 0 0 0 0 
0 0 0 0 0 0 0 0 0 0 0 0 0 0 0 0 0 0 0 0 0 0 0 0 
0 0 0 0 0 0 0 0 0 0 0 0 0 0 0 0 0 0 0 0 0 0 0 0 
0 0 0 0 0 0 0 0 0 0 0 0 0 0 0 0 0 0 0 0 0 0 0 0 
0 0 0 0 0 0 0 0 0 0 0 0 0 0 0 0 0 0 0 0 0 0 0 0 
0 0 0 0 0 0 0 0 0 0 0 0 0 0 0 0 0 0 0 0 0 0 0 0 
0 0 0 0 0 0 0 0 0 0 0 0 0 0 0 0 0 0 0 0 0 0 0 0 
0 0 0 0 0 0 0 0 0 0 0 0 0 0 0 0 0 0 0 0 0 0 0 0 
0 0 0 0 0 0 0 0 0 0 0 0 0 0 0 0 0 0 0 0 0 0 0 0 
0 0 0 0 0 0 0 0 0 0 0 0 0 0 0 0 0 0 0 0 0 0 0 0 
0 0 0 0 0 0 0 0 0 0 0 0 0 0 0 0 0 0 0 0 0 0 0 0 
0 0 0 0 0 0 0 0 0 0 0 0 0 0 0 0 0 0 0 0 0 0 0 0 
0 0 0 0 0 0 0 0 0 0 0 0 0 0 0 0 0 0 0 0 0 0 0 0 
0 0 0 0 0 0 0 0 0 0 0 0 0 0 0 0 0 0 0 0 0 0 0 0 
0 0 0 0 0 0 0 0 0 0 0 0 0 0 0 0 0 0 0 0 0 0 0 0 
0 0 0 0 0 0 0 0 0 0 0 0 0 0 0 0 0 0 0 0 0 0 0 0 
0 0 0 0 0 0 0 0 0 0 0 0 0 0 0 0 0 0 0 0 0 0 0 0 
0 0 0 0 0 0 0 0 0 0 0 0 0 0 0 
0 0 0 0 0 0 0 0 0 0 0 0 0 0 0 0 0 0 0 0 0 0 0 0 
0 0 0 0 0 0 0 0 0 0 0 0 0 0 0 0 0 0 0 0 0 0 0 0 
0 0 0 0 0 0 0 0 0 0 0 0 0 0 0 0 0 0 0 0 0 0 0 0 
0 0 0 0 0 0 0 0 0 0 0 0 0 0 0 0 0 0 0 0 0 0 0 0 
0 0 0 0 0 0 0 0 0 0 0 0 0 0 0 0 0 0 0 0 0 0 0 0 
0 0 0 0 0 0 0 0 0 0 0 0 0 0 0 0 0 0 0 0 0 0 0 0 
0 0 0 0 0 0 0 0 0 0 0 0 0 0 0 0 0 0 0 0 0 0 0 0 
0 0 0 0 0 0 0 0 0 0 0 0 0 0 0 0 0 0 0 0 0 0 0 0 
0 0 0 0 0 0 0 0 0 0 0 0 0 0 0 0 0 0 0 0 0 0 0 0 
0 0 0 0 0 0 0 0 0 0 0 0 0 0 0 0 0 0 0 0 0 0 0 0 
0 0 0 0 0 0 0 0 0 0 0 0 0 0 0 0 0 0 0 0 0 0 0 0 
0 0 0 0 0 0 0 0 0 0 0 0 0 0 0 0 0 0 0 0 0 0 0 0 
0 0 0 0 0 0 0 0 0 0 0 0 0 0 0 0 0 0 0 0 0 0 0 0 
0 0 0 0 0 0 0 0 0 0 0 0 0 0 0 0 0 0 0 0 0 0 0 0 
0 0 0 0 0 0 0 0 0 0 0 0 0 0 0 0 0 0 0 0 0 0 0 0 
0 0 0 0 0 0 0 0 0 0 0 0 0 0 0 0 0 0 0 0 0 0 0 0 
0 0 0 0 0 0 0 0 0 0 0 0 0 0 0 0 0 0 0 0 0 0 0 0 
0 0 0 0 0 0 0 0 0 0 0 0 0 0 0 0 0 0 0 0 0 0 0 0 
0 0 0 0 0 0 0 0 0 0 0 0 0 0 0 0 0 0 0 0 0 0 0 0 
0 0 0 0 0 0 0 0 0 0 0 0 0 0 0 0 0 0 0 0 0 0 0 0 
0 0 0 0 0 0 0 0 0 0 0 0 0 0 0 0 0 0 0 0 0 0 0 0 
0 0 0 0 0 0 0 0 0 0 0 0 0 0 0 0 0 0 0 0 0 0 0 0 
0 0 0 0 0 0 0 0 0 0 0 0 0 0 0 
0 0 0 0 0 0 0 0 0 0 0 0 0 0 0 0 0 0 0 0 0 0 0 0 
0 0 0 0 0 0 0 0 0 0 0 0 0 0 0 0 0 0 0 0 0 0 0 0 
0 0 0 0 0 0 0 0 0 0 0 0 0 0 0 0 0 0 0 0 0 0 0 0 
0 0 0 0 0 0 0 0 0 0 0 0 0 0 0 0 0 0 0 0 0 0 0 0 
0 0 0 0 0 0 0 0 0 0 0 0 0 0 0 0 0 0 0 0 0 0 0 0 
0 0 0 0 0 0 0 0 0 0 0 0 0 0 0 0 0 0 0 0 0 0 0 0 
0 0 0 0 0 0 0 0 0 0 0 0 0 0 0 0 0 0 0 0 0 0 0 0 
0 0 0 0 0 0 0 0 0 0 0 0 0 0 0 0 0 0 0 0 0 0 0 0 
0 0 0 0 0 0 0 0 0 2 1 1 51 29 18 55 53 51 2 1 1 0 0 0 
0 0 0 2 1 1 2 1 1 0 0 0 2 1 1 14 12 9 51 29 18 55 53 51 
108 79 55 108 79 55 51 29 18 14 12 9 14 12 9 2 1 1 0 0 0 0 0 0 
0 0 0 0 0 0 0 0 0 0 0 0 0 0 0 0 0 0 0 0 0 0 0 0 
0 0 0 0 0 0 0 0 0 0 0 0 0 0 0 0 0 0 0 0 0 0 0 0 
0 0 0 0 0 0 0 0 0 0 0 0 0 0 0 0 0 0 0 0 0 0 0 0 
0 0 0 0 0 0 0 0 0 0 0 0 0 0 0 0 0 0 0 0 0 0 0 0 
0 0 0 0 0 0 0 0 0 0 0 0 0 0 0 0 0 0 0 0 0 0 0 0 
0 0 0 0 0 0 0 0 0 0 0 0 0 0 0 0 0 0 0 0 0 0 0 0 
0 0 0 0 0 0 0 0 0 0 0 0 0 0 0 0 0 0 0 0 0 0 0 0 
0 0 0 0 0 0 0 0 0 0 0 0 0 0 0 0 0 0 0 0 0 0 0 0 
0 0 0 0 0 0 0 0 0 0 0 0 0 0 0 0 0 0 0 0 0 0 0 0 
0 0 0 0 0 0 0 0 0 0 0 0 0 0 0 0 0 0 0 0 0 0 0 0 
0 0 0 0 0 0 0 0 0 0 0 0 0 0 0 0 0 0 0 0 0 0 0 0 
0 0 0 0 0 0 0 0 0 0 0 0 0 0 0 
0 0 0 0 0 0 0 0 0 0 0 0 0 0 0 0 0 0 0 0 0 0 0 0 
0 0 0 0 0 0 0 0 0 0 0 0 0 0 0 0 0 0 0 0 0 0 0 0 
0 0 0 0 0 0 0 0 0 0 0 0 0 0 0 0 0 0 0 0 0 0 0 0 
0 0 0 0 0 0 0 0 0 0 0 0 0 0 0 0 0 0 0 0 0 0 0 0 
0 0 0 0 0 0 0 0 0 0 0 0 0 0 0 0 0 0 0 0 0 0 0 0 
0 0 0 0 0 0 0 0 0 0 0 0 0 0 0 0 0 0 0 0 0 0 0 0 
0 0 0 0 0 0 0 0 0 0 0 0 0 0 0 0 0 0 0 0 0 0 0 0 
0 0 0 0 0 0 0 0 0 0 0 0 0 0 0 2 1 1 2 1 1 2 1 1 
2 1 1 14 12 9 140 88 64 181 117 87 179 108 68 181 117 87 140 88 64 108 79 55 
140 88 64 150 107 67 150 107 67 108 79 55 150 107 67 181 117 87 181 117 87 171 102 53 
179 108 68 150 107 67 150 107 67 181 117 87 181 117 87 150 107 67 150 107 67 140 88 64 
140 88 64 108 79 55 104 64 29 108 79 55 51 29 18 2 1 1 0 0 0 0 0 0 
0 0 0 0 0 0 0 0 0 0 0 0 0 0 0 0 0 0 0 0 0 0 0 0 
0 0 0 0 0 0 0 0 0 0 0 0 0 0 0 0 0 0 0 0 0 0 0 0 
0 0 0 0 0 0 0 0 0 0 0 0 0 0 0 0 0 0 0 0 0 0 0 0 
0 0 0 0 0 0 0 0 0 0 0 0 0 0 0 0 0 0 0 0 0 0 0 0 
0 0 0 0 0 0 0 0 0 0 0 0 0 0 0 0 0 0 0 0 0 0 0 0 
0 0 0 0 0 0 0 0 0 0 0 0 0 0 0 0 0 0 0 0 0 0 0 0 
0 0 0 0 0 0 0 0 0 0 0 0 0 0 0 0 0 0 0 0 0 0 0 0 
0 0 0 0 0 0 0 0 0 0 0 0 0 0 0 0 0 0 0 0 0 0 0 0 
0 0 0 0 0 0 0 0 0 0 0 0 0 0 0 0 0 0 0 0 0 0 0 0 
0 0 0 0 0 0 0 0 0 0 0 0 0 0 0 0 0 0 0 0 0 0 0 0 
0 0 0 0 0 0 0 0 0 0 0 0 0 0 0 
0 0 0 0 0 0 0 0 0 0 0 0 0 0 0 0 0 0 0 0 0 0 0 0 
0 0 0 0 0 0 0 0 0 0 0 0 0 0 0 0 0 0 0 0 0 0 0 0 
0 0 0 0 0 0 0 0 0 0 0 0 0 0 0 0 0 0 0 0 0 0 0 0 
0 0 0 0 0 0 0 0 0 0 0 0 0 0 0 0 0 0 0 0 0 0 0 0 
0 0 0 0 0 0 0 0 0 0 0 0 0 0 0 0 0 0 0 0 0 0 0 0 
0 0 0 0 0 0 0 0 0 0 0 0 0 0 0 0 0 0 0 0 0 0 0 0 
0 0 0 0 0 0 0 0 0 0 0 0 0 0 0 0 0 0 0 0 0 0 0 0 
0 0 0 14 12 9 108 79 55 140 88 64 150 107 67 150 107 67 179 108 68 179 108 68 
181 117 87 150 107 67 182 118 54 186 105 52 183 124 67 179 108 68 171 102 53 156 92 61 
156 92 61 156 92 61 153 87 46 153 87 46 156 92 61 179 108 68 179 108 68 156 92 61 
156 92 61 179 108 68 179 108 68 156 92 61 179 108 68 156 92 61 156 92 61 156 92 61 
179 108 68 156 92 61 156 92 61 156 92 61 179 108 68 150 118 91 140 88 64 140 88 64 
140 88 64 150 107 67 140 88 64 108 79 55 108 79 55 14 12 9 0 0 0 0 0 0 
0 0 0 0 0 0 0 0 0 0 0 0 0 0 0 0 0 0 0 0 0 0 0 0 
0 0 0 0 0 0 0 0 0 0 0 0 0 0 0 0 0 0 0 0 0 0 0 0 
0 0 0 0 0 0 0 0 0 0 0 0 0 0 0 0 0 0 0 0 0 0 0 0 
0 0 0 0 0 0 0 0 0 0 0 0 0 0 0 0 0 0 0 0 0 0 0 0 
0 0 0 0 0 0 0 0 0 0 0 0 0 0 0 0 0 0 0 0 0 0 0 0 
0 0 0 0 0 0 0 0 0 0 0 0 0 0 0 0 0 0 0 0 0 0 0 0 
0 0 0 0 0 0 0 0 0 0 0 0 0 0 0 0 0 0 0 0 0 0 0 0 
0 0 0 0 0 0 0 0 0 0 0 0 0 0 0 0 0 0 0 0 0 0 0 0 
0 0 0 0 0 0 0 0 0 0 0 0 0 0 0 0 0 0 0 0 0 0 0 0 
0 0 0 0 0 0 0 0 0 0 0 0 0 0 0 
0 0 0 0 0 0 0 0 0 0 0 0 0 0 0 0 0 0 0 0 0 0 0 0 
0 0 0 0 0 0 0 0 0 0 0 0 0 0 0 0 0 0 0 0 0 0 0 0 
0 0 0 0 0 0 0 0 0 0 0 0 0 0 0 0 0 0 0 0 0 0 0 0 
0 0 0 0 0 0 0 0 0 0 0 0 0 0 0 0 0 0 0 0 0 0 0 0 
0 0 0 0 0 0 0 0 0 0 0 0 0 0 0 0 0 0 0 0 0 0 0 0 
0 0 0 0 0 0 0 0 0 0 0 0 0 0 0 0 0 0 0 0 0 0 0 0 
0 0 0 0 0 0 0 0 0 0 0 0 0 0 0 14 12 9 108 79 55 140 88 64 
150 107 67 179 108 68 179 108 68 181 117 87 179 108 68 179 108 68 179 108 68 179 108 68 
179 108 68 171 102 53 179 108 68 179 108 68 179 108 68 179 108 68 171 102 53 171 102 53 
171 102 53 153 87 46 153 87 46 153 87 46 179 108 68 182 118 54 179 108 68 171 102 53 
171 102 53 171 102 53 171 102 53 171 102 53 171 102 53 171 102 53 171 102 53 171 102 53 
156 92 61 156 92 61 153 87 46 156 92 61 171 102 53 156 92 61 156 92 61 156 92 61 
156 92 61 140 88 64 140 88 64 156 92 61 156 92 61 108 79 55 108 79 55 108 79 55 
140 88 64 140 88 64 150 107 67 140 88 64 108 79 55 55 53 51 2 1 1 0 0 0 
0 0 0 0 0 0 0 0 0 0 0 0 0 0 0 0 0 0 0 0 0 0 0 0 
0 0 0 0 0 0 0 0 0 0 0 0 0 0 0 0 0 0 0 0 0 0 0 0 
0 0 0 0 0 0 0 0 0 0 0 0 0 0 0 0 0 0 0 0 0 0 0 0 
0 0 0 0 0 0 0 0 0 0 0 0 0 0 0 0 0 0 0 0 0 0 0 0 
0 0 0 0 0 0 0 0 0 0 0 0 0 0 0 0 0 0 0 0 0 0 0 0 
0 0 0 0 0 0 0 0 0 0 0 0 0 0 0 0 0 0 0 0 0 0 0 0 
0 0 0 0 0 0 0 0 0 0 0 0 0 0 0 0 0 0 0 0 0 0 0 0 
0 0 0 0 0 0 0 0 0 0 0 0 0 0 0 0 0 0 0 0 0 0 0 0 
0 0 0 0 0 0 0 0 0 0 0 0 0 0 0 
0 0 0 0 0 0 0 0 0 0 0 0 0 0 0 0 0 0 0 0 0 0 0 0 
0 0 0 0 0 0 0 0 0 0 0 0 0 0 0 0 0 0 0 0 0 0 0 0 
0 0 0 0 0 0 0 0 0 0 0 0 0 0 0 0 0 0 0 0 0 0 0 0 
0 0 0 0 0 0 0 0 0 0 0 0 0 0 0 0 0 0 0 0 0 0 0 0 
0 0 0 0 0 0 0 0 0 0 0 0 0 0 0 0 0 0 0 0 0 0 0 0 
0 0 0 0 0 0 0 0 0 0 0 0 0 0 0 0 0 0 0 0 0 0 0 0 
0 0 0 0 0 0 2 1 1 55 53 51 140 88 64 181 117 87 179 108 68 171 102 53 
179 108 68 179 108 68 181 117 87 179 108 68 179 108 68 179 108 68 179 108 68 171 102 53 
171 102 53 186 105 52 194 120 52 194 120 52 186 105 52 186 105 52 174 91 37 174 91 37 
203 124 65 203 131 74 182 118 54 186 105 52 194 120 52 192 106 35 201 119 56 183 105 36 
194 120 52 186 105 52 194 120 52 183 105 36 186 105 52 203 124 65 186 105 52 203 124 65 
186 105 52 186 105 52 171 102 53 171 102 53 171 102 53 171 102 53 171 102 53 153 87 46 
156 92 61 156 92 61 156 92 61 140 88 64 140 88 64 128 64 26 149 63 22 137 77 46 
153 87 46 156 92 61 156 92 61 156 92 61 156 92 61 150 107 67 150 107 67 150 107 67 
140 88 64 108 79 55 108 79 55 108 79 55 14 12 9 0 0 0 0 0 0 0 0 0 
0 0 0 0 0 0 0 0 0 0 0 0 0 0 0 0 0 0 0 0 0 0 0 0 
0 0 0 0 0 0 0 0 0 0 0 0 0 0 0 0 0 0 0 0 0 0 0 0 
0 0 0 0 0 0 0 0 0 0 0 0 0 0 0 0 0 0 0 0 0 0 0 0 
0 0 0 0 0 0 0 0 0 0 0 0 0 0 0 0 0 0 0 0 0 0 0 0 
0 0 0 0 0 0 0 0 0 0 0 0 0 0 0 0 0 0 0 0 0 0 0 0 
0 0 0 0 0 0 0 0 0 0 0 0 0 0 0 0 0 0 0 0 0 0 0 0 
0 0 0 0 0 0 0 0 0 0 0 0 0 0 0 0 0 0 0 0 0 0 0 0 
0 0 0 0 0 0 0 0 0 0 0 0 0 0 0 
0 0 0 0 0 0 0 0 0 0 0 0 0 0 0 0 0 0 0 0 0 0 0 0 
0 0 0 0 0 0 0 0 0 0 0 0 0 0 0 0 0 0 0 0 0 0 0 0 
0 0 0 0 0 0 0 0 0 0 0 0 0 0 0 0 0 0 0 0 0 0 0 0 
0 0 0 0 0 0 0 0 0 0 0 0 0 0 0 0 0 0 0 0 0 0 0 0 
0 0 0 0 0 0 0 0 0 0 0 0 0 0 0 0 0 0 0 0 0 0 0 0 
0 0 0 0 0 0 0 0 0 0 0 0 0 0 0 0 0 0 0 0 0 0 0 0 
0 0 0 55 53 51 150 118 91 181 117 87 181 117 87 179 108 68 179 108 68 179 108 68 
179 108 68 179 108 68 179 108 68 183 124 67 186 105 52 183 105 36 183 105 36 194 120 52 
201 119 56 194 120 52 201 119 56 194 120 52 210 133 67 194 120 52 194 120 52 203 124 65 
203 124 65 204 143 74 213 146 78 203 132 65 201 119 56 194 120 52 203 132 65 203 124 65 
204 143 74 215 145 88 213 146 78 215 145 88 203 124 65 203 131 74 203 132 65 201 119 56 
201 125 56 201 125 56 203 124 65 186 105 52 188 97 36 174 91 37 186 105 52 174 91 37 
174 91 37 174 91 37 174 91 37 153 87 46 156 92 61 153 87 46 137 77 46 128 64 26 
137 77 46 137 77 46 137 77 46 153 87 46 153 87 46 153 87 46 153 87 46 153 87 46 
153 87 46 153 87 46 153 87 46 137 77 46 150 107 67 140 88 64 108 79 55 108 79 55 
14 12 9 0 0 0 0 0 0 0 0 0 0 0 0 0 0 0 0 0 0 0 0 0 
0 0 0 0 0 0 0 0 0 0 0 0 0 0 0 0 0 0 0 0 0 0 0 0 
0 0 0 0 0 0 0 0 0 0 0 0 0 0 0 0 0 0 0 0 0 0 0 0 
0 0 0 0 0 0 0 0 0 0 0 0 0 0 0 0 0 0 0 0 0 0 0 0 
0 0 0 0 0 0 0 0 0 0 0 0 0 0 0 0 0 0 0 0 0 0 0 0 
0 0 0 0 0 0 0 0 0 0 0 0 0 0 0 0 0 0 0 0 0 0 0 0 
0 0 0 0 0 0 0 0 0 0 0 0 0 0 0 0 0 0 0 0 0 0 0 0 
0 0 0 0 0 0 0 0 0 0 0 0 0 0 0 
0 0 0 0 0 0 0 0 0 0 0 0 0 0 0 0 0 0 0 0 0 0 0 0 
0 0 0 0 0 0 0 0 0 0 0 0 0 0 0 0 0 0 0 0 0 0 0 0 
0 0 0 0 0 0 0 0 0 0 0 0 0 0 0 0 0 0 0 0 0 0 0 0 
0 0 0 0 0 0 0 0 0 0 0 0 0 0 0 0 0 0 0 0 0 0 0 0 
0 0 0 0 0 0 0 0 0 0 0 0 0 0 0 0 0 0 0 0 0 0 0 0 
0 0 0 0 0 0 0 0 0 0 0 0 0 0 0 0 0 0 0 0 0 14 12 9 
150 107 67 181 117 87 183 124 67 183 124 67 183 124 67 183 124 67 179 108 68 179 108 68 
186 105 52 186 105 52 201 119 56 203 124 65 203 132 65 201 119 56 203 132 65 212 140 78 
203 132 65 203 132 65 219 154 88 215 152 87 223 159 90 213 146 78 213 146 78 213 146 78 
204 143 74 225 169 100 224 169 105 226 169 111 226 169 111 214 159 92 223 162 104 225 172 107 
225 169 100 204 143 74 213 146 78 215 162 99 227 177 111 227 177 111 203 132 65 201 125 56 
203 131 74 203 131 74 215 152 87 204 143 74 203 124 65 201 125 56 199 113 42 183 105 36 
182 118 54 201 119 56 201 119 56 182 118 54 182 118 54 186 105 52 171 102 53 156 92 61 
137 77 46 128 64 26 137 77 46 137 77 46 153 87 46 153 87 46 153 87 46 137 77 46 
137 77 46 153 87 46 153 87 46 137 77 46 137 77 46 153 87 46 156 92 61 137 77 46 
108 79 55 0 0 0 0 0 0 0 0 0 0 0 0 0 0 0 0 0 0 0 0 0 
0 0 0 0 0 0 0 0 0 0 0 0 0 0 0 0 0 0 0 0 0 0 0 0 
0 0 0 0 0 0 0 0 0 0 0 0 0 0 0 0 0 0 0 0 0 0 0 0 
0 0 0 0 0 0 0 0 0 0 0 0 0 0 0 0 0 0 0 0 0 0 0 0 
0 0 0 0 0 0 0 0 0 0 0 0 0 0 0 0 0 0 0 0 0 0 0 0 
0 0 0 0 0 0 0 0 0 0 0 0 0 0 0 0 0 0 0 0 0 0 0 0 
0 0 0 0 0 0 0 0 0 0 0 0 0 0 0 0 0 0 0 0 0 0 0 0 
0 0 0 0 0 0 0 0 0 0 0 0 0 0 0 
0 0 0 0 0 0 0 0 0 0 0 0 0 0 0 0 0 0 0 0 0 0 0 0 
0 0 0 0 0 0 0 0 0 0 0 0 0 0 0 0 0 0 0 0 0 0 0 0 
0 0 0 0 0 0 0 0 0 0 0 0 0 0 0 0 0 0 0 0 0 0 0 0 
0 0 0 0 0 0 0 0 0 0 0 0 0 0 0 0 0 0 0 0 0 0 0 0 
0 0 0 0 0 0 0 0 0 0 0 0 0 0 0 0 0 0 0 0 0 0 0 0 
0 0 0 0 0 0 0 0 0 0 0 0 0 0 0 0 0 0 104 64 29 181 117 87 
183 124 67 183 124 67 183 124 67 183 124 67 183 124 67 203 131 74 203 124 65 201 119 56 
201 119 56 203 124 65 213 140 72 203 124 65 215 145 88 219 154 88 223 159 90 183 124 67 
215 145 88 223 162 104 227 177 111 214 159 92 225 172 107 214 159 92 213 154 88 225 169 100 
231 187 126 235 193 134 235 193 134 230 193 135 233 196 142 243 201 146 235 193 134 231 187 126 
231 187 126 227 181 116 230 193 135 236 198 150 233 196 142 233 196 142 230 193 135 225 181 124 
226 171 121 231 187 126 227 181 116 220 160 88 215 152 87 211 139 69 203 138 65 203 132 65 
219 154 88 215 145 88 183 105 36 186 105 52 203 131 74 203 131 74 194 120 52 182 118 54 
171 102 53 153 87 46 128 64 26 128 64 26 128 64 26 137 77 46 137 77 46 137 77 46 
137 77 46 137 77 46 137 77 46 137 77 46 137 77 46 137 77 46 153 87 46 137 77 46 
137 77 46 140 88 64 140 88 64 108 79 55 55 53 51 2 1 1 0 0 0 0 0 0 
0 0 0 0 0 0 0 0 0 0 0 0 0 0 0 0 0 0 0 0 0 0 0 0 
0 0 0 0 0 0 0 0 0 0 0 0 0 0 0 0 0 0 0 0 0 0 0 0 
0 0 0 0 0 0 0 0 0 0 0 0 0 0 0 0 0 0 0 0 0 0 0 0 
0 0 0 0 0 0 0 0 0 0 0 0 0 0 0 0 0 0 0 0 0 0 0 0 
0 0 0 0 0 0 0 0 0 0 0 0 0 0 0 0 0 0 0 0 0 0 0 0 
0 0 0 0 0 0 0 0 0 0 0 0 0 0 0 0 0 0 0 0 0 0 0 0 
0 0 0 0 0 0 0 0 0 0 0 0 0 0 0 
0 0 0 0 0 0 0 0 0 0 0 0 0 0 0 0 0 0 0 0 0 0 0 0 
0 0 0 0 0 0 0 0 0 0 0 0 0 0 0 0 0 0 0 0 0 0 0 0 
0 0 0 0 0 0 0 0 0 0 0 0 0 0 0 0 0 0 0 0 0 0 0 0 
0 0 0 0 0 0 0 0 0 0 0 0 0 0 0 0 0 0 0 0 0 0 0 0 
0 0 0 0 0 0 0 0 0 0 0 0 0 0 0 0 0 0 0 0 0 0 0 0 
0 0 0 0 0 0 0 0 0 0 0 0 14 12 9 150 107 67 181 117 87 203 124 65 
203 131 74 183 124 67 179 108 68 183 124 67 203 124 65 201 119 56 201 125 56 203 138 65 
213 146 78 224 164 97 224 169 105 224 169 105 214 159 92 225 172 107 225 172 107 227 181 116 
225 181 124 226 171 121 234 188 126 235 193 134 233 196 142 239 194 135 231 187 126 238 189 126 
239 194 135 238 199 142 238 199 142 236 198 150 242 202 151 238 199 142 239 199 135 235 193 134 
227 186 126 225 186 132 243 201 146 242 202 151 240 211 161 236 204 151 236 204 151 236 198 150 
233 196 142 239 195 141 227 186 126 227 178 107 227 178 107 227 178 107 227 177 111 226 174 103 
219 154 88 214 159 92 214 159 92 223 162 104 215 152 87 215 152 87 203 132 65 201 125 56 
194 120 52 186 105 52 171 102 53 171 102 53 137 77 46 128 64 26 137 77 46 128 64 26 
128 64 26 137 77 46 137 77 46 137 77 46 137 77 46 137 77 46 137 77 46 137 77 46 
137 77 46 137 77 46 137 77 46 156 92 61 156 92 61 140 88 64 108 79 55 55 53 51 
2 1 1 0 0 0 0 0 0 0 0 0 0 0 0 0 0 0 0 0 0 0 0 0 
0 0 0 0 0 0 0 0 0 0 0 0 0 0 0 0 0 0 0 0 0 0 0 0 
0 0 0 0 0 0 0 0 0 0 0 0 0 0 0 0 0 0 0 0 0 0 0 0 
0 0 0 0 0 0 0 0 0 0 0 0 0 0 0 0 0 0 0 0 0 0 0 0 
0 0 0 0 0 0 0 0 0 0 0 0 0 0 0 0 0 0 0 0 0 0 0 0 
0 0 0 0 0 0 0 0 0 0 0 0 0 0 0 0 0 0 0 0 0 0 0 0 
0 0 0 0 0 0 0 0 0 0 0 0 0 0 0 
0 0 0 0 0 0 0 0 0 0 0 0 0 0 0 0 0 0 0 0 0 0 0 0 
0 0 0 0 0 0 0 0 0 0 0 0 0 0 0 0 0 0 0 0 0 0 0 0 
0 0 0 0 0 0 0 0 0 0 0 0 0 0 0 0 0 0 0 0 0 0 0 0 
0 0 0 0 0 0 0 0 0 0 0 0 0 0 0 0 0 0 0 0 0 0 0 0 
0 0 0 0 0 0 0 0 0 0 0 0 0 0 0 0 0 0 0 0 0 0 0 0 
0 0 0 0 0 0 0 0 0 51 29 18 150 118 91 203 131 74 203 131 74 203 131 74 
203 131 74 203 124 65 194 120 52 194 120 52 203 132 65 211 139 69 215 152 87 225 169 100 
225 172 107 225 172 107 236 179 121 225 172 107 231 187 126 239 194 135 231 185 116 231 187 126 
225 186 132 238 199 142 238 199 142 230 193 135 230 193 135 233 196 142 235 193 134 235 193 134 
235 193 134 225 186 132 233 196 142 241 207 150 233 196 142 233 196 142 238 199 142 238 199 142 
233 196 142 236 198 150 233 196 142 225 186 132 233 196 142 236 204 151 236 204 151 233 196 142 
233 196 142 242 202 151 243 201 146 235 193 134 235 193 134 231 187 126 232 187 121 234 188 126 
231 187 126 235 193 134 235 193 134 226 171 121 203 136 90 215 145 88 213 154 88 204 143 74 
212 140 78 203 131 74 183 105 36 186 105 52 154 83 29 128 64 26 128 64 26 128 64 26 
128 64 26 128 64 26 128 64 26 149 63 22 137 77 46 137 77 46 137 77 46 137 77 46 
137 77 46 128 64 26 137 77 46 156 92 61 137 77 46 137 77 46 137 77 46 137 77 46 
140 88 64 108 79 55 0 0 0 0 0 0 0 0 0 0 0 0 0 0 0 0 0 0 
0 0 0 0 0 0 0 0 0 0 0 0 0 0 0 0 0 0 0 0 0 0 0 0 
0 0 0 0 0 0 0 0 0 0 0 0 0 0 0 0 0 0 0 0 0 0 0 0 
0 0 0 0 0 0 0 0 0 0 0 0 0 0 0 0 0 0 0 0 0 0 0 0 
0 0 0 0 0 0 0 0 0 0 0 0 0 0 0 0 0 0 0 0 0 0 0 0 
0 0 0 0 0 0 0 0 0 0 0 0 0 0 0 0 0 0 0 0 0 0 0 0 
0 0 0 0 0 0 0 0 0 0 0 0 0 0 0 
0 0 0 0 0 0 0 0 0 0 0 0 0 0 0 0 0 0 0 0 0 0 0 0 
0 0 0 0 0 0 0 0 0 0 0 0 0 0 0 0 0 0 0 0 0 0 0 0 
0 0 0 0 0 0 0 0 0 0 0 0 0 0 0 0 0 0 0 0 0 0 0 0 
0 0 0 0 0 0 0 0 0 0 0 0 0 0 0 0 0 0 0 0 0 0 0 0 
0 0 0 0 0 0 0 0 0 0 0 0 0 0 0 0 0 0 0 0 0 0 0 0 
0 0 0 0 0 0 51 29 18 182 138 96 203 131 74 203 131 74 203 131 74 203 124 65 
203 124 65 201 119 56 213 140 72 203 124 65 203 138 65 224 169 105 232 187 121 226 169 111 
225 181 124 239 195 141 235 193 134 232 187 121 238 189 126 231 187 126 227 181 116 231 187 126 
236 204 151 236 204 151 236 204 151 241 207 150 242 202 151 242 202 151 239 199 135 235 193 134 
233 196 142 236 198 150 242 202 151 241 207 150 242 202 151 243 201 146 239 195 141 243 201 146 
238 199 142 236 198 150 233 196 142 225 188 139 236 198 150 236 204 151 241 207 150 240 211 161 
240 211 161 240 211 161 241 207 150 233 196 142 241 207 150 241 207 150 241 207 150 238 199 142 
238 199 142 230 193 135 236 204 151 233 196 142 225 181 124 235 193 134 232 187 136 234 188 126 
224 169 105 213 154 88 204 143 74 203 124 65 186 105 52 154 83 29 128 64 26 128 64 26 
128 64 26 128 64 26 154 83 29 153 87 46 149 63 22 128 64 26 137 77 46 153 87 46 
153 87 46 128 64 26 128 64 26 156 92 61 137 77 46 137 77 46 128 64 26 128 64 26 
128 64 26 137 77 46 51 29 18 0 0 0 0 0 0 0 0 0 0 0 0 0 0 0 
0 0 0 0 0 0 0 0 0 0 0 0 0 0 0 0 0 0 0 0 0 0 0 0 
0 0 0 0 0 0 0 0 0 0 0 0 0 0 0 0 0 0 0 0 0 0 0 0 
0 0 0 0 0 0 0 0 0 0 0 0 0 0 0 0 0 0 0 0 0 0 0 0 
0 0 0 0 0 0 0 0 0 0 0 0 0 0 0 0 0 0 0 0 0 0 0 0 
0 0 0 0 0 0 0 0 0 0 0 0 0 0 0 0 0 0 0 0 0 0 0 0 
0 0 0 0 0 0 0 0 0 0 0 0 0 0 0 
0 0 0 0 0 0 0 0 0 0 0 0 0 0 0 0 0 0 0 0 0 0 0 0 
0 0 0 0 0 0 0 0 0 0 0 0 0 0 0 0 0 0 0 0 0 0 0 0 
0 0 0 0 0 0 0 0 0 0 0 0 0 0 0 0 0 0 0 0 0 0 0 0 
0 0 0 0 0 0 0 0 0 0 0 0 0 0 0 0 0 0 0 0 0 0 0 0 
0 0 0 0 0 0 0 0 0 0 0 0 0 0 0 0 0 0 0 0 0 0 0 0 
0 0 0 51 29 18 181 117 87 203 136 90 203 136 90 203 131 74 203 124 65 201 125 56 
203 124 65 213 140 72 223 159 90 215 162 99 227 181 116 232 187 121 227 186 126 235 193 134 
239 195 141 232 187 136 227 181 116 230 173 107 225 167 94 226 174 103 227 177 111 231 187 126 
233 196 142 233 196 142 238 199 142 233 196 142 238 199 142 238 199 142 238 199 142 242 202 151 
242 202 151 241 207 150 241 207 150 241 207 150 241 207 150 243 201 146 233 196 142 235 193 134 
225 186 132 236 198 150 242 202 151 243 201 146 241 207 150 241 207 150 240 211 161 240 211 161 
241 214 169 241 214 169 247 212 160 241 207 150 240 211 161 247 212 160 240 211 161 237 204 161 
236 204 151 236 204 151 240 211 161 241 214 169 241 214 169 236 204 151 237 204 161 236 198 150 
224 169 105 224 164 97 214 159 92 204 143 74 203 131 74 203 124 65 182 118 54 128 64 26 
171 102 53 171 102 53 174 91 37 153 87 46 154 83 29 149 63 22 154 83 29 171 102 53 
153 87 46 128 64 26 128 64 26 137 77 46 104 64 29 137 77 46 137 77 46 137 77 46 
137 77 46 137 77 46 140 88 64 108 79 55 51 29 18 51 29 18 0 0 0 0 0 0 
0 0 0 0 0 0 0 0 0 0 0 0 0 0 0 0 0 0 0 0 0 0 0 0 
0 0 0 0 0 0 0 0 0 0 0 0 0 0 0 0 0 0 0 0 0 0 0 0 
0 0 0 0 0 0 0 0 0 0 0 0 0 0 0 0 0 0 0 0 0 0 0 0 
0 0 0 0 0 0 0 0 0 0 0 0 0 0 0 0 0 0 0 0 0 0 0 0 
0 0 0 0 0 0 0 0 0 0 0 0 0 0 0 0 0 0 0 0 0 0 0 0 
0 0 0 0 0 0 0 0 0 0 0 0 0 0 0 
0 0 0 0 0 0 0 0 0 0 0 0 0 0 0 0 0 0 0 0 0 0 0 0 
0 0 0 0 0 0 0 0 0 0 0 0 0 0 0 0 0 0 0 0 0 0 0 0 
0 0 0 0 0 0 0 0 0 0 0 0 0 0 0 0 0 0 0 0 0 0 0 0 
0 0 0 0 0 0 0 0 0 0 0 0 0 0 0 0 0 0 0 0 0 0 0 0 
0 0 0 0 0 0 0 0 0 0 0 0 0 0 0 0 0 0 0 0 0 0 0 0 
14 12 9 181 117 87 203 136 90 203 136 90 203 136 90 203 124 65 203 124 65 210 133 67 
212 140 78 215 162 99 234 188 126 231 187 126 231 187 126 231 187 126 232 187 121 225 181 124 
227 177 111 215 162 99 224 164 90 223 160 87 222 153 84 223 160 87 224 169 105 227 177 111 
227 177 111 227 181 116 225 181 124 225 186 132 231 187 126 239 194 135 235 193 134 227 186 126 
235 193 134 227 181 116 234 188 126 234 188 126 227 181 116 237 181 114 231 185 116 232 187 121 
235 193 134 238 199 142 238 199 142 238 192 132 239 194 135 241 207 150 241 207 150 241 207 150 
240 211 161 241 214 169 248 217 169 242 202 151 238 199 142 247 212 160 247 212 160 247 212 160 
240 211 161 248 217 169 248 217 169 241 214 169 248 217 169 237 204 161 225 188 139 242 202 151 
227 186 126 216 171 108 215 163 108 203 155 97 223 162 104 212 140 78 203 132 65 182 118 54 
174 91 37 186 105 52 203 124 65 186 105 52 183 105 36 174 91 37 186 105 52 171 102 53 
149 63 22 128 64 26 128 64 26 154 83 29 128 64 26 128 64 26 128 64 26 128 64 26 
128 64 26 128 64 26 137 77 46 137 77 46 140 88 64 140 88 64 140 88 64 55 53 51 
0 0 0 0 0 0 0 0 0 0 0 0 0 0 0 0 0 0 0 0 0 0 0 0 
0 0 0 0 0 0 0 0 0 0 0 0 0 0 0 0 0 0 0 0 0 0 0 0 
0 0 0 0 0 0 0 0 0 0 0 0 0 0 0 0 0 0 0 0 0 0 0 0 
0 0 0 0 0 0 0 0 0 0 0 0 0 0 0 0 0 0 0 0 0 0 0 0 
0 0 0 0 0 0 0 0 0 0 0 0 0 0 0 0 0 0 0 0 0 0 0 0 
0 0 0 0 0 0 0 0 0 0 0 0 0 0 0 
0 0 0 0 0 0 0 0 0 0 0 0 0 0 0 0 0 0 0 0 0 0 0 0 
0 0 0 0 0 0 0 0 0 0 0 0 0 0 0 0 0 0 0 0 0 0 0 0 
0 0 0 0 0 0 0 0 0 0 0 0 0 0 0 0 0 0 0 0 0 0 0 0 
0 0 0 0 0 0 0 0 0 0 0 0 0 0 0 0 0 0 0 0 0 0 0 0 
0 0 0 0 0 0 0 0 0 0 0 0 0 0 0 0 0 0 0 0 0 0 0 0 
110 92 87 215 145 88 215 145 88 203 136 90 203 124 65 199 121 50 203 124 65 203 131 74 
226 169 111 234 188 126 234 188 126 225 181 124 225 181 124 216 171 108 224 164 97 225 169 100 
216 167 99 220 160 88 215 149 79 219 147 72 222 153 84 222 153 84 218 146 78 215 152 87 
224 164 97 227 180 112 225 181 124 225 181 124 215 163 108 227 186 126 231 187 126 239 194 135 
235 193 134 232 187 121 238 189 126 231 187 126 238 192 132 238 186 115 231 177 107 227 177 111 
234 188 126 239 194 135 239 199 135 235 193 134 239 199 135 230 193 135 227 177 111 234 188 126 
236 198 150 230 193 135 243 201 146 236 204 151 233 196 142 238 199 142 241 207 150 240 211 161 
248 217 169 241 214 169 248 217 169 248 217 169 236 204 151 230 193 135 240 211 161 236 204 151 
247 212 160 241 214 169 236 204 151 230 193 135 239 195 141 227 181 116 219 154 88 219 154 88 
223 162 104 224 164 97 215 152 87 203 132 65 203 131 74 203 124 65 194 120 52 203 124 65 
171 102 53 154 83 29 154 83 29 174 91 37 171 102 53 153 87 46 137 77 46 137 77 46 
137 77 46 128 64 26 128 64 26 128 64 26 137 77 46 137 77 46 137 77 46 140 88 64 
108 79 55 51 29 18 0 0 0 0 0 0 0 0 0 0 0 0 0 0 0 0 0 0 
0 0 0 0 0 0 0 0 0 0 0 0 0 0 0 0 0 0 0 0 0 0 0 0 
0 0 0 0 0 0 0 0 0 0 0 0 0 0 0 0 0 0 0 0 0 0 0 0 
0 0 0 0 0 0 0 0 0 0 0 0 0 0 0 0 0 0 0 0 0 0 0 0 
0 0 0 0 0 0 0 0 0 0 0 0 0 0 0 0 0 0 0 0 0 0 0 0 
0 0 0 0 0 0 0 0 0 0 0 0 0 0 0 
0 0 0 0 0 0 0 0 0 0 0 0 0 0 0 0 0 0 0 0 0 0 0 0 
0 0 0 0 0 0 0 0 0 0 0 0 0 0 0 0 0 0 0 0 0 0 0 0 
0 0 0 0 0 0 0 0 0 0 0 0 0 0 0 0 0 0 0 0 0 0 0 0 
0 0 0 0 0 0 0 0 0 0 0 0 0 0 0 0 0 0 0 0 0 0 0 0 
0 0 0 0 0 0 0 0 0 0 0 0 0 0 0 0 0 0 0 0 0 55 53 51 
203 155 97 203 136 90 212 140 78 203 124 65 201 119 56 203 132 65 215 152 87 226 169 111 
227 181 116 232 187 136 227 186 126 216 171 108 215 163 108 224 169 105 215 152 87 215 152 87 
219 154 88 219 154 88 223 159 90 222 153 84 214 149 73 212 142 64 219 147 72 215 162 99 
233 177 111 225 169 100 227 181 116 235 193 134 235 193 134 235 193 134 238 199 142 239 195 141 
239 195 141 232 187 121 231 185 116 233 180 114 243 194 131 241 189 121 233 182 111 236 185 115 
233 180 114 236 185 115 235 193 134 238 199 142 242 202 151 247 209 150 235 193 134 239 199 135 
235 193 134 244 201 142 239 194 135 239 195 141 235 193 134 239 195 141 244 201 142 241 207 150 
241 207 150 247 212 160 248 217 169 241 214 169 248 217 169 248 217 169 241 214 169 248 217 169 
247 212 160 248 225 188 241 214 169 240 211 161 237 204 161 236 204 151 225 186 132 227 186 126 
232 187 136 238 192 132 223 162 104 223 162 104 224 164 97 224 164 97 222 153 84 211 139 69 
203 124 65 186 105 52 203 124 65 201 119 56 203 124 65 203 131 74 182 118 54 171 102 53 
156 92 61 153 87 46 153 87 46 140 88 64 137 77 46 128 64 26 128 64 26 137 77 46 
137 77 46 140 88 64 108 79 55 14 12 9 0 0 0 0 0 0 0 0 0 0 0 0 
0 0 0 0 0 0 0 0 0 0 0 0 0 0 0 0 0 0 0 0 0 0 0 0 
0 0 0 0 0 0 0 0 0 0 0 0 0 0 0 0 0 0 0 0 0 0 0 0 
0 0 0 0 0 0 0 0 0 0 0 0 0 0 0 0 0 0 0 0 0 0 0 0 
0 0 0 0 0 0 0 0 0 0 0 0 0 0 0 0 0 0 0 0 0 0 0 0 
0 0 0 0 0 0 0 0 0 0 0 0 0 0 0 
0 0 0 0 0 0 0 0 0 0 0 0 0 0 0 0 0 0 0 0 0 0 0 0 
0 0 0 0 0 0 0 0 0 0 0 0 0 0 0 0 0 0 0 0 0 0 0 0 
0 0 0 0 0 0 0 0 0 0 0 0 0 0 0 0 0 0 0 0 0 0 0 0 
0 0 0 0 0 0 0 0 0 0 0 0 0 0 0 0 0 0 0 0 0 0 0 0 
0 0 0 0 0 0 0 0 0 0 0 0 0 0 0 0 0 0 0 0 0 150 118 91 
215 145 88 215 145 88 213 140 72 199 113 42 212 140 78 215 162 99 227 181 116 231 187 126 
225 181 124 226 171 121 224 169 105 214 151 79 213 154 88 213 154 88 213 146 78 211 139 69 
211 133 62 207 130 56 204 143 74 219 154 88 213 154 88 223 159 90 219 147 72 222 153 84 
224 164 97 228 165 93 226 174 103 236 185 115 232 187 121 234 188 126 225 181 124 234 188 126 
236 185 115 236 185 115 236 185 115 238 183 111 241 189 121 231 177 107 230 170 95 231 175 99 
233 176 102 230 170 95 231 185 116 238 192 132 239 195 141 239 194 126 238 192 132 239 199 135 
235 193 134 234 188 126 232 187 121 238 189 126 235 193 134 238 199 142 243 201 146 238 199 142 
230 193 135 239 195 141 247 212 160 248 217 169 248 225 188 248 225 188 248 225 188 241 214 169 
248 217 169 248 225 188 248 225 188 248 217 169 241 214 169 241 214 169 241 214 169 241 214 169 
233 196 142 236 198 150 233 196 142 232 187 136 236 179 121 214 151 79 203 132 65 215 149 79 
204 143 74 194 120 52 182 118 54 215 145 88 219 154 88 203 131 74 203 124 65 203 131 74 
203 124 65 171 102 53 153 87 46 153 87 46 137 77 46 137 77 46 137 77 46 137 77 46 
137 77 46 128 64 26 137 77 46 140 88 64 55 53 51 0 0 0 0 0 0 0 0 0 
0 0 0 0 0 0 0 0 0 0 0 0 0 0 0 0 0 0 0 0 0 0 0 0 
0 0 0 0 0 0 0 0 0 0 0 0 0 0 0 0 0 0 0 0 0 0 0 0 
0 0 0 0 0 0 0 0 0 0 0 0 0 0 0 0 0 0 0 0 0 0 0 0 
0 0 0 0 0 0 0 0 0 0 0 0 0 0 0 0 0 0 0 0 0 0 0 0 
0 0 0 0 0 0 0 0 0 0 0 0 0 0 0 
0 0 0 0 0 0 0 0 0 0 0 0 0 0 0 0 0 0 0 0 0 0 0 0 
0 0 0 0 0 0 0 0 0 0 0 0 0 0 0 0 0 0 0 0 0 0 0 0 
0 0 0 0 0 0 0 0 0 0 0 0 0 0 0 0 0 0 0 0 0 0 0 0 
0 0 0 0 0 0 0 0 0 0 0 0 0 0 0 0 0 0 0 0 0 0 0 0 
0 0 0 0 0 0 0 0 0 0 0 0 0 0 0 0 0 0 51 29 18 203 155 97 
215 145 88 212 140 78 204 121 49 212 140 78 226 169 111 227 186 126 238 192 132 227 181 116 
224 169 105 214 159 92 213 154 88 213 146 78 213 146 78 213 146 78 215 152 87 215 149 79 
211 133 62 199 113 42 202 131 56 213 146 78 213 154 88 215 149 79 217 145 68 225 159 90 
225 159 90 225 169 100 241 189 121 232 187 121 238 192 132 239 195 141 239 195 141 238 189 126 
238 175 106 235 165 90 233 176 102 228 165 93 228 166 90 226 161 86 233 169 102 230 173 107 
225 169 100 238 183 111 223 160 87 236 175 100 233 182 111 230 173 107 232 187 121 238 189 126 
239 194 135 234 188 126 238 189 126 234 188 126 235 193 134 243 201 146 247 209 150 247 212 160 
247 212 160 234 188 126 236 204 151 247 212 160 241 214 169 248 217 169 248 217 169 248 225 188 
241 214 169 241 214 169 241 214 169 248 225 188 248 217 169 241 214 169 248 217 169 248 217 169 
240 211 161 237 204 161 240 211 161 243 201 146 236 179 121 225 172 107 224 169 105 225 169 100 
224 164 97 224 169 105 214 159 92 224 169 105 224 169 105 224 169 105 215 152 100 215 145 88 
203 131 74 203 132 65 203 131 74 171 102 53 153 87 46 137 77 46 137 77 46 137 77 46 
137 77 46 137 77 46 137 77 46 137 77 46 140 88 64 55 53 51 0 0 0 0 0 0 
0 0 0 0 0 0 0 0 0 0 0 0 0 0 0 0 0 0 0 0 0 0 0 0 
0 0 0 0 0 0 0 0 0 0 0 0 0 0 0 0 0 0 0 0 0 0 0 0 
0 0 0 0 0 0 0 0 0 0 0 0 0 0 0 0 0 0 0 0 0 0 0 0 
0 0 0 0 0 0 0 0 0 0 0 0 0 0 0 0 0 0 0 0 0 0 0 0 
0 0 0 0 0 0 0 0 0 0 0 0 0 0 0 
0 0 0 0 0 0 0 0 0 0 0 0 0 0 0 0 0 0 0 0 0 0 0 0 
0 0 0 0 0 0 0 0 0 0 0 0 0 0 0 0 0 0 0 0 0 0 0 0 
0 0 0 0 0 0 0 0 0 0 0 0 0 0 0 0 0 0 0 0 0 0 0 0 
0 0 0 0 0 0 0 0 0 0 0 0 0 0 0 0 0 0 0 0 0 0 0 0 
0 0 0 0 0 0 0 0 0 0 0 0 0 0 0 0 0 0 108 79 55 215 152 87 
215 145 88 213 140 72 210 133 67 235 193 134 227 186 126 233 196 142 227 186 126 225 172 107 
215 162 99 213 154 88 213 146 78 210 133 67 199 121 50 203 132 65 203 132 65 207 130 56 
225 149 79 207 130 56 207 123 56 188 97 36 211 133 62 215 149 79 220 160 88 214 147 72 
218 146 78 224 164 97 233 180 114 238 189 126 243 194 131 243 194 131 238 189 126 236 185 115 
228 166 90 228 166 90 225 167 94 231 177 107 227 181 116 231 187 126 238 192 132 236 175 100 
235 170 94 231 177 107 236 185 115 231 185 116 234 188 126 244 201 142 243 194 131 236 185 115 
232 187 121 238 189 126 232 187 121 239 199 135 244 201 142 243 194 131 238 186 115 233 176 102 
238 189 126 244 201 142 244 201 142 241 207 150 247 212 160 248 217 169 248 217 169 248 225 188 
240 211 161 240 211 161 240 211 161 248 217 169 241 214 169 236 204 151 240 211 161 248 217 169 
240 211 161 236 204 151 247 212 160 243 201 146 238 192 132 236 185 115 227 178 107 233 177 111 
230 173 107 238 189 126 238 192 132 235 193 134 225 181 124 234 188 126 225 181 124 226 169 111 
214 159 92 212 140 78 212 140 78 203 124 65 203 131 74 179 108 68 153 87 46 137 77 46 
128 64 26 137 77 46 128 64 26 137 77 46 137 77 46 140 88 64 108 79 55 2 1 1 
0 0 0 0 0 0 0 0 0 0 0 0 0 0 0 0 0 0 0 0 0 0 0 0 
0 0 0 0 0 0 0 0 0 0 0 0 0 0 0 0 0 0 0 0 0 0 0 0 
0 0 0 0 0 0 0 0 0 0 0 0 0 0 0 0 0 0 0 0 0 0 0 0 
0 0 0 0 0 0 0 0 0 0 0 0 0 0 0 0 0 0 0 0 0 0 0 0 
0 0 0 0 0 0 0 0 0 0 0 0 0 0 0 
0 0 0 0 0 0 0 0 0 0 0 0 0 0 0 0 0 0 0 0 0 0 0 0 
0 0 0 0 0 0 0 0 0 0 0 0 0 0 0 0 0 0 0 0 0 0 0 0 
0 0 0 0 0 0 0 0 0 0 0 0 0 0 0 0 0 0 0 0 0 0 0 0 
0 0 0 0 0 0 0 0 0 0 0 0 0 0 0 0 0 0 0 0 0 0 0 0 
0 0 0 0 0 0 0 0 0 0 0 0 0 0 0 0 0 0 182 138 96 230 161 102 
222 153 84 218 146 78 236 179 121 225 186 132 225 186 132 225 186 132 216 171 108 214 159 92 
215 149 79 213 154 88 204 143 74 204 143 74 213 146 78 213 146 78 207 130 56 199 114 47 
211 139 69 219 147 72 208 128 56 207 130 56 222 153 84 224 169 105 226 169 111 226 169 111 
232 187 136 227 181 116 231 185 116 234 188 126 233 180 114 231 177 107 227 180 112 236 185 115 
226 174 99 233 176 102 225 169 100 231 177 107 234 188 126 243 194 131 234 175 107 231 175 99 
230 173 107 237 181 114 237 181 114 238 189 126 232 187 121 232 187 121 231 177 107 238 183 111 
238 192 132 239 194 135 232 187 121 238 189 126 234 188 126 238 189 126 238 189 126 243 194 131 
238 189 126 241 189 121 243 194 131 236 204 151 247 212 160 248 217 169 248 217 169 247 212 160 
240 211 161 241 207 150 236 204 151 240 211 161 240 211 161 248 217 169 248 217 169 248 217 169 
248 217 169 248 217 169 236 204 151 236 204 151 242 202 151 244 201 142 239 194 126 234 188 126 
239 194 135 244 201 142 242 202 151 247 212 160 236 198 150 247 212 160 233 196 142 236 198 150 
235 193 134 233 180 114 214 159 92 219 154 88 171 102 53 171 102 53 203 124 65 182 118 54 
137 77 46 137 77 46 137 77 46 128 64 26 128 64 26 137 77 46 137 77 46 104 64 29 
0 0 0 0 0 0 0 0 0 0 0 0 0 0 0 0 0 0 0 0 0 0 0 0 
0 0 0 0 0 0 0 0 0 0 0 0 0 0 0 0 0 0 0 0 0 0 0 0 
0 0 0 0 0 0 0 0 0 0 0 0 0 0 0 0 0 0 0 0 0 0 0 0 
0 0 0 0 0 0 0 0 0 0 0 0 0 0 0 0 0 0 0 0 0 0 0 0 
0 0 0 0 0 0 0 0 0 0 0 0 0 0 0 
0 0 0 0 0 0 0 0 0 0 0 0 0 0 0 0 0 0 0 0 0 0 0 0 
0 0 0 0 0 0 0 0 0 0 0 0 0 0 0 0 0 0 0 0 0 0 0 0 
0 0 0 0 0 0 0 0 0 0 0 0 0 0 0 0 0 0 0 0 0 0 0 0 
0 0 0 0 0 0 0 0 0 0 0 0 0 0 0 0 0 0 0 0 0 0 0 0 
0 0 0 0 0 0 0 0 0 0 0 0 0 0 0 51 29 18 215 166 116 227 158 93 
213 138 64 224 164 97 227 186 126 225 186 132 225 188 139 225 181 124 215 162 99 215 152 87 
213 146 78 213 154 88 213 146 78 213 154 88 223 159 90 218 146 78 218 142 72 211 139 69 
218 146 78 214 140 68 213 140 72 214 151 79 215 152 87 225 170 96 230 173 107 236 179 121 
239 195 141 234 188 126 231 187 126 226 174 103 236 185 115 238 192 132 238 189 126 236 185 115 
224 164 90 226 174 103 231 177 107 239 181 106 239 181 106 228 162 90 238 175 106 241 189 121 
238 186 115 238 189 126 243 194 131 238 183 111 228 165 93 227 153 72 231 166 86 232 167 93 
236 174 95 241 188 126 239 194 135 235 193 134 230 193 135 235 193 134 231 187 126 239 194 135 
243 201 146 245 200 134 239 199 135 239 199 135 247 212 160 247 212 160 240 211 161 236 204 151 
247 212 160 241 207 150 239 199 135 241 207 150 236 204 151 247 212 160 247 212 160 248 217 169 
240 211 161 240 211 161 248 217 169 248 217 169 248 217 169 240 211 161 241 207 150 239 199 135 
239 199 135 239 199 135 235 193 134 236 198 150 237 204 161 237 204 161 237 204 161 241 214 169 
241 207 150 239 194 135 231 187 126 215 162 99 219 154 88 203 131 74 204 143 74 212 140 78 
203 124 65 171 102 53 153 87 46 137 77 46 128 64 26 104 64 29 128 64 26 137 77 46 
108 79 55 2 1 1 0 0 0 0 0 0 0 0 0 0 0 0 0 0 0 0 0 0 
0 0 0 0 0 0 0 0 0 0 0 0 0 0 0 0 0 0 0 0 0 0 0 0 
0 0 0 0 0 0 0 0 0 0 0 0 0 0 0 0 0 0 0 0 0 0 0 0 
0 0 0 0 0 0 0 0 0 0 0 0 0 0 0 0 0 0 0 0 0 0 0 0 
0 0 0 0 0 0 0 0 0 0 0 0 0 0 0 
0 0 0 0 0 0 0 0 0 0 0 0 0 0 0 0 0 0 0 0 0 0 0 0 
0 0 0 0 0 0 0 0 0 0 0 0 0 0 0 0 0 0 0 0 0 0 0 0 
0 0 0 0 0 0 0 0 0 0 0 0 0 0 0 0 0 0 0 0 0 0 0 0 
0 0 0 0 0 0 0 0 0 0 0 0 0 0 0 0 0 0 0 0 0 0 0 0 
0 0 0 0 0 0 0 0 0 0 0 0 0 0 0 108 79 55 223 162 104 218 142 72 
222 153 84 230 173 107 218 182 128 225 188 139 225 186 132 215 163 108 215 162 99 213 146 78 
203 131 74 203 155 97 213 154 88 215 149 79 210 133 67 211 131 59 214 147 72 211 132 57 
211 132 57 220 149 73 223 160 87 219 154 88 213 146 78 223 153 76 226 161 86 222 153 84 
223 160 87 231 177 107 238 192 132 239 194 135 238 189 126 241 189 121 238 186 115 236 185 115 
236 185 115 244 194 126 234 175 107 231 166 86 236 174 95 236 174 95 239 181 106 231 177 107 
236 185 115 234 180 107 231 177 107 233 176 102 236 175 100 232 167 93 235 165 90 228 166 90 
236 174 95 234 180 107 238 186 115 241 189 121 239 194 126 239 194 135 239 199 135 238 192 132 
238 199 142 244 201 142 238 192 132 244 201 142 243 201 146 238 199 142 241 207 150 243 201 146 
235 193 134 239 195 141 243 201 146 243 194 131 239 199 135 239 199 135 243 201 146 243 201 146 
243 201 146 243 201 146 241 207 150 247 212 160 248 217 169 248 217 169 248 217 169 247 212 160 
239 199 135 239 199 135 239 199 135 238 199 142 241 207 150 248 217 169 240 211 161 237 204 161 
248 217 169 248 217 169 242 202 151 238 199 142 234 188 126 215 163 108 214 159 92 215 152 87 
215 152 87 203 124 65 183 124 67 137 77 46 128 64 26 137 77 46 128 64 26 137 77 46 
137 77 46 108 79 55 14 12 9 0 0 0 0 0 0 0 0 0 0 0 0 0 0 0 
0 0 0 0 0 0 0 0 0 0 0 0 0 0 0 0 0 0 0 0 0 0 0 0 
0 0 0 0 0 0 0 0 0 0 0 0 0 0 0 0 0 0 0 0 0 0 0 0 
0 0 0 0 0 0 0 0 0 0 0 0 0 0 0 0 0 0 0 0 0 0 0 0 
0 0 0 0 0 0 0 0 0 0 0 0 0 0 0 
0 0 0 0 0 0 0 0 0 0 0 0 0 0 0 0 0 0 0 0 0 0 0 0 
0 0 0 0 0 0 0 0 0 0 0 0 0 0 0 0 0 0 0 0 0 0 0 0 
0 0 0 0 0 0 0 0 0 0 0 0 0 0 0 0 0 0 0 0 0 0 0 0 
0 0 0 0 0 0 0 0 0 0 0 0 0 0 0 0 0 0 0 0 0 0 0 0 
0 0 0 0 0 0 0 0 0 0 0 0 0 0 0 150 107 67 230 161 102 219 147 72 
225 169 100 231 187 126 225 188 139 225 188 139 218 182 128 203 155 97 213 154 88 203 138 65 
211 139 69 214 159 92 219 154 88 219 154 88 207 123 56 204 121 49 216 133 65 211 131 59 
214 140 68 213 138 64 218 142 72 204 121 49 225 149 79 213 146 68 228 162 90 233 180 114 
236 185 115 234 188 126 243 194 131 243 194 131 241 188 126 234 180 107 233 176 102 238 189 126 
245 200 134 244 201 142 239 194 135 238 189 126 233 177 111 231 175 99 231 175 99 225 170 96 
231 185 116 238 189 126 243 194 131 232 187 121 234 180 107 233 177 111 238 183 111 238 183 111 
236 185 115 244 194 126 238 186 115 242 188 115 241 189 121 242 188 115 238 183 111 243 194 131 
243 194 131 239 194 126 239 194 126 244 201 142 243 201 146 247 209 150 247 209 150 239 194 135 
231 185 116 230 193 135 241 207 150 227 186 126 235 193 134 241 207 150 244 201 142 244 201 142 
247 209 150 247 209 150 243 201 146 241 207 150 241 207 150 240 211 161 236 204 151 240 211 161 
241 207 150 243 201 146 244 201 142 238 199 142 236 198 150 242 202 151 242 202 151 248 217 169 
248 217 169 248 217 169 241 207 150 230 193 135 230 193 135 231 187 126 234 188 126 215 162 99 
223 162 104 171 102 53 154 83 29 174 91 37 128 64 26 128 64 26 137 77 46 137 77 46 
137 77 46 137 77 46 137 77 46 51 29 18 0 0 0 0 0 0 0 0 0 0 0 0 
0 0 0 0 0 0 0 0 0 0 0 0 0 0 0 0 0 0 0 0 0 0 0 0 
0 0 0 0 0 0 0 0 0 0 0 0 0 0 0 0 0 0 0 0 0 0 0 0 
0 0 0 0 0 0 0 0 0 0 0 0 0 0 0 0 0 0 0 0 0 0 0 0 
0 0 0 0 0 0 0 0 0 0 0 0 0 0 0 
0 0 0 0 0 0 0 0 0 0 0 0 0 0 0 0 0 0 0 0 0 0 0 0 
0 0 0 0 0 0 0 0 0 0 0 0 0 0 0 0 0 0 0 0 0 0 0 0 
0 0 0 0 0 0 0 0 0 0 0 0 0 0 0 0 0 0 0 0 0 0 0 0 
0 0 0 0 0 0 0 0 0 0 0 0 0 0 0 0 0 0 0 0 0 0 0 0 
0 0 0 0 0 0 0 0 0 0 0 0 0 0 0 182 138 96 233 177 111 233 169 102 
234 188 126 230 193 135 225 188 139 225 188 139 215 163 108 213 154 88 212 140 78 201 119 56 
201 119 56 201 125 56 199 114 47 199 121 50 210 133 67 218 142 72 208 128 56 222 153 84 
214 151 79 219 154 88 225 169 100 210 133 67 225 153 79 230 170 95 225 169 100 225 169 100 
227 177 111 245 200 134 243 194 131 236 185 115 234 180 107 224 161 84 236 174 95 231 185 116 
234 188 126 231 187 126 231 187 126 238 189 126 234 180 107 236 185 115 236 185 115 231 187 126 
239 194 135 247 209 150 245 200 134 236 185 115 238 183 111 243 194 131 236 175 100 231 166 86 
234 180 107 243 194 131 234 180 107 238 183 111 234 180 107 231 175 99 232 167 93 237 181 114 
239 194 126 239 194 126 243 194 131 243 194 131 232 187 121 232 187 121 239 199 135 247 209 150 
238 199 142 238 199 142 243 201 146 243 201 146 234 188 126 238 199 142 238 192 132 233 182 111 
241 189 121 243 194 131 244 201 142 244 201 142 243 201 146 241 207 150 247 212 160 247 212 160 
238 199 142 244 201 142 243 194 131 234 188 126 238 192 132 244 201 142 243 201 146 241 207 150 
240 211 161 241 214 169 240 211 161 247 212 160 238 199 142 241 207 150 241 207 150 231 187 126 
226 169 111 203 136 90 174 91 37 183 105 36 183 124 67 154 83 29 137 77 46 137 77 46 
137 77 46 137 77 46 140 88 64 140 88 64 14 12 9 0 0 0 0 0 0 0 0 0 
0 0 0 0 0 0 0 0 0 0 0 0 0 0 0 0 0 0 0 0 0 0 0 0 
0 0 0 0 0 0 0 0 0 0 0 0 0 0 0 0 0 0 0 0 0 0 0 0 
0 0 0 0 0 0 0 0 0 0 0 0 0 0 0 0 0 0 0 0 0 0 0 0 
0 0 0 0 0 0 0 0 0 0 0 0 0 0 0 
0 0 0 0 0 0 0 0 0 0 0 0 0 0 0 0 0 0 0 0 0 0 0 0 
0 0 0 0 0 0 0 0 0 0 0 0 0 0 0 0 0 0 0 0 0 0 0 0 
0 0 0 0 0 0 0 0 0 0 0 0 0 0 0 0 0 0 0 0 0 0 0 0 
0 0 0 0 0 0 0 0 0 0 0 0 0 0 0 0 0 0 0 0 0 0 0 0 
0 0 0 0 0 0 0 0 0 0 0 0 0 0 0 182 138 96 236 185 115 238 192 132 
239 195 141 225 186 132 225 186 132 226 171 121 203 155 97 203 131 74 201 125 56 194 120 52 
203 131 74 201 125 56 199 114 47 207 123 56 211 139 69 213 138 62 220 149 73 225 149 79 
213 146 78 225 167 94 228 165 93 207 123 49 217 145 68 223 160 87 220 160 88 224 164 90 
224 169 105 241 189 121 231 177 107 238 189 126 234 188 126 234 175 107 234 180 107 227 180 112 
234 188 126 238 199 142 238 192 132 237 181 114 238 186 115 238 186 115 230 170 95 236 185 115 
233 180 114 233 176 102 241 189 121 241 189 121 233 182 111 234 175 107 234 180 107 234 180 107 
234 175 107 231 175 99 233 176 102 236 175 100 236 175 100 239 181 106 242 188 115 239 194 126 
236 185 115 241 189 121 238 189 126 239 194 126 234 180 107 236 174 95 238 183 111 241 189 121 
238 186 115 238 183 111 238 183 111 238 189 126 244 201 142 243 201 146 245 200 134 238 183 111 
238 183 111 238 186 115 238 192 132 244 201 142 239 194 135 244 194 126 241 189 121 236 185 115 
227 181 116 227 181 116 239 194 126 239 199 135 244 201 142 244 201 142 239 194 135 244 201 142 
241 207 150 247 212 160 247 212 160 248 217 169 247 212 160 240 211 161 248 217 169 240 211 161 
239 195 141 234 188 126 213 154 88 182 118 54 203 124 65 194 120 52 153 87 46 137 77 46 
137 77 46 137 77 46 137 77 46 137 77 46 108 79 55 14 12 9 0 0 0 0 0 0 
0 0 0 0 0 0 0 0 0 0 0 0 0 0 0 0 0 0 0 0 0 0 0 0 
0 0 0 0 0 0 0 0 0 0 0 0 0 0 0 0 0 0 0 0 0 0 0 0 
0 0 0 0 0 0 0 0 0 0 0 0 0 0 0 0 0 0 0 0 0 0 0 0 
0 0 0 0 0 0 0 0 0 0 0 0 0 0 0 
0 0 0 0 0 0 0 0 0 0 0 0 0 0 0 0 0 0 0 0 0 0 0 0 
0 0 0 0 0 0 0 0 0 0 0 0 0 0 0 0 0 0 0 0 0 0 0 0 
0 0 0 0 0 0 0 0 0 0 0 0 0 0 0 0 0 0 0 0 0 0 0 0 
0 0 0 0 0 0 0 0 0 0 0 0 0 0 0 0 0 0 0 0 0 0 0 0 
0 0 0 0 0 0 0 0 0 0 0 0 0 0 0 182 138 96 243 194 131 245 200 134 
235 193 134 225 181 124 215 166 116 215 163 108 213 154 88 194 120 52 203 131 74 204 143 74 
223 162 104 218 146 78 211 131 59 201 121 42 204 113 45 212 126 52 212 142 64 220 149 73 
213 138 64 211 132 57 212 126 52 215 133 56 223 153 76 232 167 93 225 169 100 225 169 100 
234 175 107 233 169 102 228 162 90 227 181 116 238 192 132 239 194 135 236 185 115 233 180 114 
239 195 141 245 200 134 239 194 126 238 189 126 238 186 115 238 189 126 241 189 121 239 194 126 
241 188 126 236 175 100 238 176 102 231 175 99 242 188 115 238 175 106 242 188 115 238 186 115 
236 185 115 234 188 126 232 187 121 227 181 116 233 182 111 238 183 111 242 188 115 241 189 121 
238 186 115 241 189 121 238 189 126 231 187 126 234 188 126 232 187 121 238 189 126 239 194 135 
243 194 131 241 189 121 238 186 115 238 183 111 238 186 115 243 194 131 238 189 126 239 181 106 
238 176 102 235 170 94 230 170 95 236 185 115 236 185 115 232 167 93 236 175 100 238 176 102 
233 176 102 233 182 111 238 189 126 238 189 126 243 194 131 244 201 142 244 201 142 242 202 151 
247 209 150 241 207 150 241 207 150 248 217 169 248 217 169 248 217 169 240 211 161 241 214 169 
241 207 150 238 199 142 225 181 124 227 177 111 223 162 104 194 120 52 194 120 52 153 87 46 
137 77 46 137 77 46 137 77 46 137 77 46 137 77 46 108 79 55 0 0 0 0 0 0 
0 0 0 0 0 0 0 0 0 0 0 0 0 0 0 0 0 0 0 0 0 0 0 0 
0 0 0 0 0 0 0 0 0 0 0 0 0 0 0 0 0 0 0 0 0 0 0 0 
0 0 0 0 0 0 0 0 0 0 0 0 0 0 0 0 0 0 0 0 0 0 0 0 
0 0 0 0 0 0 0 0 0 0 0 0 0 0 0 
0 0 0 0 0 0 0 0 0 0 0 0 0 0 0 0 0 0 0 0 0 0 0 0 
0 0 0 0 0 0 0 0 0 0 0 0 0 0 0 0 0 0 0 0 0 0 0 0 
0 0 0 0 0 0 0 0 0 0 0 0 0 0 0 0 0 0 0 0 0 0 0 0 
0 0 0 0 0 0 0 0 0 0 0 0 0 0 0 0 0 0 0 0 0 0 0 0 
0 0 0 0 0 0 0 0 0 0 0 0 0 0 0 182 138 96 244 194 126 238 189 126 
232 187 136 215 166 116 215 166 116 203 136 90 203 131 74 203 131 74 203 136 90 215 152 100 
212 140 78 204 121 49 194 110 39 211 133 62 211 131 59 217 145 68 222 153 84 213 146 78 
228 165 93 218 138 64 225 167 94 224 169 105 230 173 107 228 165 93 231 175 99 238 183 111 
234 180 107 238 176 102 214 149 73 233 180 114 238 189 126 241 189 121 231 177 107 231 177 107 
241 189 121 237 181 114 234 180 107 231 185 116 234 188 126 245 200 134 231 162 84 233 176 102 
239 181 106 235 170 94 238 176 102 233 176 102 230 170 95 228 162 90 230 170 95 233 176 102 
234 180 107 238 186 115 243 194 131 244 194 126 241 189 121 236 175 100 235 170 94 234 180 107 
238 186 115 238 189 126 234 188 126 230 193 135 235 193 134 232 187 121 238 192 132 238 192 132 
244 201 142 244 201 142 243 201 146 244 194 126 238 183 111 239 181 106 239 181 106 230 170 95 
232 167 93 235 165 90 231 162 84 226 174 99 225 170 96 231 177 107 231 175 99 231 175 99 
233 182 111 238 183 111 243 194 131 241 188 126 238 186 115 241 189 121 238 183 111 232 187 121 
230 193 135 238 199 142 242 202 151 241 214 169 248 217 169 248 217 169 248 217 169 241 214 169 
240 211 161 241 214 169 236 198 150 231 187 126 213 154 88 213 146 78 213 146 78 182 118 54 
171 102 53 137 77 46 137 77 46 137 77 46 137 77 46 140 88 64 55 53 51 0 0 0 
0 0 0 0 0 0 0 0 0 0 0 0 0 0 0 0 0 0 0 0 0 0 0 0 
0 0 0 0 0 0 0 0 0 0 0 0 0 0 0 0 0 0 0 0 0 0 0 0 
0 0 0 0 0 0 0 0 0 0 0 0 0 0 0 0 0 0 0 0 0 0 0 0 
0 0 0 0 0 0 0 0 0 0 0 0 0 0 0 
0 0 0 0 0 0 0 0 0 0 0 0 0 0 0 0 0 0 0 0 0 0 0 0 
0 0 0 0 0 0 0 0 0 0 0 0 0 0 0 0 0 0 0 0 0 0 0 0 
0 0 0 0 0 0 0 0 0 0 0 0 0 0 0 0 0 0 0 0 0 0 0 0 
0 0 0 0 0 0 0 0 0 0 0 0 0 0 0 0 0 0 0 0 0 0 0 0 
0 0 0 0 0 0 0 0 0 0 0 0 0 0 0 150 118 91 241 189 121 231 185 116 
232 187 136 225 186 132 215 163 108 203 136 90 203 131 74 203 131 74 213 146 78 213 146 78 
208 128 56 202 111 39 199 113 42 204 121 49 211 133 62 213 146 78 218 146 78 218 142 72 
211 139 69 214 147 72 224 169 105 233 177 111 234 180 107 235 170 94 233 176 102 237 181 114 
237 181 114 241 189 121 224 160 78 220 160 88 230 173 107 237 181 114 241 189 121 238 183 111 
230 170 95 230 170 95 238 178 111 233 180 114 238 192 132 241 188 126 238 183 111 238 183 111 
238 176 102 228 153 76 231 162 84 235 170 94 231 177 107 238 183 111 238 176 102 235 165 90 
223 140 64 228 155 79 233 177 111 231 162 84 231 162 84 231 162 84 231 166 86 235 170 94 
241 189 121 244 194 126 243 194 131 239 199 135 238 199 142 239 194 135 238 189 126 238 186 115 
238 175 106 239 181 106 242 188 115 238 186 115 239 181 106 238 176 102 236 175 100 239 181 106 
238 183 111 231 175 99 228 166 90 228 162 90 233 176 102 238 183 111 230 170 95 233 176 102 
236 185 115 234 188 126 245 200 134 241 189 121 233 182 111 238 183 111 233 176 102 233 176 102 
232 187 121 235 193 134 230 193 135 233 196 142 240 211 161 248 225 188 248 217 169 241 214 169 
241 214 169 241 214 169 240 211 161 236 198 150 227 186 126 214 159 92 233 169 102 182 118 54 
203 124 65 183 124 67 137 77 46 137 77 46 137 77 46 137 77 46 140 88 64 51 29 18 
0 0 0 0 0 0 0 0 0 0 0 0 0 0 0 0 0 0 0 0 0 0 0 0 
0 0 0 0 0 0 0 0 0 0 0 0 0 0 0 0 0 0 0 0 0 0 0 0 
0 0 0 0 0 0 0 0 0 0 0 0 0 0 0 0 0 0 0 0 0 0 0 0 
0 0 0 0 0 0 0 0 0 0 0 0 0 0 0 
0 0 0 0 0 0 0 0 0 0 0 0 0 0 0 0 0 0 0 0 0 0 0 0 
0 0 0 0 0 0 0 0 0 0 0 0 0 0 0 0 0 0 0 0 0 0 0 0 
0 0 0 0 0 0 0 0 0 0 0 0 0 0 0 0 0 0 0 0 0 0 0 0 
0 0 0 0 0 0 0 0 0 0 0 0 0 0 0 0 0 0 0 0 0 0 0 0 
0 0 0 0 0 0 0 0 0 0 0 0 0 0 0 108 79 55 238 183 111 234 180 107 
225 186 132 232 187 136 216 171 108 215 162 99 204 143 74 210 133 67 212 140 78 213 154 88 
218 146 78 208 132 56 208 128 56 211 131 59 211 132 57 213 140 72 211 133 62 199 113 42 
218 138 64 215 149 79 223 160 87 233 169 102 236 175 100 232 167 93 234 180 107 241 189 121 
238 175 106 235 170 94 223 153 71 223 153 76 230 170 95 233 169 102 230 170 95 231 177 107 
234 180 107 236 185 115 226 174 103 233 169 102 230 173 107 235 170 94 238 176 102 233 176 102 
235 170 94 235 170 94 236 174 95 223 155 79 230 170 95 238 183 111 238 183 111 236 174 95 
223 153 76 226 161 86 238 186 115 236 185 115 231 175 99 235 170 94 231 162 84 224 160 78 
231 175 99 238 186 115 241 189 121 241 189 121 238 189 126 243 194 131 236 185 115 238 183 111 
234 180 107 238 176 102 231 162 84 238 176 102 230 170 95 232 167 93 228 155 79 225 147 66 
231 166 86 237 181 114 236 185 115 238 183 111 238 186 115 234 175 107 235 170 94 234 180 107 
241 189 121 243 194 131 245 200 134 239 194 126 238 183 111 242 188 115 233 182 111 234 180 107 
232 187 121 238 199 142 238 199 142 238 199 142 236 198 150 236 204 151 248 217 169 248 217 169 
248 217 169 241 214 169 248 217 169 248 217 169 236 204 151 231 187 126 225 169 100 194 120 52 
212 140 78 213 146 78 179 108 68 128 64 26 137 77 46 137 77 46 137 77 46 108 79 55 
2 1 1 0 0 0 0 0 0 0 0 0 0 0 0 0 0 0 0 0 0 0 0 0 
0 0 0 0 0 0 0 0 0 0 0 0 0 0 0 0 0 0 0 0 0 0 0 0 
0 0 0 0 0 0 0 0 0 0 0 0 0 0 0 0 0 0 0 0 0 0 0 0 
0 0 0 0 0 0 0 0 0 0 0 0 0 0 0 
0 0 0 0 0 0 0 0 0 0 0 0 0 0 0 0 0 0 0 0 0 0 0 0 
0 0 0 0 0 0 0 0 0 0 0 0 0 0 0 0 0 0 0 0 0 0 0 0 
0 0 0 0 0 0 0 0 0 0 0 0 0 0 0 0 0 0 0 0 0 0 0 0 
0 0 0 0 0 0 0 0 0 0 0 0 0 0 0 0 0 0 0 0 0 0 0 0 
0 0 0 0 0 0 0 0 0 0 0 0 0 0 0 51 29 18 230 173 107 236 175 100 
231 187 126 227 186 126 215 163 108 215 162 99 213 154 88 215 152 87 214 159 92 214 159 92 
210 133 67 207 130 56 218 142 72 216 133 65 199 107 32 207 123 56 202 111 39 192 106 35 
211 132 57 214 140 68 211 139 69 225 148 73 228 155 79 235 170 94 232 167 93 228 166 90 
220 155 77 224 161 84 228 162 90 228 162 90 230 170 95 227 158 93 227 181 116 239 194 135 
227 177 111 227 181 116 232 187 136 235 193 134 241 207 150 234 188 126 237 181 114 238 175 106 
231 161 79 231 161 79 238 183 111 233 182 111 238 186 115 233 176 102 225 169 100 233 177 111 
237 181 114 233 180 114 233 182 111 233 180 114 237 181 114 235 170 94 228 153 76 230 170 95 
230 170 95 236 185 115 244 194 126 241 189 121 238 186 115 238 192 132 244 201 142 244 194 126 
238 189 126 241 188 126 234 175 107 234 180 107 238 178 111 238 176 102 230 170 95 236 175 100 
228 166 90 232 167 93 238 178 111 236 174 95 228 155 79 224 160 78 231 166 86 235 170 94 
234 175 107 230 173 107 237 181 114 238 176 102 236 175 100 235 170 94 232 160 86 230 170 95 
234 175 107 238 189 126 238 199 142 243 201 146 230 193 135 236 198 150 236 204 151 248 217 169 
248 225 188 248 217 169 248 217 169 248 217 169 248 217 169 247 212 160 235 193 134 213 154 88 
213 146 78 215 162 99 203 131 74 171 102 53 128 64 26 137 77 46 137 77 46 137 77 46 
104 64 29 0 0 0 0 0 0 0 0 0 0 0 0 0 0 0 0 0 0 0 0 0 
0 0 0 0 0 0 0 0 0 0 0 0 0 0 0 0 0 0 0 0 0 0 0 0 
0 0 0 0 0 0 0 0 0 0 0 0 0 0 0 0 0 0 0 0 0 0 0 0 
0 0 0 0 0 0 0 0 0 0 0 0 0 0 0 
0 0 0 0 0 0 0 0 0 0 0 0 0 0 0 0 0 0 0 0 0 0 0 0 
0 0 0 0 0 0 0 0 0 0 0 0 0 0 0 0 0 0 0 0 0 0 0 0 
0 0 0 0 0 0 0 0 0 0 0 0 0 0 0 0 0 0 0 0 0 0 0 0 
0 0 0 0 0 0 0 0 0 0 0 0 0 0 0 0 0 0 0 0 0 0 0 0 
0 0 0 0 0 0 110 92 87 2 1 1 0 0 0 0 0 0 203 155 97 236 174 95 
231 177 107 225 181 124 225 186 132 203 155 97 203 155 97 215 162 99 215 152 87 224 164 97 
211 133 62 204 121 49 208 128 56 207 123 49 211 139 69 211 131 59 204 113 45 208 128 56 
213 138 62 222 153 84 224 164 97 234 175 107 228 155 79 228 162 90 228 165 93 233 176 102 
224 164 90 226 161 86 223 153 76 224 161 84 215 149 79 203 132 65 224 169 105 239 195 141 
231 187 126 235 193 134 238 192 132 238 199 142 247 212 160 247 209 150 241 189 121 238 189 126 
235 170 94 228 155 79 224 161 84 230 170 95 236 185 115 225 172 107 227 178 107 236 185 115 
236 185 115 241 189 121 232 187 121 232 187 121 241 188 126 233 177 111 233 169 102 233 182 111 
239 194 126 231 185 116 241 189 121 238 183 111 232 167 93 233 176 102 241 188 126 233 176 102 
225 167 94 242 188 115 241 189 121 238 183 111 233 176 102 235 165 90 231 166 86 233 176 102 
233 176 102 234 175 107 238 186 115 236 185 115 241 189 121 238 176 102 231 166 86 219 146 68 
228 155 79 228 155 79 228 162 90 236 174 95 234 175 107 233 176 102 236 174 95 228 153 76 
235 170 94 241 189 121 238 199 142 244 201 142 244 201 142 242 202 151 240 211 161 248 217 169 
248 225 188 248 225 188 248 225 188 248 225 188 248 217 169 248 217 169 240 211 161 233 196 142 
203 155 97 226 169 111 186 105 52 212 140 78 154 83 29 128 64 26 137 77 46 137 77 46 
140 88 64 51 29 18 0 0 0 0 0 0 0 0 0 0 0 0 0 0 0 0 0 0 
0 0 0 0 0 0 0 0 0 0 0 0 0 0 0 0 0 0 0 0 0 0 0 0 
0 0 0 0 0 0 0 0 0 0 0 0 0 0 0 0 0 0 0 0 0 0 0 0 
0 0 0 0 0 0 0 0 0 0 0 0 0 0 0 
0 0 0 0 0 0 0 0 0 0 0 0 0 0 0 0 0 0 0 0 0 0 0 0 
0 0 0 0 0 0 0 0 0 0 0 0 0 0 0 0 0 0 0 0 0 0 0 0 
0 0 0 0 0 0 0 0 0 0 0 0 0 0 0 0 0 0 0 0 0 0 0 0 
0 0 0 0 0 0 0 0 0 0 0 0 0 0 0 0 0 0 0 0 0 0 0 0 
0 0 0 0 0 0 0 0 0 0 0 0 0 0 0 0 0 0 150 107 67 238 176 102 
231 175 99 227 186 126 225 188 139 225 186 132 225 181 124 225 172 107 203 132 65 215 149 79 
214 140 68 218 138 64 213 138 62 213 138 62 222 153 84 217 140 68 211 131 59 214 147 72 
220 160 88 214 151 79 211 131 59 232 160 86 231 162 84 228 155 79 231 162 84 233 180 114 
224 164 97 228 165 93 220 149 73 233 169 102 233 169 102 230 173 107 230 170 95 224 161 84 
226 174 103 231 185 116 226 174 103 243 194 131 238 186 115 232 160 86 225 147 66 236 175 100 
241 189 121 233 180 114 233 176 102 224 164 90 231 177 107 232 187 121 232 187 121 241 189 121 
234 180 107 231 177 107 232 187 121 238 189 126 243 194 131 239 194 126 241 189 121 238 186 115 
239 199 135 243 194 131 233 176 102 233 182 111 241 188 126 241 189 121 233 177 111 238 175 106 
231 175 99 233 176 102 228 165 93 228 166 90 227 154 85 235 165 90 231 161 79 219 146 68 
225 153 79 226 161 86 225 169 100 233 180 114 239 194 126 243 194 131 242 188 115 239 181 106 
238 175 106 233 169 102 234 180 107 233 176 102 236 175 100 232 187 121 239 194 135 233 180 114 
230 170 95 230 170 95 238 176 102 241 189 121 245 200 134 244 201 142 247 209 150 247 212 160 
247 212 160 248 217 169 240 211 161 241 214 169 248 217 169 248 217 169 248 217 169 248 217 169 
242 202 151 227 186 126 204 143 74 203 132 65 186 105 52 128 64 26 137 77 46 137 77 46 
140 88 64 108 79 55 0 0 0 0 0 0 0 0 0 0 0 0 0 0 0 0 0 0 
0 0 0 0 0 0 0 0 0 0 0 0 0 0 0 0 0 0 0 0 0 0 0 0 
0 0 0 0 0 0 0 0 0 0 0 0 0 0 0 0 0 0 0 0 0 0 0 0 
0 0 0 0 0 0 0 0 0 0 0 0 0 0 0 
0 0 0 0 0 0 0 0 0 0 0 0 0 0 0 0 0 0 0 0 0 0 0 0 
0 0 0 0 0 0 0 0 0 0 0 0 0 0 0 0 0 0 0 0 0 0 0 0 
0 0 0 0 0 0 0 0 0 0 0 0 0 0 0 0 0 0 0 0 0 0 0 0 
0 0 0 0 0 0 0 0 0 0 0 0 0 0 0 0 0 0 0 0 0 0 0 0 
0 0 0 0 0 0 0 0 0 0 0 0 0 0 0 0 0 0 108 79 55 238 186 115 
234 180 107 235 193 134 230 193 135 233 196 142 233 196 142 225 181 124 225 181 124 214 159 92 
213 140 72 213 138 64 211 132 57 208 132 56 213 140 72 204 113 45 211 132 57 212 142 64 
215 156 78 214 159 92 218 142 72 223 140 64 218 144 61 226 161 86 225 170 96 236 185 115 
234 175 107 226 174 103 237 181 114 228 162 90 225 147 66 224 161 84 223 155 79 232 167 93 
236 175 100 231 177 107 241 189 121 232 187 121 241 189 121 227 154 85 219 138 59 228 162 90 
234 175 107 225 172 107 236 179 121 241 188 126 238 189 126 236 185 115 238 175 106 225 149 79 
228 155 79 235 170 94 238 183 111 228 166 90 230 170 95 232 167 93 238 178 111 241 189 121 
245 200 134 239 194 126 236 185 115 231 166 86 237 181 114 239 194 135 238 189 126 228 162 90 
228 166 90 231 175 99 223 160 87 223 153 76 223 140 64 212 126 52 212 127 48 225 147 66 
228 153 76 227 154 85 224 161 84 231 175 99 236 175 100 238 176 102 228 166 90 236 174 95 
238 183 111 238 183 111 238 183 111 241 189 121 244 194 126 241 189 121 233 182 111 239 194 126 
239 194 135 239 194 126 231 177 107 233 176 102 238 183 111 243 194 131 239 194 135 239 195 141 
244 201 142 247 209 150 247 212 160 242 202 151 242 202 151 247 212 160 240 211 161 240 211 161 
240 211 161 233 196 142 226 169 111 212 140 78 203 131 74 154 83 29 128 64 26 137 77 46 
137 77 46 140 88 64 51 29 18 0 0 0 0 0 0 0 0 0 0 0 0 0 0 0 
0 0 0 0 0 0 0 0 0 0 0 0 0 0 0 0 0 0 0 0 0 0 0 0 
0 0 0 0 0 0 0 0 0 0 0 0 0 0 0 0 0 0 0 0 0 0 0 0 
0 0 0 0 0 0 0 0 0 0 0 0 0 0 0 
0 0 0 0 0 0 0 0 0 0 0 0 0 0 0 0 0 0 0 0 0 0 0 0 
0 0 0 0 0 0 0 0 0 0 0 0 0 0 0 0 0 0 0 0 0 0 0 0 
0 0 0 0 0 0 0 0 0 0 0 0 0 0 0 0 0 0 0 0 0 0 0 0 
0 0 0 0 0 0 0 0 0 0 0 0 0 0 0 0 0 0 0 0 0 0 0 0 
0 0 0 0 0 0 0 0 0 0 0 0 0 0 0 55 53 51 203 155 97 236 179 121 
233 176 102 233 182 111 234 188 126 242 202 151 233 196 142 225 186 132 225 186 132 226 171 121 
219 154 88 222 153 84 217 145 68 213 138 62 213 138 64 212 126 52 207 123 49 208 132 56 
211 133 62 214 149 73 219 146 68 228 153 76 227 153 72 228 162 90 225 169 100 225 169 100 
234 175 107 231 185 116 236 179 121 224 164 97 218 146 78 231 185 116 215 152 87 230 170 95 
233 176 102 232 167 93 232 167 93 236 175 100 236 185 115 232 167 93 231 166 86 238 178 111 
230 173 107 230 173 107 236 185 115 241 189 121 243 194 131 230 173 107 223 153 76 223 153 71 
235 165 90 233 176 102 236 185 115 231 175 99 235 170 94 236 174 95 238 189 126 238 192 132 
243 194 131 238 199 142 244 201 142 238 186 115 235 170 94 235 170 94 232 160 86 223 140 64 
228 153 76 230 173 107 238 178 111 238 178 111 213 138 62 219 138 59 213 138 64 215 133 56 
219 147 72 230 170 95 230 170 95 233 169 102 228 153 76 235 165 90 235 165 90 224 161 84 
232 167 93 235 170 94 232 167 93 235 170 94 233 176 102 241 189 121 244 194 126 238 186 115 
241 188 126 231 185 116 233 176 102 228 166 90 225 169 100 243 194 131 239 199 135 239 195 141 
230 193 135 243 201 146 238 199 142 247 209 150 247 212 160 241 207 150 241 207 150 237 204 161 
248 217 169 240 211 161 236 198 150 226 169 111 204 143 74 194 120 52 153 87 46 128 64 26 
137 77 46 137 77 46 108 79 55 2 1 1 0 0 0 0 0 0 0 0 0 0 0 0 
0 0 0 0 0 0 0 0 0 0 0 0 0 0 0 0 0 0 0 0 0 0 0 0 
0 0 0 0 0 0 0 0 0 0 0 0 0 0 0 0 0 0 0 0 0 0 0 0 
0 0 0 0 0 0 0 0 0 0 0 0 0 0 0 
0 0 0 0 0 0 0 0 0 0 0 0 0 0 0 0 0 0 0 0 0 0 0 0 
0 0 0 0 0 0 0 0 0 0 0 0 0 0 0 0 0 0 0 0 0 0 0 0 
0 0 0 0 0 0 0 0 0 0 0 0 0 0 0 0 0 0 0 0 0 0 0 0 
0 0 0 0 0 0 0 0 0 0 0 0 0 0 0 0 0 0 0 0 0 0 0 0 
0 0 0 0 0 0 0 0 0 0 0 0 108 79 55 203 155 97 215 152 100 223 162 104 
227 177 111 241 189 121 239 195 141 237 204 161 247 212 160 235 193 134 218 182 128 225 181 124 
227 181 116 220 155 77 216 132 52 213 138 62 214 149 73 218 142 72 213 146 68 213 138 62 
208 132 56 212 127 48 215 133 56 220 149 73 228 162 90 232 167 93 228 165 93 233 169 102 
233 177 111 232 187 121 227 181 116 227 177 111 225 172 107 238 199 142 225 181 124 238 199 142 
236 198 150 239 195 141 231 177 107 228 155 79 232 167 93 231 162 84 230 170 95 233 180 114 
232 187 121 227 177 111 233 169 102 224 164 97 233 176 102 225 159 90 237 181 114 228 155 79 
232 160 86 236 185 115 238 192 132 243 194 131 231 166 86 232 167 93 238 189 126 238 192 132 
234 188 126 239 195 141 245 200 134 233 182 111 238 192 132 232 187 121 231 177 107 230 173 107 
230 170 95 236 185 115 225 172 107 235 193 134 241 189 121 225 169 100 230 173 107 225 169 100 
235 170 94 230 173 107 228 162 90 228 162 90 228 155 79 219 146 68 223 140 64 227 153 72 
231 162 84 235 165 90 231 162 84 227 153 72 223 153 71 224 161 84 238 183 111 237 181 114 
238 189 126 239 194 126 236 185 115 233 176 102 237 181 114 238 186 115 245 200 134 244 201 142 
243 201 146 237 204 161 247 212 160 239 194 135 243 194 131 244 201 142 243 194 131 238 199 142 
241 214 169 248 217 169 236 204 151 231 187 126 226 169 111 219 154 88 203 124 65 154 83 29 
128 64 26 137 77 46 140 88 64 51 29 18 0 0 0 0 0 0 0 0 0 0 0 0 
0 0 0 0 0 0 0 0 0 0 0 0 0 0 0 0 0 0 0 0 0 0 0 0 
0 0 0 0 0 0 0 0 0 0 0 0 0 0 0 0 0 0 0 0 0 0 0 0 
0 0 0 0 0 0 0 0 0 0 0 0 0 0 0 
0 0 0 0 0 0 0 0 0 0 0 0 0 0 0 0 0 0 0 0 0 0 0 0 
0 0 0 0 0 0 0 0 0 0 0 0 0 0 0 0 0 0 0 0 0 0 0 0 
0 0 0 0 0 0 0 0 0 0 0 0 0 0 0 0 0 0 0 0 0 0 0 0 
0 0 0 0 0 0 0 0 0 0 0 0 0 0 0 0 0 0 0 0 0 0 0 0 
0 0 0 0 0 0 0 0 0 14 12 9 182 138 96 215 145 88 215 145 88 223 162 104 
241 188 126 238 189 126 238 189 126 242 202 151 241 207 150 235 193 134 225 181 124 225 181 124 
231 187 126 223 155 79 219 138 59 212 142 64 214 147 72 214 140 68 222 153 84 215 149 79 
214 140 68 201 121 42 225 153 79 228 165 93 228 162 90 223 153 71 224 160 78 233 169 102 
236 185 115 231 187 126 227 181 116 225 172 107 227 186 126 233 196 142 233 196 142 237 204 161 
247 212 160 248 217 169 245 200 134 238 175 106 225 153 79 223 140 64 230 170 95 225 169 100 
230 173 107 226 174 103 233 169 102 226 161 86 230 170 95 233 180 114 236 185 115 234 175 107 
230 170 95 233 176 102 241 189 121 238 189 126 238 183 111 234 180 107 239 194 126 243 194 131 
239 194 135 239 195 141 242 202 151 239 195 141 235 193 134 244 201 142 232 187 121 231 185 116 
239 194 126 241 189 121 239 194 126 244 201 142 238 189 126 234 180 107 233 177 111 237 181 114 
228 165 93 234 180 107 231 175 99 228 153 76 225 147 66 235 165 90 231 162 84 233 169 102 
236 175 100 231 162 84 227 153 72 231 162 84 236 175 100 233 176 102 238 183 111 234 175 107 
226 161 86 232 167 93 242 188 115 244 194 126 241 189 121 234 180 107 238 183 111 239 194 126 
238 199 142 241 207 150 240 211 161 243 201 146 244 201 142 232 187 121 239 194 126 234 188 126 
243 201 146 247 212 160 240 211 161 236 204 151 231 187 126 227 177 111 212 140 78 183 124 67 
128 64 26 137 77 46 137 77 46 108 79 55 2 1 1 0 0 0 0 0 0 0 0 0 
0 0 0 0 0 0 0 0 0 0 0 0 0 0 0 0 0 0 0 0 0 0 0 0 
0 0 0 0 0 0 0 0 0 0 0 0 0 0 0 0 0 0 0 0 0 0 0 0 
0 0 0 0 0 0 0 0 0 0 0 0 0 0 0 
0 0 0 0 0 0 0 0 0 0 0 0 0 0 0 0 0 0 0 0 0 0 0 0 
0 0 0 0 0 0 0 0 0 0 0 0 0 0 0 0 0 0 0 0 0 0 0 0 
0 0 0 0 0 0 0 0 0 0 0 0 0 0 0 0 0 0 0 0 0 0 0 0 
0 0 0 0 0 0 0 0 0 0 0 0 0 0 0 0 0 0 0 0 0 0 0 0 
0 0 0 0 0 0 0 0 0 110 92 87 215 152 100 215 145 88 223 162 104 241 188 126 
237 181 114 232 187 121 238 192 132 241 207 150 240 211 161 233 196 142 225 186 132 225 181 124 
227 181 116 224 161 84 223 153 76 214 147 72 214 147 72 225 149 79 211 139 69 215 152 87 
224 164 97 211 133 62 225 153 79 230 170 95 232 160 86 231 162 84 220 155 77 231 175 99 
231 175 99 231 177 107 227 177 111 227 181 116 242 202 151 242 202 151 236 204 151 247 212 160 
243 201 146 233 196 142 234 188 126 241 189 121 226 161 86 223 153 76 230 173 107 225 169 100 
228 166 90 228 165 93 233 180 114 231 177 107 238 183 111 238 186 115 233 180 114 233 180 114 
234 188 126 241 189 121 231 175 99 238 183 111 233 182 111 227 177 111 243 194 131 243 194 131 
239 194 126 234 188 126 243 201 146 239 195 141 239 199 135 241 188 126 233 177 111 233 180 114 
231 177 107 230 170 95 236 185 115 238 189 126 238 175 106 225 148 73 232 167 93 232 167 93 
232 167 93 217 145 68 219 147 72 216 132 52 225 147 66 226 161 86 235 170 94 233 176 102 
230 173 107 223 153 76 228 155 79 231 161 79 235 170 94 237 181 114 233 177 111 241 189 121 
241 189 121 239 181 106 242 188 115 241 189 121 241 189 121 242 188 115 242 188 115 241 188 126 
241 188 126 245 200 134 244 201 142 236 185 115 236 185 115 241 189 121 236 185 115 238 183 111 
241 188 126 244 201 142 247 212 160 247 212 160 240 211 161 225 181 124 223 162 104 203 131 74 
171 102 53 128 64 26 137 77 46 140 88 64 51 29 18 0 0 0 0 0 0 0 0 0 
0 0 0 0 0 0 0 0 0 0 0 0 0 0 0 0 0 0 0 0 0 0 0 0 
0 0 0 0 0 0 0 0 0 0 0 0 0 0 0 0 0 0 0 0 0 0 0 0 
0 0 0 0 0 0 0 0 0 0 0 0 0 0 0 
0 0 0 0 0 0 0 0 0 0 0 0 0 0 0 0 0 0 0 0 0 0 0 0 
0 0 0 0 0 0 0 0 0 0 0 0 0 0 0 0 0 0 0 0 0 0 0 0 
0 0 0 0 0 0 0 0 0 0 0 0 0 0 0 0 0 0 0 0 0 0 0 0 
0 0 0 0 0 0 0 0 0 0 0 0 0 0 0 0 0 0 0 0 0 0 0 0 
0 0 0 0 0 0 14 12 9 203 155 97 215 152 100 218 146 78 227 158 93 233 169 102 
226 161 86 236 185 115 238 199 142 233 196 142 236 204 151 236 204 151 225 188 139 216 171 108 
225 169 100 223 159 90 223 159 90 214 149 73 215 149 79 218 142 72 213 140 72 214 159 92 
233 169 102 224 145 73 228 165 93 230 170 95 223 153 76 228 162 90 233 177 111 233 177 111 
227 153 72 217 140 68 223 160 87 230 173 107 235 193 134 243 201 146 238 189 126 236 185 115 
228 162 90 238 178 111 236 185 115 238 183 111 230 170 95 220 149 73 233 177 111 233 180 114 
231 177 107 224 164 90 234 175 107 233 177 111 235 165 90 227 153 72 223 153 71 224 161 84 
238 189 126 238 189 126 243 194 131 243 194 131 238 189 126 238 186 115 241 189 121 241 189 121 
241 189 121 241 189 121 239 181 106 234 180 107 238 186 115 242 188 115 238 176 102 238 176 102 
234 175 107 238 175 106 231 177 107 232 187 121 228 155 79 212 126 52 219 138 59 219 146 68 
225 169 100 224 169 105 228 165 93 227 154 85 225 148 73 228 155 79 225 153 79 228 153 76 
234 175 107 238 178 111 226 161 86 218 144 61 225 147 66 231 162 84 234 175 107 241 189 121 
238 183 111 238 183 111 239 181 106 242 188 115 241 189 121 241 189 121 241 189 121 238 186 115 
233 180 114 232 187 121 239 181 106 238 176 102 234 180 107 241 189 121 241 189 121 242 188 115 
244 194 126 243 194 131 247 209 150 248 217 169 248 217 169 243 201 146 234 188 126 204 143 74 
203 131 74 154 83 29 128 64 26 137 77 46 104 64 29 0 0 0 0 0 0 0 0 0 
0 0 0 0 0 0 0 0 0 0 0 0 0 0 0 0 0 0 0 0 0 0 0 0 
0 0 0 0 0 0 0 0 0 0 0 0 0 0 0 0 0 0 0 0 0 0 0 0 
0 0 0 0 0 0 0 0 0 0 0 0 0 0 0 
0 0 0 0 0 0 0 0 0 0 0 0 0 0 0 0 0 0 0 0 0 0 0 0 
0 0 0 0 0 0 0 0 0 0 0 0 0 0 0 0 0 0 0 0 0 0 0 0 
0 0 0 0 0 0 0 0 0 0 0 0 0 0 0 0 0 0 0 0 0 0 0 0 
0 0 0 0 0 0 0 0 0 0 0 0 0 0 0 0 0 0 0 0 0 0 0 0 
0 0 0 0 0 0 110 92 87 226 171 121 215 145 88 212 140 78 228 165 93 231 162 84 
223 160 87 225 186 132 236 204 151 240 211 161 237 204 161 227 195 142 216 171 108 224 169 105 
224 164 97 224 164 90 223 159 90 222 153 84 214 147 72 215 149 79 223 159 90 224 164 97 
225 159 90 212 127 48 219 146 68 227 177 111 237 181 114 232 167 93 233 177 111 238 178 111 
225 149 79 218 138 64 211 132 57 225 169 100 227 181 116 238 189 126 236 174 95 235 165 90 
231 166 86 225 167 94 233 182 111 228 155 79 226 161 86 236 175 100 226 174 99 233 176 102 
239 181 106 235 165 90 217 145 68 225 147 66 219 146 68 231 162 84 233 176 102 233 176 102 
236 185 115 227 181 116 238 192 132 241 189 121 241 188 126 233 180 114 233 182 111 241 189 121 
243 194 131 245 200 134 239 194 126 230 170 95 231 175 99 231 166 86 227 153 72 228 162 90 
227 154 85 204 121 49 220 149 73 233 169 102 234 175 107 231 175 99 225 169 100 214 140 68 
212 127 48 220 149 73 233 169 102 236 185 115 233 169 102 226 161 86 230 170 95 228 165 93 
226 161 86 232 167 93 223 153 76 223 140 64 228 155 79 228 155 79 232 167 93 238 183 111 
238 183 111 241 188 126 233 182 111 238 183 111 241 189 121 244 194 126 241 189 121 238 176 102 
235 170 94 231 177 107 231 177 107 233 180 114 243 194 131 234 188 126 238 186 115 232 187 121 
238 192 132 239 194 135 244 201 142 247 212 160 248 217 169 241 214 169 241 207 150 226 169 111 
212 140 78 203 131 74 128 64 26 137 77 46 140 88 64 2 1 1 0 0 0 0 0 0 
0 0 0 0 0 0 0 0 0 0 0 0 0 0 0 0 0 0 0 0 0 0 0 0 
0 0 0 0 0 0 0 0 0 0 0 0 0 0 0 0 0 0 0 0 0 0 0 0 
0 0 0 0 0 0 0 0 0 0 0 0 0 0 0 
0 0 0 0 0 0 0 0 0 0 0 0 0 0 0 0 0 0 0 0 0 0 0 0 
0 0 0 0 0 0 0 0 0 0 0 0 0 0 0 0 0 0 0 0 0 0 0 0 
0 0 0 0 0 0 0 0 0 0 0 0 0 0 0 0 0 0 0 0 0 0 0 0 
0 0 0 0 0 0 0 0 0 0 0 0 0 0 0 0 0 0 0 0 0 0 0 0 
0 0 0 2 1 1 182 138 96 215 162 99 215 145 88 210 133 67 236 175 100 224 161 84 
227 177 111 242 202 151 232 201 151 227 195 142 229 195 150 215 163 108 227 177 111 225 169 100 
224 164 97 224 164 90 224 164 97 219 147 72 220 149 73 219 147 72 220 155 77 222 153 84 
212 126 52 207 122 42 223 153 76 225 172 107 238 178 111 231 166 86 233 176 102 222 153 84 
230 173 107 226 174 99 223 160 87 231 185 116 234 188 126 231 185 116 224 161 84 223 153 76 
224 161 84 234 175 107 227 180 112 230 173 107 233 177 111 225 167 94 223 153 76 212 127 48 
212 127 48 220 149 73 225 169 100 233 176 102 235 170 94 231 162 84 234 180 107 234 188 126 
239 194 135 243 194 131 236 185 115 241 189 121 238 186 115 238 183 111 238 186 115 241 189 121 
232 187 121 234 180 107 237 181 114 225 167 94 224 161 84 232 167 93 231 162 84 228 162 90 
233 169 102 226 161 86 232 160 86 223 155 79 218 146 78 232 167 93 234 175 107 227 154 85 
218 138 64 225 148 73 228 162 90 220 149 73 207 123 49 225 148 73 223 155 79 232 167 93 
231 162 84 228 162 90 227 154 85 216 132 52 224 145 73 230 170 95 236 175 100 232 167 93 
238 176 102 238 183 111 233 169 102 231 175 99 238 186 115 238 186 115 234 180 107 234 175 107 
235 170 94 224 161 84 225 169 100 224 169 105 234 188 126 243 201 146 238 192 132 238 192 132 
238 192 132 244 201 142 231 187 126 244 201 142 247 212 160 247 212 160 236 204 151 239 194 135 
214 159 92 203 131 74 171 102 53 137 77 46 137 77 46 51 29 18 0 0 0 0 0 0 
0 0 0 0 0 0 0 0 0 0 0 0 0 0 0 0 0 0 0 0 0 0 0 0 
0 0 0 0 0 0 0 0 0 0 0 0 0 0 0 0 0 0 0 0 0 0 0 0 
0 0 0 0 0 0 0 0 0 0 0 0 0 0 0 
0 0 0 0 0 0 0 0 0 0 0 0 0 0 0 0 0 0 0 0 0 0 0 0 
0 0 0 0 0 0 0 0 0 0 0 0 0 0 0 0 0 0 0 0 0 0 0 0 
0 0 0 0 0 0 0 0 0 0 0 0 0 0 0 0 0 0 0 0 0 0 0 0 
0 0 0 0 0 0 0 0 0 0 0 0 0 0 0 0 0 0 0 0 0 0 0 0 
0 0 0 108 79 55 215 166 116 215 152 100 219 154 88 228 162 90 228 162 90 225 170 96 
239 195 141 229 195 150 232 201 151 229 195 150 218 182 128 215 163 108 224 169 105 222 153 84 
215 149 79 223 160 87 225 169 100 227 154 85 224 161 84 225 148 73 212 127 48 204 113 45 
212 122 46 212 127 48 222 153 84 234 175 107 235 165 90 228 165 93 224 164 90 234 180 107 
233 180 114 227 180 112 227 181 116 238 192 132 239 194 135 226 174 103 223 153 76 224 160 78 
219 146 68 231 162 84 230 170 95 230 173 107 233 180 114 226 174 103 220 160 88 217 145 68 
219 138 59 234 175 107 232 187 121 234 188 126 236 185 115 231 161 79 230 170 95 234 188 126 
247 209 150 245 200 134 242 188 115 239 181 106 236 174 95 236 175 100 234 180 107 230 170 95 
233 182 111 234 188 126 241 189 121 224 164 90 224 164 90 225 169 100 228 165 93 228 153 76 
223 153 76 219 146 68 228 155 79 227 154 85 230 170 95 223 153 76 220 149 73 227 154 85 
211 131 59 225 147 66 227 154 85 223 153 76 228 155 79 219 138 59 228 155 79 225 148 73 
218 138 64 227 153 72 228 155 79 219 146 68 223 140 64 225 147 66 228 155 79 231 162 84 
231 161 79 238 176 102 235 165 90 236 175 100 234 180 107 231 177 107 236 175 100 234 180 107 
235 170 94 235 165 90 232 160 86 228 165 93 231 177 107 233 180 114 231 175 99 241 188 126 
232 187 121 233 180 114 238 189 126 238 189 126 242 202 151 247 212 160 248 217 169 236 204 151 
227 177 111 204 143 74 203 124 65 137 77 46 137 77 46 104 64 29 0 0 0 0 0 0 
0 0 0 0 0 0 0 0 0 0 0 0 0 0 0 0 0 0 0 0 0 0 0 0 
0 0 0 0 0 0 0 0 0 0 0 0 0 0 0 0 0 0 0 0 0 0 0 0 
0 0 0 0 0 0 0 0 0 0 0 0 0 0 0 
0 0 0 0 0 0 0 0 0 0 0 0 0 0 0 0 0 0 0 0 0 0 0 0 
0 0 0 0 0 0 0 0 0 0 0 0 0 0 0 0 0 0 0 0 0 0 0 0 
0 0 0 0 0 0 0 0 0 0 0 0 0 0 0 0 0 0 0 0 0 0 0 0 
0 0 0 0 0 0 0 0 0 0 0 0 0 0 0 0 0 0 0 0 0 0 0 0 
14 12 9 182 138 96 223 162 104 223 162 104 233 169 102 232 160 86 226 161 86 227 177 111 
225 186 132 227 195 142 229 195 150 225 188 139 225 181 124 224 169 105 225 167 94 224 161 84 
226 161 86 224 164 90 227 181 116 233 180 114 228 155 79 218 146 78 220 149 73 217 140 68 
213 138 62 225 153 79 226 161 86 231 175 99 226 161 86 223 153 76 220 149 73 226 161 86 
234 175 107 230 173 107 227 181 116 238 192 132 238 192 132 226 174 99 220 155 77 223 155 79 
220 155 77 226 161 86 220 149 73 223 153 76 225 167 94 234 180 107 228 166 90 236 174 95 
219 146 68 231 175 99 234 188 126 239 194 135 243 194 131 239 181 106 228 155 79 230 170 95 
238 183 111 238 186 115 238 186 115 241 189 121 238 189 126 236 185 115 231 177 107 238 183 111 
227 177 111 227 177 111 223 155 79 218 144 61 223 153 76 218 146 78 218 138 64 222 153 84 
230 173 107 233 177 111 231 162 84 223 153 71 232 160 86 228 165 93 225 169 100 224 164 97 
225 159 90 207 123 49 218 138 64 212 127 48 224 145 73 213 139 58 219 146 68 219 147 72 
224 145 73 218 138 64 223 140 64 224 145 73 223 153 76 219 146 68 223 140 64 232 167 93 
232 167 93 228 155 79 236 174 95 238 183 111 238 176 102 234 175 107 237 181 114 237 181 114 
228 166 90 228 166 90 231 162 84 225 148 73 232 160 86 228 165 93 236 174 95 233 176 102 
227 181 116 227 181 116 232 187 121 241 189 121 243 194 131 247 212 160 248 217 169 248 217 169 
238 199 142 213 154 88 203 131 74 171 102 53 137 77 46 108 79 55 0 0 0 0 0 0 
0 0 0 0 0 0 0 0 0 0 0 0 0 0 0 0 0 0 0 0 0 0 0 0 
0 0 0 0 0 0 0 0 0 0 0 0 0 0 0 0 0 0 0 0 0 0 0 0 
0 0 0 0 0 0 0 0 0 0 0 0 0 0 0 
0 0 0 0 0 0 0 0 0 0 0 0 0 0 0 0 0 0 0 0 0 0 0 0 
0 0 0 0 0 0 0 0 0 0 0 0 0 0 0 0 0 0 0 0 0 0 0 0 
0 0 0 0 0 0 0 0 0 0 0 0 0 0 0 0 0 0 0 0 0 0 0 0 
0 0 0 0 0 0 0 0 0 0 0 0 0 0 0 0 0 0 0 0 0 0 0 0 
110 92 87 215 166 116 226 169 111 224 164 97 238 175 106 228 155 79 230 173 107 215 163 108 
233 196 142 215 166 116 225 186 132 225 181 124 227 181 116 224 169 105 224 164 90 223 155 79 
223 155 79 224 169 105 225 181 124 231 177 107 222 153 84 225 167 94 226 161 86 213 146 68 
223 153 76 232 167 93 230 170 95 225 170 96 232 167 93 228 153 76 211 132 50 219 146 68 
226 161 86 224 164 90 231 177 107 233 180 114 234 180 107 233 182 111 225 170 96 225 170 96 
233 180 114 232 187 121 239 194 135 236 185 115 231 177 107 230 170 95 231 161 79 235 165 90 
231 175 99 225 169 100 238 189 126 241 188 126 238 183 111 238 176 102 230 170 95 233 182 111 
234 175 107 238 186 115 236 185 115 236 185 115 239 194 126 241 189 121 244 194 126 241 189 121 
232 187 121 232 187 121 233 169 102 223 160 87 235 165 90 228 162 90 218 138 64 233 169 102 
227 181 116 227 181 116 238 178 111 232 160 86 225 147 66 223 155 79 224 164 90 224 164 97 
227 177 111 238 189 126 222 153 84 225 147 66 228 162 90 228 162 90 228 162 90 223 155 79 
230 170 95 222 153 84 194 110 39 211 132 50 225 148 73 236 175 100 233 169 102 231 177 107 
226 174 103 235 170 94 235 165 90 230 173 107 237 181 114 230 170 95 236 175 100 231 175 99 
231 175 99 228 165 93 228 155 79 219 138 59 211 132 50 223 140 64 225 148 73 225 148 73 
236 179 121 235 193 134 238 192 132 236 179 121 242 188 115 244 201 142 248 217 169 248 225 188 
240 211 161 225 181 124 204 143 74 183 124 67 153 87 46 140 88 64 2 1 1 0 0 0 
0 0 0 0 0 0 0 0 0 0 0 0 0 0 0 0 0 0 0 0 0 0 0 0 
0 0 0 0 0 0 0 0 0 0 0 0 0 0 0 0 0 0 0 0 0 0 0 0 
0 0 0 0 0 0 0 0 0 0 0 0 0 0 0 
0 0 0 0 0 0 0 0 0 0 0 0 0 0 0 0 0 0 0 0 0 0 0 0 
0 0 0 0 0 0 0 0 0 0 0 0 0 0 0 0 0 0 0 0 0 0 0 0 
0 0 0 0 0 0 0 0 0 0 0 0 0 0 0 0 0 0 0 0 0 0 0 0 
0 0 0 0 0 0 0 0 0 0 0 0 0 0 0 0 0 0 0 0 0 0 0 0 
182 138 96 226 169 111 224 169 105 233 169 102 238 175 106 226 174 99 227 177 111 225 181 124 
225 186 132 203 155 97 225 186 132 226 169 111 225 172 107 224 169 105 227 177 111 223 160 87 
222 153 84 225 172 107 223 162 104 228 165 93 223 160 87 225 169 100 220 160 88 214 151 79 
236 175 100 236 175 100 230 170 95 224 164 90 232 160 86 223 153 76 226 161 86 224 160 78 
223 155 79 228 162 90 228 166 90 236 185 115 241 189 121 238 186 115 241 189 121 244 194 126 
238 183 111 238 189 126 244 201 142 236 185 115 233 180 114 233 180 114 231 177 107 232 167 93 
231 166 86 225 170 96 232 187 121 238 189 126 244 194 126 235 170 94 233 176 102 238 189 126 
238 186 115 233 182 111 238 186 115 238 186 115 238 186 115 233 180 114 241 189 121 244 194 126 
242 188 115 238 186 115 231 175 99 238 176 102 230 170 95 236 174 95 219 147 72 224 161 84 
233 180 114 233 180 114 230 170 95 211 132 57 208 128 56 226 161 86 222 153 84 230 170 95 
234 188 126 234 188 126 225 169 100 212 127 48 225 148 73 224 145 73 207 123 49 216 132 52 
224 161 84 230 170 95 218 142 72 216 132 52 223 153 76 228 165 93 226 174 103 227 177 111 
236 185 115 236 175 100 225 153 79 228 162 90 231 162 84 230 173 107 234 175 107 232 167 93 
225 167 94 233 180 114 228 165 93 228 155 79 217 140 68 218 138 64 225 147 66 217 145 68 
228 165 93 237 181 114 234 188 126 238 192 132 244 194 126 245 200 134 248 217 169 248 225 188 
248 217 169 225 181 124 203 131 74 212 140 78 171 102 53 140 88 64 14 12 9 0 0 0 
0 0 0 0 0 0 0 0 0 0 0 0 0 0 0 0 0 0 0 0 0 0 0 0 
0 0 0 0 0 0 0 0 0 0 0 0 0 0 0 0 0 0 0 0 0 0 0 0 
0 0 0 0 0 0 0 0 0 0 0 0 0 0 0 
0 0 0 0 0 0 0 0 0 0 0 0 0 0 0 0 0 0 0 0 0 0 0 0 
0 0 0 0 0 0 0 0 0 0 0 0 0 0 0 0 0 0 0 0 0 0 0 0 
0 0 0 0 0 0 0 0 0 0 0 0 0 0 0 0 0 0 0 0 0 0 0 0 
0 0 0 0 0 0 0 0 0 0 0 0 0 0 0 0 0 0 0 0 0 2 1 1 
203 155 97 226 169 111 224 169 105 223 159 90 230 170 95 233 180 114 230 193 135 225 186 132 
215 163 108 225 186 132 225 181 124 216 171 108 227 181 116 225 169 100 233 169 102 217 145 68 
219 147 72 225 169 100 228 162 90 224 161 84 223 160 87 230 173 107 214 159 92 231 185 116 
234 188 126 241 189 121 231 175 99 234 175 107 237 181 114 231 175 99 233 182 111 233 169 102 
223 153 76 228 166 90 232 167 93 230 170 95 241 189 121 233 182 111 241 189 121 241 189 121 
233 182 111 238 186 115 239 181 106 236 174 95 236 185 115 239 194 126 238 189 126 233 176 102 
239 181 106 231 175 99 234 180 107 231 177 107 232 187 121 239 194 126 236 185 115 236 185 115 
226 174 103 232 187 121 239 199 135 233 182 111 234 180 107 238 183 111 238 175 106 236 175 100 
230 170 95 234 175 107 230 173 107 234 175 107 235 170 94 231 162 84 228 153 76 217 145 68 
223 155 79 224 164 90 230 173 107 228 165 93 194 110 39 212 126 56 207 122 42 213 138 62 
225 159 90 234 175 107 222 153 84 207 122 42 215 133 56 213 138 62 207 122 42 212 122 46 
228 153 76 218 142 72 228 162 90 228 162 90 223 140 64 228 165 93 227 181 116 233 180 114 
241 189 121 232 167 93 217 145 68 227 154 85 225 147 66 224 161 84 235 170 94 236 175 100 
228 155 79 233 169 102 227 177 111 225 167 94 223 155 79 223 153 76 225 153 79 223 153 76 
228 162 90 225 153 79 232 160 86 234 175 107 243 194 131 244 201 142 248 217 169 248 225 188 
248 225 188 238 199 142 215 163 108 203 131 74 182 118 54 140 88 64 14 12 9 0 0 0 
0 0 0 0 0 0 0 0 0 0 0 0 0 0 0 0 0 0 0 0 0 0 0 0 
0 0 0 0 0 0 0 0 0 0 0 0 0 0 0 0 0 0 0 0 0 0 0 0 
0 0 0 0 0 0 0 0 0 0 0 0 0 0 0 
0 0 0 0 0 0 0 0 0 0 0 0 0 0 0 0 0 0 0 0 0 0 0 0 
0 0 0 0 0 0 0 0 0 0 0 0 0 0 0 0 0 0 0 0 0 0 0 0 
0 0 0 0 0 0 0 0 0 0 0 0 0 0 0 0 0 0 0 0 0 0 0 0 
0 0 0 0 0 0 0 0 0 0 0 0 0 0 0 0 0 0 0 0 0 55 53 51 
215 166 116 226 169 111 230 161 102 224 161 84 233 176 102 227 181 116 233 196 142 225 186 132 
226 171 121 227 195 142 216 171 108 216 171 108 230 173 107 224 164 97 222 153 84 219 138 59 
216 132 52 218 138 64 225 148 73 226 161 86 230 170 95 238 175 106 224 169 105 231 187 126 
227 180 112 239 194 135 236 185 115 237 181 114 236 185 115 233 176 102 236 175 100 228 153 76 
220 155 77 220 149 73 228 162 90 232 187 121 238 189 126 233 177 111 241 188 126 239 194 126 
227 181 116 236 185 115 230 173 107 231 175 99 233 176 102 238 186 115 238 192 132 239 194 135 
238 186 115 231 185 116 241 189 121 233 182 111 226 174 103 236 185 115 227 180 112 244 201 142 
239 194 135 233 176 102 238 183 111 239 194 126 242 188 115 236 175 100 234 180 107 234 180 107 
231 185 116 234 175 107 236 185 115 233 180 114 225 169 100 230 170 95 232 160 86 232 160 86 
228 166 90 225 148 73 232 160 86 224 164 90 223 160 87 214 140 68 216 132 59 224 145 73 
220 160 88 219 154 88 233 169 102 220 149 73 223 153 71 228 162 90 233 177 111 233 169 102 
225 167 94 211 133 62 227 154 85 233 180 114 223 160 87 225 159 90 233 169 102 223 159 90 
211 133 62 222 153 84 232 167 93 228 155 79 219 138 59 227 153 72 232 160 86 226 161 86 
235 165 90 217 145 68 226 161 86 223 160 87 220 155 77 228 153 76 228 155 79 232 167 93 
228 165 93 220 149 73 225 148 73 235 165 90 234 180 107 238 189 126 247 212 160 248 217 169 
248 225 188 237 204 161 226 169 111 182 118 54 182 118 54 156 92 61 51 29 18 0 0 0 
0 0 0 0 0 0 0 0 0 0 0 0 0 0 0 0 0 0 0 0 0 0 0 0 
0 0 0 0 0 0 0 0 0 0 0 0 0 0 0 0 0 0 0 0 0 0 0 0 
0 0 0 0 0 0 0 0 0 0 0 0 0 0 0 
0 0 0 0 0 0 0 0 0 0 0 0 0 0 0 0 0 0 0 0 0 0 0 0 
0 0 0 0 0 0 0 0 0 0 0 0 0 0 0 0 0 0 0 0 0 0 0 0 
0 0 0 0 0 0 0 0 0 0 0 0 0 0 0 0 0 0 0 0 0 0 0 0 
0 0 0 0 0 0 0 0 0 0 0 0 0 0 0 0 0 0 0 0 0 182 138 96 
226 169 111 223 162 104 218 142 72 225 149 79 233 169 102 225 181 124 232 187 136 218 182 128 
225 186 132 225 181 124 216 167 99 220 160 88 219 154 88 225 159 90 223 160 87 222 153 84 
218 138 64 213 138 62 223 153 76 225 148 73 228 165 93 238 183 111 227 177 111 235 193 134 
238 199 142 227 181 116 241 188 126 233 182 111 237 181 114 230 173 107 224 160 78 227 153 72 
230 170 95 228 165 93 230 173 107 232 187 121 235 193 134 234 188 126 232 187 121 225 172 107 
225 172 107 232 187 121 226 174 103 224 164 90 227 180 112 238 192 132 234 188 126 239 199 135 
233 176 102 242 188 115 231 175 99 238 176 102 238 186 115 241 189 121 236 185 115 238 183 111 
233 176 102 238 176 102 231 175 99 233 182 111 238 183 111 234 180 107 241 189 121 244 194 126 
233 180 114 241 189 121 234 188 126 231 185 116 225 167 94 219 146 68 216 132 59 219 138 59 
212 127 48 204 121 49 213 140 72 225 167 94 220 160 88 233 169 102 225 153 79 199 114 47 
224 164 90 224 164 90 228 165 93 228 162 90 220 149 73 233 169 102 227 177 111 224 164 97 
231 177 107 234 175 107 225 172 107 236 179 121 216 167 99 233 169 102 230 170 95 238 178 111 
225 167 94 225 169 100 225 167 94 225 153 79 225 153 79 228 162 90 228 155 79 232 160 86 
228 155 79 227 154 85 219 147 72 220 149 73 213 138 62 223 140 64 223 140 64 212 127 48 
225 148 73 223 159 90 222 153 84 232 167 93 238 176 102 227 180 112 247 212 160 248 217 169 
248 225 188 240 211 161 225 181 124 201 125 56 183 124 67 156 92 61 51 29 18 0 0 0 
0 0 0 0 0 0 0 0 0 0 0 0 0 0 0 0 0 0 0 0 0 0 0 0 
0 0 0 0 0 0 0 0 0 0 0 0 0 0 0 0 0 0 0 0 0 0 0 0 
0 0 0 0 0 0 0 0 0 0 0 0 0 0 0 
0 0 0 0 0 0 0 0 0 0 0 0 0 0 0 0 0 0 0 0 0 0 0 0 
0 0 0 0 0 0 0 0 0 0 0 0 0 0 0 0 0 0 0 0 0 0 0 0 
0 0 0 0 0 0 0 0 0 0 0 0 0 0 0 0 0 0 0 0 0 0 0 0 
0 0 0 0 0 0 0 0 0 0 0 0 0 0 0 0 0 0 55 53 51 215 166 116 
226 169 111 219 154 88 211 131 59 219 147 72 225 169 100 225 181 124 215 166 116 215 166 116 
225 181 124 227 181 116 225 169 100 219 146 68 220 155 77 223 160 87 223 160 87 220 160 88 
220 149 73 218 146 78 225 169 100 233 180 114 225 167 94 224 161 84 232 167 93 234 180 107 
233 180 114 227 177 111 234 188 126 238 189 126 238 192 132 227 177 111 222 153 84 226 161 86 
225 167 94 233 169 102 225 169 100 227 177 111 235 193 134 226 174 103 226 174 103 226 174 103 
238 186 115 231 177 107 227 180 112 231 187 126 247 209 150 243 201 146 241 188 126 241 189 121 
239 181 106 239 181 106 231 175 99 236 174 95 234 180 107 238 183 111 238 183 111 238 192 132 
233 182 111 241 189 121 245 200 134 239 194 126 241 189 121 239 194 126 232 187 121 232 187 121 
232 187 121 238 192 132 241 189 121 233 180 114 233 177 111 228 155 79 207 123 49 219 138 59 
219 147 72 226 161 86 225 167 94 228 162 90 232 160 86 220 155 77 225 153 79 213 138 62 
220 149 73 227 154 85 225 153 79 230 170 95 220 149 73 223 153 76 218 146 78 211 133 62 
223 155 79 228 162 90 225 167 94 237 181 114 227 177 111 232 187 121 232 187 121 236 179 121 
233 180 114 224 169 105 233 177 111 223 155 79 232 160 86 228 166 90 225 148 73 227 153 72 
225 148 73 226 161 86 225 149 79 225 148 73 225 147 66 211 132 57 219 146 68 225 147 66 
215 133 56 228 155 79 223 160 87 217 140 68 233 169 102 243 194 131 247 209 150 247 212 160 
248 225 188 247 212 160 227 186 126 215 145 88 203 131 74 156 92 61 51 29 18 0 0 0 
0 0 0 0 0 0 0 0 0 0 0 0 0 0 0 0 0 0 0 0 0 0 0 0 
0 0 0 0 0 0 0 0 0 0 0 0 0 0 0 0 0 0 0 0 0 0 0 0 
0 0 0 0 0 0 0 0 0 0 0 0 0 0 0 
0 0 0 0 0 0 0 0 0 0 0 0 0 0 0 0 0 0 0 0 0 0 0 0 
0 0 0 0 0 0 0 0 0 0 0 0 0 0 0 0 0 0 0 0 0 0 0 0 
0 0 0 0 0 0 0 0 0 0 0 0 0 0 0 0 0 0 0 0 0 0 0 0 
0 0 0 0 0 0 0 0 0 0 0 0 0 0 0 2 1 1 182 138 96 226 169 111 
226 169 111 213 140 72 204 121 49 218 142 72 216 167 99 216 171 108 225 181 124 225 181 124 
225 181 124 225 181 124 213 154 88 218 144 61 219 146 68 224 161 84 220 160 88 224 169 105 
213 154 88 224 164 97 227 177 111 227 180 112 214 151 79 237 181 114 228 166 90 224 161 84 
230 170 95 227 177 111 238 192 132 243 194 131 232 187 121 224 169 105 224 169 105 233 177 111 
227 181 116 231 185 116 227 181 116 237 181 114 239 194 126 226 174 99 233 180 114 239 194 135 
243 194 131 234 180 107 233 182 111 239 199 135 243 201 146 232 187 121 231 166 86 231 162 84 
223 153 76 233 176 102 234 188 126 241 189 121 233 182 111 236 185 115 238 186 115 238 192 132 
243 194 131 243 194 131 244 194 126 239 194 126 238 189 126 236 185 115 227 178 107 238 189 126 
236 179 121 226 174 99 226 161 86 230 170 95 228 166 90 223 155 79 223 155 79 230 170 95 
228 162 90 225 149 79 222 153 84 215 133 56 219 138 59 226 161 86 226 161 86 224 161 84 
236 174 95 214 147 72 220 149 73 219 146 68 224 145 73 219 138 59 215 133 56 212 126 56 
207 123 49 218 138 64 223 153 76 218 142 72 217 140 68 233 177 111 225 172 107 225 149 79 
222 153 84 233 169 102 233 180 114 230 173 107 228 165 93 213 138 62 228 153 76 226 161 86 
223 155 79 228 166 90 228 155 79 216 132 59 219 138 59 211 132 50 211 131 59 225 148 73 
223 140 64 223 140 64 224 161 84 225 153 79 223 155 79 238 183 111 245 200 134 247 209 150 
241 214 169 240 211 161 231 187 126 214 159 92 183 124 67 150 107 67 14 12 9 0 0 0 
0 0 0 0 0 0 0 0 0 0 0 0 0 0 0 0 0 0 0 0 0 0 0 0 
0 0 0 0 0 0 0 0 0 0 0 0 0 0 0 0 0 0 0 0 0 0 0 0 
0 0 0 0 0 0 0 0 0 0 0 0 0 0 0 
0 0 0 0 0 0 0 0 0 0 0 0 0 0 0 0 0 0 0 0 0 0 0 0 
0 0 0 0 0 0 0 0 0 0 0 0 0 0 0 0 0 0 0 0 0 0 0 0 
0 0 0 0 0 0 0 0 0 0 0 0 0 0 0 0 0 0 0 0 0 0 0 0 
0 0 0 0 0 0 0 0 0 0 0 0 0 0 0 108 79 55 215 166 116 223 162 104 
223 162 104 210 133 67 212 126 56 223 155 79 216 167 99 216 171 108 226 171 121 225 181 124 
226 171 121 215 162 99 214 151 79 220 160 88 220 155 77 222 153 84 224 164 90 228 165 93 
215 152 87 224 164 97 225 169 100 228 162 90 220 160 88 237 181 114 234 180 107 238 175 106 
231 166 86 230 173 107 231 177 107 233 176 102 226 174 103 226 174 103 227 177 111 234 188 126 
225 181 124 235 193 134 243 194 131 225 153 79 231 161 79 234 175 107 243 194 131 238 192 132 
237 181 114 231 175 99 226 161 86 233 177 111 233 180 114 230 170 95 230 170 95 233 176 102 
228 155 79 230 170 95 231 177 107 236 185 115 234 180 107 226 174 99 236 185 115 239 194 126 
243 194 131 243 194 131 239 199 135 238 199 142 238 199 142 242 202 151 238 192 132 239 194 126 
234 180 107 230 170 95 230 170 95 232 167 93 231 162 84 230 173 107 233 169 102 228 166 90 
225 170 96 225 167 94 219 154 88 224 145 73 212 122 46 216 133 65 211 131 59 218 138 64 
219 146 68 211 131 59 224 161 84 228 165 93 219 147 72 225 147 66 231 162 84 233 169 102 
225 159 90 225 153 79 224 164 90 223 155 79 217 145 68 233 169 102 224 164 97 216 132 59 
202 113 34 213 138 62 230 173 107 227 177 111 234 188 126 231 177 107 214 159 92 230 173 107 
236 179 121 231 162 84 228 153 76 225 147 66 219 146 68 225 147 66 224 164 90 233 169 102 
228 155 79 219 138 59 227 153 72 228 155 79 232 160 86 235 170 94 242 188 115 247 212 160 
248 217 169 248 217 169 239 195 141 203 136 90 186 105 52 150 107 67 2 1 1 0 0 0 
0 0 0 0 0 0 0 0 0 0 0 0 0 0 0 0 0 0 0 0 0 0 0 0 
0 0 0 0 0 0 0 0 0 0 0 0 0 0 0 0 0 0 0 0 0 0 0 0 
0 0 0 0 0 0 0 0 0 0 0 0 0 0 0 
0 0 0 0 0 0 0 0 0 0 0 0 0 0 0 0 0 0 0 0 0 0 0 0 
0 0 0 0 0 0 0 0 0 0 0 0 0 0 0 0 0 0 0 0 0 0 0 0 
0 0 0 0 0 0 0 0 0 0 0 0 0 0 0 0 0 0 0 0 0 0 0 0 
0 0 0 0 0 0 0 0 0 0 0 0 0 0 0 150 118 91 226 169 111 223 162 104 
218 146 78 204 121 49 216 132 59 222 153 84 225 172 107 216 171 108 225 181 124 225 186 132 
216 171 108 215 152 87 220 160 88 225 169 100 215 149 79 213 138 62 227 154 85 211 133 62 
220 155 77 225 169 100 220 160 88 219 146 68 225 148 73 227 153 72 225 169 100 233 176 102 
228 162 90 230 173 107 230 170 95 233 176 102 233 169 102 224 164 90 228 165 93 227 181 116 
227 186 126 233 196 142 227 178 107 232 167 93 228 153 76 219 146 68 226 174 103 236 185 115 
236 185 115 233 182 111 241 189 121 233 177 111 231 175 99 238 176 102 226 161 86 231 175 99 
231 177 107 224 164 90 222 153 84 230 170 95 238 183 111 238 186 115 234 180 107 236 185 115 
239 194 126 234 188 126 239 199 135 235 193 134 247 212 160 241 207 150 247 209 150 239 199 135 
234 180 107 233 176 102 233 182 111 230 170 95 226 161 86 224 160 78 224 160 78 231 161 79 
224 161 84 222 153 84 224 161 84 228 165 93 213 138 62 216 132 59 227 154 85 228 162 90 
201 121 42 216 133 65 223 155 79 223 160 87 225 169 100 228 162 90 228 155 79 234 175 107 
232 167 93 228 165 93 225 169 100 228 162 90 213 146 68 228 162 90 224 161 84 225 148 73 
219 138 59 219 147 72 228 162 90 225 159 90 233 177 111 238 189 126 227 177 111 233 180 114 
233 177 111 228 165 93 225 147 66 225 147 66 228 155 79 228 153 76 224 164 90 230 173 107 
238 178 111 228 155 79 225 148 73 225 148 73 228 155 79 228 162 90 244 194 126 247 209 150 
241 207 150 240 211 161 243 201 146 215 145 88 186 105 52 140 88 64 0 0 0 0 0 0 
0 0 0 0 0 0 0 0 0 0 0 0 0 0 0 0 0 0 0 0 0 0 0 0 
0 0 0 0 0 0 0 0 0 0 0 0 0 0 0 0 0 0 0 0 0 0 0 0 
0 0 0 0 0 0 0 0 0 0 0 0 0 0 0 
0 0 0 0 0 0 0 0 0 0 0 0 0 0 0 0 0 0 0 0 0 0 0 0 
0 0 0 0 0 0 0 0 0 0 0 0 0 0 0 0 0 0 0 0 0 0 0 0 
0 0 0 0 0 0 0 0 0 0 0 0 0 0 0 0 0 0 0 0 0 0 0 0 
0 0 0 0 0 0 0 0 0 0 0 0 14 12 9 215 163 108 223 162 104 223 162 104 
211 139 69 207 123 49 223 140 64 224 164 97 216 171 108 226 171 121 225 181 124 218 182 128 
227 177 111 204 143 74 214 159 92 225 172 107 228 165 93 218 144 61 219 147 72 213 138 62 
219 154 88 224 164 90 220 160 88 230 170 95 230 170 95 223 140 64 228 166 90 224 164 90 
224 164 90 233 180 114 231 185 116 234 188 126 225 169 100 224 164 90 214 149 73 233 180 114 
227 186 126 235 193 134 244 201 142 231 175 99 233 176 102 234 175 107 231 175 99 225 170 96 
230 170 95 230 170 95 234 180 107 225 170 96 226 174 103 234 180 107 238 189 126 239 194 135 
238 189 126 234 180 107 234 180 107 231 166 86 231 161 79 230 170 95 235 170 94 238 175 106 
233 176 102 234 180 107 231 185 116 227 177 111 242 202 151 247 212 160 247 212 160 238 189 126 
234 180 107 225 167 94 230 173 107 231 177 107 233 177 111 224 161 84 228 155 79 212 122 46 
216 132 52 228 155 79 225 169 100 230 173 107 225 159 90 213 138 64 228 162 90 225 170 96 
225 159 90 228 155 79 228 155 79 217 140 68 230 170 95 235 170 94 225 167 94 233 177 111 
213 138 64 218 138 64 219 147 72 227 154 85 236 175 100 232 167 93 219 147 72 228 165 93 
223 159 90 228 153 76 231 161 79 223 153 76 228 155 79 237 181 114 237 181 114 231 175 99 
236 175 100 235 170 94 228 155 79 228 162 90 226 161 86 235 165 90 226 161 86 228 162 90 
238 178 111 232 160 86 225 147 66 228 153 76 224 145 73 228 155 79 237 181 114 244 201 142 
247 212 160 248 217 169 235 193 134 211 139 69 194 120 52 108 79 55 0 0 0 0 0 0 
0 0 0 0 0 0 0 0 0 0 0 0 0 0 0 0 0 0 0 0 0 0 0 0 
0 0 0 0 0 0 0 0 0 0 0 0 0 0 0 0 0 0 0 0 0 0 0 0 
0 0 0 0 0 0 0 0 0 0 0 0 0 0 0 
0 0 0 0 0 0 0 0 0 0 0 0 0 0 0 0 0 0 0 0 0 0 0 0 
0 0 0 0 0 0 0 0 0 0 0 0 0 0 0 0 0 0 0 0 0 0 0 0 
0 0 0 0 0 0 0 0 0 0 0 0 0 0 0 0 0 0 0 0 0 0 0 0 
0 0 0 0 0 0 0 0 0 0 0 0 108 79 55 215 166 116 223 162 104 230 161 102 
225 153 79 215 133 56 219 146 68 215 162 99 216 171 108 225 181 124 225 181 124 225 181 124 
216 171 108 213 154 88 225 169 100 224 164 97 220 155 77 219 146 68 224 164 90 223 159 90 
222 153 84 219 146 68 224 164 90 227 177 111 231 185 116 233 169 102 228 162 90 233 176 102 
225 167 94 227 177 111 238 192 132 232 187 121 214 159 92 225 169 100 227 154 85 230 170 95 
232 187 121 238 183 111 225 167 94 228 165 93 231 175 99 225 170 96 225 169 100 224 169 105 
241 189 121 226 161 86 230 170 95 215 160 87 224 164 97 227 181 116 243 201 146 233 196 142 
227 181 116 228 165 93 215 156 78 220 155 77 223 153 76 236 174 95 225 170 96 231 162 84 
231 166 86 231 175 99 238 189 126 241 189 121 245 200 134 243 201 146 238 192 132 233 176 102 
231 166 86 223 155 79 228 165 93 233 177 111 238 189 126 233 180 114 228 162 90 225 147 66 
223 153 71 219 146 68 225 153 79 228 165 93 225 169 100 233 169 102 211 139 69 233 169 102 
224 164 97 223 155 79 223 153 71 232 167 93 219 147 72 223 140 64 228 165 93 231 177 107 
233 169 102 228 153 76 219 146 68 228 165 93 230 173 107 228 165 93 225 153 79 237 181 114 
233 169 102 225 147 66 220 149 73 228 165 93 231 162 84 236 175 100 228 166 90 228 162 90 
238 176 102 231 175 99 236 175 100 234 180 107 235 165 90 231 162 84 231 161 79 231 162 84 
231 161 79 222 153 84 225 153 79 232 160 86 223 140 64 233 169 102 231 185 116 243 201 146 
248 217 169 247 212 160 232 187 121 211 139 69 182 118 54 108 79 55 0 0 0 0 0 0 
0 0 0 0 0 0 0 0 0 0 0 0 0 0 0 0 0 0 0 0 0 0 0 0 
0 0 0 0 0 0 0 0 0 0 0 0 0 0 0 0 0 0 0 0 0 0 0 0 
0 0 0 0 0 0 0 0 0 0 0 0 0 0 0 
0 0 0 0 0 0 0 0 0 0 0 0 0 0 0 0 0 0 0 0 0 0 0 0 
0 0 0 0 0 0 0 0 0 0 0 0 0 0 0 0 0 0 0 0 0 0 0 0 
0 0 0 0 0 0 0 0 0 0 0 0 0 0 0 0 0 0 0 0 0 0 0 0 
0 0 0 0 0 0 0 0 0 0 0 0 150 118 91 223 162 104 227 158 93 227 154 85 
225 148 73 225 147 66 223 160 87 216 167 99 215 166 116 215 166 116 225 188 139 225 181 124 
215 163 108 224 164 97 225 167 94 219 146 68 214 140 68 220 149 73 224 164 97 223 159 90 
223 159 90 223 160 87 233 169 102 216 167 99 227 177 111 227 177 111 224 169 105 232 187 121 
231 177 107 232 167 93 236 185 115 225 169 100 225 169 100 225 169 100 213 138 64 225 149 79 
231 177 107 225 167 94 223 153 71 225 147 66 218 144 61 226 161 86 231 175 99 236 185 115 
227 177 111 226 174 103 216 167 99 215 160 87 225 169 100 238 192 132 239 199 135 227 181 116 
239 195 141 232 187 121 215 156 78 215 156 78 232 167 93 235 165 90 233 182 111 231 161 79 
231 162 84 225 170 96 241 189 121 241 189 121 238 186 115 236 185 115 231 177 107 241 189 121 
238 186 115 233 180 114 237 181 114 230 170 95 225 170 96 234 175 107 241 189 121 238 178 111 
223 155 79 220 160 88 225 148 73 219 146 68 223 153 76 211 133 62 216 132 59 218 138 64 
227 154 85 232 167 93 231 162 84 233 169 102 223 155 79 220 149 73 212 142 64 222 153 84 
230 170 95 232 160 86 232 167 93 225 169 100 223 159 90 223 159 90 225 170 96 233 180 114 
228 166 90 227 153 72 228 162 90 224 164 90 231 166 86 231 162 84 231 166 86 231 177 107 
238 186 115 238 178 111 238 186 115 244 194 126 238 183 111 230 170 95 235 170 94 236 175 100 
231 166 86 230 173 107 228 162 90 232 160 86 224 161 84 225 172 107 225 181 124 239 199 135 
247 209 150 247 212 160 225 172 107 215 149 79 183 124 67 51 29 18 0 0 0 0 0 0 
0 0 0 0 0 0 0 0 0 0 0 0 0 0 0 0 0 0 0 0 0 0 0 0 
0 0 0 0 0 0 0 0 0 0 0 0 0 0 0 0 0 0 0 0 0 0 0 0 
0 0 0 0 0 0 0 0 0 0 0 0 0 0 0 
0 0 0 0 0 0 0 0 0 0 0 0 0 0 0 0 0 0 0 0 0 0 0 0 
0 0 0 0 0 0 0 0 0 0 0 0 0 0 0 0 0 0 0 0 0 0 0 0 
0 0 0 0 0 0 0 0 0 0 0 0 0 0 0 0 0 0 0 0 0 0 0 0 
0 0 0 0 0 0 0 0 0 0 0 0 150 118 91 223 162 104 227 158 93 222 153 84 
225 148 73 228 155 79 224 164 97 215 163 108 218 182 128 225 186 132 225 186 132 225 181 124 
225 181 124 219 154 88 217 145 68 217 140 68 213 138 64 223 160 87 223 160 87 220 160 88 
227 177 111 230 173 107 224 164 90 214 147 72 225 167 94 227 177 111 225 172 107 230 173 107 
230 170 95 227 153 72 228 165 93 225 167 94 225 169 100 214 151 79 225 167 94 217 145 68 
231 177 107 225 167 94 226 161 86 225 148 73 223 153 71 224 164 90 226 161 86 231 177 107 
226 174 103 231 177 107 226 174 103 241 189 121 236 185 115 241 189 121 234 188 126 234 188 126 
244 201 142 232 187 121 232 187 121 234 188 126 234 180 107 238 183 111 236 185 115 233 182 111 
236 175 100 241 189 121 236 185 115 243 194 131 241 188 126 233 182 111 241 189 121 241 188 126 
238 183 111 233 180 114 238 178 111 234 180 107 225 169 100 224 164 90 233 176 102 228 162 90 
224 161 84 225 167 94 228 165 93 217 145 68 223 153 76 225 159 90 227 154 85 211 133 62 
220 149 73 232 167 93 224 161 84 223 155 79 223 153 71 224 164 97 234 175 107 217 145 68 
223 140 64 224 160 78 228 165 93 225 169 100 225 169 100 228 165 93 236 185 115 233 180 114 
228 162 90 228 162 90 228 162 90 236 175 100 234 180 107 230 170 95 233 176 102 239 199 135 
244 201 142 247 209 150 245 200 134 238 186 115 238 186 115 236 185 115 241 189 121 238 186 115 
231 175 99 231 177 107 226 161 86 223 153 76 225 167 94 216 171 108 236 198 150 247 209 150 
247 209 150 241 207 150 227 181 116 219 154 88 183 124 67 2 1 1 0 0 0 0 0 0 
0 0 0 0 0 0 0 0 0 0 0 0 0 0 0 0 0 0 0 0 0 0 0 0 
0 0 0 0 0 0 0 0 0 0 0 0 0 0 0 0 0 0 0 0 0 0 0 0 
0 0 0 0 0 0 0 0 0 0 0 0 0 0 0 
0 0 0 0 0 0 0 0 0 0 0 0 0 0 0 0 0 0 0 0 0 0 0 0 
0 0 0 0 0 0 0 0 0 0 0 0 0 0 0 0 0 0 0 0 0 0 0 0 
0 0 0 0 0 0 0 0 0 0 0 0 0 0 0 0 0 0 0 0 0 0 0 0 
0 0 0 0 0 0 0 0 0 51 29 18 215 166 116 223 162 104 218 146 78 225 153 79 
225 153 79 222 153 84 215 162 99 215 166 116 225 188 139 218 182 128 225 181 124 225 181 124 
227 177 111 220 160 88 219 147 72 219 138 59 219 138 59 211 133 62 227 154 85 220 160 88 
233 177 111 231 166 86 223 155 79 217 145 68 220 149 73 230 170 95 224 164 90 228 165 93 
230 170 95 230 170 95 230 173 107 231 175 99 225 167 94 214 159 92 224 169 105 219 147 72 
236 185 115 233 176 102 236 175 100 218 144 61 231 175 99 227 180 112 226 161 86 228 166 90 
231 177 107 234 180 107 235 170 94 231 177 107 238 186 115 232 167 93 231 175 99 238 186 115 
236 185 115 236 185 115 243 194 131 227 180 112 234 180 107 241 189 121 231 185 116 238 189 126 
235 170 94 234 180 107 241 189 121 241 188 126 242 188 115 231 166 86 228 165 93 233 176 102 
233 176 102 228 166 90 231 166 86 224 161 84 224 161 84 228 166 90 230 170 95 223 155 79 
219 146 68 225 169 100 227 177 111 222 153 84 223 155 79 233 169 102 225 169 100 233 169 102 
219 147 72 228 162 90 228 162 90 219 146 68 225 147 66 228 162 90 225 159 90 219 146 68 
212 122 46 218 142 72 230 170 95 233 177 111 238 186 115 231 175 99 238 186 115 230 170 95 
212 127 48 219 138 59 223 155 79 230 170 95 233 182 111 238 192 132 243 194 131 247 209 150 
248 217 169 240 211 161 242 202 151 247 209 150 247 212 160 243 201 146 235 193 134 236 185 115 
238 186 115 216 167 99 225 172 107 224 169 105 236 185 115 233 196 142 248 217 169 247 212 160 
247 212 160 241 207 150 227 177 111 212 140 78 140 88 64 0 0 0 0 0 0 0 0 0 
0 0 0 0 0 0 0 0 0 0 0 0 0 0 0 0 0 0 0 0 0 0 0 0 
0 0 0 0 0 0 0 0 0 0 0 0 0 0 0 0 0 0 0 0 0 0 0 0 
0 0 0 0 0 0 0 0 0 0 0 0 0 0 0 
0 0 0 0 0 0 0 0 0 0 0 0 0 0 0 0 0 0 0 0 0 0 0 0 
0 0 0 0 0 0 0 0 0 0 0 0 0 0 0 0 0 0 0 0 0 0 0 0 
0 0 0 0 0 0 0 0 0 0 0 0 0 0 0 0 0 0 0 0 0 0 0 0 
0 0 0 0 0 0 0 0 0 150 118 91 215 152 100 215 152 100 218 138 64 232 160 86 
227 154 85 223 159 90 215 162 99 215 166 116 225 186 132 216 171 108 227 181 116 227 181 116 
225 172 107 220 160 88 218 138 64 219 147 72 225 148 73 218 138 64 219 147 72 214 147 72 
223 160 87 228 162 90 223 160 87 227 177 111 237 181 114 234 180 107 231 175 99 231 175 99 
231 175 99 231 175 99 230 173 107 220 155 77 224 164 97 214 159 92 233 177 111 217 140 68 
226 161 86 228 165 93 228 165 93 217 145 68 233 176 102 237 181 114 237 181 114 226 174 103 
225 169 100 238 183 111 236 174 95 238 183 111 236 185 115 238 183 111 231 166 86 235 165 90 
232 167 93 239 181 106 239 181 106 236 185 115 231 175 99 236 174 95 241 189 121 242 188 115 
231 175 99 233 177 111 237 181 114 238 176 102 231 166 86 218 144 61 213 139 58 231 162 84 
228 162 90 236 174 95 236 175 100 231 166 86 223 153 76 225 148 73 219 146 68 224 161 84 
228 165 93 223 160 87 225 167 94 223 153 76 223 153 76 220 149 73 213 138 64 225 149 79 
223 155 79 228 165 93 228 162 90 216 132 59 216 132 59 216 132 59 217 140 68 224 161 84 
225 153 79 213 138 62 225 153 79 233 169 102 238 178 111 230 170 95 230 170 95 226 161 86 
225 148 73 228 155 79 230 170 95 233 176 102 231 177 107 233 182 111 238 183 111 238 199 142 
248 225 188 248 217 169 248 225 188 248 217 169 248 217 169 247 209 150 238 199 142 238 175 106 
228 153 76 233 177 111 236 179 121 226 169 111 243 201 146 247 212 160 247 212 160 247 209 150 
247 212 160 247 209 150 226 169 111 204 143 74 51 29 18 0 0 0 0 0 0 0 0 0 
0 0 0 0 0 0 0 0 0 0 0 0 0 0 0 0 0 0 0 0 0 0 0 0 
0 0 0 0 0 0 0 0 0 0 0 0 0 0 0 0 0 0 0 0 0 0 0 0 
0 0 0 0 0 0 0 0 0 0 0 0 0 0 0 
0 0 0 0 0 0 0 0 0 0 0 0 0 0 0 0 0 0 0 0 0 0 0 0 
0 0 0 0 0 0 0 0 0 0 0 0 0 0 0 0 0 0 0 0 0 0 0 0 
0 0 0 0 0 0 0 0 0 0 0 0 0 0 0 0 0 0 0 0 0 0 0 0 
0 0 0 0 0 0 51 29 18 215 163 108 215 152 100 227 158 93 218 138 64 225 159 90 
228 162 90 224 164 97 216 171 108 215 163 108 226 171 121 216 171 108 215 162 99 227 181 116 
233 177 111 224 164 90 219 147 72 225 153 79 219 147 72 217 145 68 211 139 69 225 149 79 
225 167 94 214 147 72 214 151 79 231 187 126 233 180 114 231 187 126 231 177 107 239 181 106 
230 170 95 228 166 90 236 185 115 233 180 114 216 167 99 224 169 105 235 193 134 225 147 66 
218 144 61 223 159 90 234 180 107 225 169 100 233 180 114 223 153 76 223 155 79 215 162 99 
227 181 116 227 177 111 227 177 111 225 170 96 233 176 102 228 166 90 233 176 102 234 180 107 
231 177 107 238 176 102 228 155 79 230 170 95 234 180 107 233 182 111 239 181 106 231 166 86 
231 161 79 234 175 107 232 187 121 231 185 116 239 181 106 227 153 72 228 155 79 231 177 107 
238 178 111 236 175 100 223 155 79 224 161 84 224 161 84 217 140 68 217 140 68 227 154 85 
225 169 100 213 139 58 216 132 52 218 138 64 212 126 52 224 145 73 219 138 59 219 138 59 
225 148 73 227 154 85 226 161 86 232 160 86 220 149 73 222 153 84 212 127 48 223 160 87 
225 167 94 220 149 73 213 138 62 219 146 68 211 132 57 228 155 79 230 173 107 232 187 121 
232 187 121 227 177 111 233 180 114 237 181 114 241 189 121 244 194 126 241 189 121 240 211 161 
248 225 188 248 225 188 248 225 188 241 214 169 236 204 151 247 209 150 239 199 135 237 181 114 
233 177 111 227 181 116 216 171 108 227 177 111 242 202 151 245 200 134 245 200 134 247 209 150 
247 212 160 239 195 141 213 154 88 150 107 67 0 0 0 0 0 0 0 0 0 0 0 0 
0 0 0 0 0 0 0 0 0 0 0 0 0 0 0 0 0 0 0 0 0 0 0 0 
0 0 0 0 0 0 0 0 0 0 0 0 0 0 0 0 0 0 0 0 0 0 0 0 
0 0 0 0 0 0 0 0 0 0 0 0 0 0 0 
0 0 0 0 0 0 0 0 0 0 0 0 0 0 0 0 0 0 0 0 0 0 0 0 
0 0 0 0 0 0 0 0 0 0 0 0 0 0 0 0 0 0 0 0 0 0 0 0 
0 0 0 0 0 0 0 0 0 0 0 0 0 0 0 0 0 0 0 0 0 0 0 0 
0 0 0 0 0 0 150 107 67 223 162 104 223 162 104 218 146 78 224 145 73 233 169 102 
233 177 111 227 181 116 226 171 121 215 163 108 215 163 108 227 177 111 216 171 108 230 173 107 
219 154 88 215 149 79 222 153 84 223 153 76 222 153 84 204 143 74 224 164 97 224 164 97 
222 153 84 222 153 84 215 160 87 238 186 115 231 185 116 239 194 135 238 186 115 232 167 93 
232 167 93 233 177 111 231 185 116 232 187 121 227 177 111 227 177 111 233 169 102 218 144 61 
228 153 76 217 140 68 223 159 90 227 178 107 225 172 107 231 177 107 224 164 90 227 178 107 
233 180 114 227 177 111 225 172 107 234 188 126 238 199 142 232 187 121 232 187 121 215 160 87 
215 156 78 223 155 79 223 153 71 232 167 93 220 155 77 230 170 95 236 175 100 231 161 79 
231 166 86 231 177 107 233 180 114 235 170 94 236 175 100 238 176 102 228 166 90 225 169 100 
233 180 114 231 166 86 223 153 76 225 169 100 220 160 88 215 160 87 224 164 97 228 166 90 
224 161 84 232 167 93 228 155 79 224 160 78 212 142 64 218 138 64 220 149 73 224 161 84 
223 140 64 218 144 61 228 153 76 228 155 79 218 138 64 212 126 52 212 127 48 223 160 87 
215 152 87 228 162 90 225 153 79 226 161 86 226 161 86 225 148 73 228 155 79 225 169 100 
233 180 114 233 180 114 238 189 126 234 188 126 239 194 135 247 209 150 247 209 150 248 217 169 
248 225 188 248 225 188 241 214 169 227 195 142 237 204 161 241 207 150 232 187 121 214 159 92 
231 187 126 232 187 121 232 187 121 238 192 132 247 212 160 244 201 142 244 201 142 247 209 150 
238 199 142 236 179 121 203 136 90 104 64 29 0 0 0 0 0 0 0 0 0 0 0 0 
0 0 0 0 0 0 0 0 0 0 0 0 0 0 0 0 0 0 0 0 0 0 0 0 
0 0 0 0 0 0 0 0 0 0 0 0 0 0 0 0 0 0 0 0 0 0 0 0 
0 0 0 0 0 0 0 0 0 0 0 0 0 0 0 
0 0 0 0 0 0 0 0 0 0 0 0 0 0 0 0 0 0 0 0 0 0 0 0 
0 0 0 0 0 0 0 0 0 0 0 0 0 0 0 0 0 0 0 0 0 0 0 0 
0 0 0 0 0 0 0 0 0 0 0 0 0 0 0 0 0 0 0 0 0 0 0 0 
0 0 0 14 12 9 203 155 97 223 162 104 219 154 88 216 132 59 207 123 49 236 175 100 
231 177 107 226 171 121 225 186 132 226 171 121 215 163 108 216 171 108 227 181 116 228 162 90 
219 138 59 207 123 49 214 147 72 219 147 72 223 160 87 224 164 90 224 164 97 225 169 100 
214 147 72 228 162 90 233 177 111 233 177 111 225 172 107 235 193 134 238 178 111 228 155 79 
230 170 95 225 167 94 233 182 111 238 189 126 233 180 114 224 169 105 223 159 90 212 127 48 
220 149 73 224 164 97 237 181 114 234 180 107 231 177 107 233 177 111 230 170 95 227 180 112 
232 187 121 233 180 114 227 181 116 235 193 134 244 201 142 231 185 116 241 189 121 226 174 99 
231 175 99 226 161 86 231 162 84 223 153 76 218 144 61 225 153 79 228 165 93 227 153 72 
227 153 72 226 161 86 223 155 79 224 161 84 231 166 86 231 161 79 228 155 79 223 153 76 
228 166 90 228 153 76 231 162 84 225 172 107 220 160 88 215 152 87 215 156 78 225 169 100 
235 170 94 215 133 56 213 139 58 219 146 68 219 138 59 224 145 73 224 161 84 228 162 90 
224 145 73 227 154 85 233 169 102 228 162 90 222 153 84 213 138 62 223 153 76 224 164 90 
223 159 90 233 169 102 226 174 103 227 180 112 233 176 102 225 147 66 218 144 61 219 146 68 
231 161 79 233 169 102 232 167 93 236 175 100 234 175 107 247 209 150 247 209 150 248 217 169 
248 225 188 248 225 188 248 217 169 248 217 169 241 214 169 248 217 169 233 196 142 231 187 126 
242 202 151 242 202 151 241 189 121 239 181 106 244 194 126 245 200 134 244 201 142 244 201 142 
227 177 111 213 146 78 182 138 96 51 29 18 0 0 0 0 0 0 0 0 0 0 0 0 
0 0 0 0 0 0 0 0 0 0 0 0 0 0 0 0 0 0 0 0 0 0 0 0 
0 0 0 0 0 0 0 0 0 0 0 0 0 0 0 0 0 0 0 0 0 0 0 0 
0 0 0 0 0 0 0 0 0 0 0 0 0 0 0 
0 0 0 0 0 0 0 0 0 0 0 0 0 0 0 0 0 0 0 0 0 0 0 0 
0 0 0 0 0 0 0 0 0 0 0 0 0 0 0 0 0 0 0 0 0 0 0 0 
0 0 0 0 0 0 0 0 0 0 0 0 0 0 0 0 0 0 0 0 0 0 0 0 
0 0 0 55 53 51 215 166 116 215 152 100 217 141 78 212 126 52 211 131 59 228 162 90 
225 172 107 215 166 116 225 186 132 225 186 132 225 181 124 226 169 111 230 173 107 223 160 87 
222 153 84 214 147 72 213 146 68 223 153 76 220 149 73 220 149 73 223 153 76 223 160 87 
224 164 90 220 160 88 225 172 107 225 172 107 233 180 114 227 181 116 238 178 111 227 180 112 
236 185 115 230 170 95 231 185 116 238 189 126 233 182 111 225 169 100 225 172 107 228 153 76 
228 162 90 226 174 103 232 167 93 211 133 62 227 154 85 219 138 59 224 164 90 227 177 111 
244 194 126 233 176 102 231 177 107 233 180 114 236 185 115 233 182 111 238 186 115 228 155 79 
225 170 96 227 178 107 220 160 88 215 160 87 228 166 90 234 175 107 231 185 116 225 170 96 
227 153 72 224 160 78 228 166 90 231 175 99 231 162 84 235 170 94 236 174 95 227 153 72 
223 153 71 231 162 84 222 153 84 216 167 99 214 159 92 213 146 78 204 143 74 224 164 97 
238 192 132 233 180 114 225 159 90 219 146 68 228 153 76 212 126 56 224 164 90 228 162 90 
218 138 64 217 145 68 225 153 79 225 159 90 225 167 94 235 170 94 228 155 79 228 165 93 
231 175 99 233 182 111 225 172 107 233 180 114 233 169 102 228 153 76 228 153 76 223 153 71 
225 153 79 230 170 95 228 155 79 231 166 86 238 176 102 232 187 121 244 201 142 248 217 169 
248 225 188 248 225 188 248 225 188 248 217 169 241 214 169 232 201 151 236 204 151 247 212 160 
233 196 142 242 202 151 239 194 135 231 185 116 241 189 121 243 194 131 232 187 121 227 177 111 
203 131 74 108 79 55 14 12 9 0 0 0 0 0 0 0 0 0 0 0 0 0 0 0 
0 0 0 0 0 0 0 0 0 0 0 0 0 0 0 0 0 0 0 0 0 0 0 0 
0 0 0 0 0 0 0 0 0 0 0 0 0 0 0 0 0 0 0 0 0 0 0 0 
0 0 0 0 0 0 0 0 0 0 0 0 0 0 0 
0 0 0 0 0 0 0 0 0 0 0 0 0 0 0 0 0 0 0 0 0 0 0 0 
0 0 0 0 0 0 0 0 0 0 0 0 0 0 0 0 0 0 0 0 0 0 0 0 
0 0 0 0 0 0 0 0 0 0 0 0 0 0 0 0 0 0 0 0 0 0 0 0 
0 0 0 108 79 55 226 169 111 215 152 100 203 124 65 195 105 31 211 133 62 225 159 90 
216 171 108 215 166 116 218 182 128 218 182 128 227 181 116 216 167 99 225 159 90 220 155 77 
213 146 78 204 143 74 218 146 78 213 138 64 214 147 72 223 155 79 217 145 68 227 154 85 
214 149 73 214 147 72 224 169 105 243 194 131 225 172 107 227 177 111 231 177 107 234 180 107 
233 180 114 238 183 111 234 180 107 231 175 99 231 177 107 225 169 100 227 178 107 226 161 86 
226 161 86 223 160 87 220 160 88 223 160 87 233 169 102 228 166 90 233 180 114 241 188 126 
238 186 115 224 160 78 220 155 77 215 156 78 223 155 79 233 182 111 227 181 116 234 188 126 
233 180 114 230 170 95 225 170 96 226 174 103 231 177 107 238 192 132 241 188 126 236 185 115 
231 162 84 224 161 84 231 175 99 238 176 102 231 162 84 224 160 78 224 161 84 231 161 79 
228 155 79 220 149 73 226 174 103 214 159 92 213 154 88 215 152 87 214 149 73 224 169 105 
243 201 146 235 193 134 232 187 121 232 160 86 220 149 73 215 133 56 218 138 64 222 153 84 
219 147 72 220 149 73 213 138 62 217 140 68 224 145 73 223 153 76 225 147 66 231 162 84 
228 165 93 228 162 90 225 153 79 223 155 79 228 162 90 226 161 86 232 160 86 228 155 79 
227 153 72 228 162 90 232 167 93 236 175 100 234 180 107 232 187 121 239 194 135 240 211 161 
248 225 188 248 225 188 241 214 169 241 214 169 241 214 169 242 202 151 242 202 151 240 211 161 
241 207 150 236 198 150 239 194 135 239 195 141 247 209 150 239 194 135 226 169 111 181 117 87 
51 29 18 0 0 0 0 0 0 0 0 0 0 0 0 0 0 0 0 0 0 0 0 0 
0 0 0 0 0 0 0 0 0 0 0 0 0 0 0 0 0 0 0 0 0 0 0 0 
0 0 0 0 0 0 0 0 0 0 0 0 0 0 0 0 0 0 0 0 0 0 0 0 
0 0 0 0 0 0 0 0 0 0 0 0 0 0 0 
0 0 0 0 0 0 0 0 0 0 0 0 0 0 0 0 0 0 0 0 0 0 0 0 
0 0 0 0 0 0 0 0 0 0 0 0 0 0 0 0 0 0 0 0 0 0 0 0 
0 0 0 0 0 0 0 0 0 0 0 0 0 0 0 0 0 0 0 0 0 0 0 0 
0 0 0 140 88 64 215 152 100 215 152 100 203 124 65 199 107 32 217 140 68 214 159 92 
226 171 121 218 182 128 218 182 128 225 181 124 216 171 108 213 146 78 220 155 77 214 147 72 
214 147 72 214 147 72 218 142 72 220 149 73 203 138 65 228 162 90 223 153 76 223 153 76 
213 146 68 214 149 73 224 169 105 237 181 114 232 187 121 232 187 121 230 173 107 236 185 115 
238 192 132 236 185 115 233 182 111 224 161 84 231 175 99 231 177 107 225 169 100 215 160 87 
230 173 107 211 133 62 214 147 72 225 172 107 216 171 108 234 188 126 232 187 121 241 189 121 
235 170 94 223 155 79 215 156 78 224 164 90 230 170 95 234 188 126 232 187 121 227 177 111 
233 180 114 207 130 56 231 175 99 232 187 121 238 189 126 232 187 121 224 145 73 225 153 79 
223 153 71 228 153 76 224 164 90 228 155 79 227 153 72 219 146 68 228 166 90 228 162 90 
223 153 76 228 162 90 225 169 100 213 154 88 214 159 92 227 181 116 225 181 124 242 202 151 
244 201 142 239 194 135 238 189 126 233 177 111 226 161 86 224 161 84 215 133 56 217 140 68 
224 161 84 228 162 90 224 164 90 232 160 86 224 145 73 228 155 79 223 153 71 225 147 66 
228 155 79 223 155 79 223 155 79 223 155 79 234 175 107 238 183 111 231 162 84 228 155 79 
228 155 79 223 155 79 224 160 78 233 176 102 234 180 107 239 194 126 241 207 150 248 217 169 
248 225 188 248 225 188 248 225 188 241 214 169 241 214 169 233 196 142 225 186 132 239 195 141 
243 201 146 235 193 134 234 188 126 238 192 132 225 181 124 182 138 96 140 88 64 14 12 9 
0 0 0 0 0 0 0 0 0 0 0 0 0 0 0 0 0 0 0 0 0 0 0 0 
0 0 0 0 0 0 0 0 0 0 0 0 0 0 0 0 0 0 0 0 0 0 0 0 
0 0 0 0 0 0 0 0 0 0 0 0 0 0 0 0 0 0 0 0 0 0 0 0 
0 0 0 0 0 0 0 0 0 0 0 0 0 0 0 
0 0 0 0 0 0 0 0 0 0 0 0 0 0 0 0 0 0 0 0 0 0 0 0 
0 0 0 0 0 0 0 0 0 0 0 0 0 0 0 0 0 0 0 0 0 0 0 0 
0 0 0 0 0 0 0 0 0 0 0 0 0 0 0 0 0 0 0 0 0 0 0 0 
14 12 9 182 138 96 215 152 100 215 145 88 194 110 39 202 111 39 213 138 64 214 159 92 
215 163 108 225 181 124 226 171 121 216 171 108 224 169 105 219 154 88 214 147 72 214 147 72 
220 155 77 208 132 56 218 138 64 213 138 64 214 149 73 228 162 90 228 153 76 218 138 64 
213 138 62 215 156 78 236 179 121 219 146 68 224 164 97 231 185 116 232 187 121 232 187 121 
232 187 121 226 174 103 233 180 114 231 175 99 233 180 114 233 180 114 220 160 88 233 182 111 
226 174 103 223 159 90 215 162 99 232 187 121 225 181 124 244 201 142 232 187 121 238 178 111 
227 153 72 218 144 61 219 147 72 225 148 73 224 164 90 231 187 126 232 187 121 227 181 116 
231 177 107 226 161 86 230 170 95 236 185 115 236 185 115 236 175 100 223 153 76 233 180 114 
233 180 114 228 166 90 238 176 102 232 167 93 231 162 84 232 167 93 237 181 114 241 189 121 
230 170 95 226 174 103 225 169 100 225 169 100 230 173 107 232 187 121 238 183 111 238 186 115 
224 161 84 237 181 114 232 187 121 237 181 114 236 175 100 222 153 84 213 139 58 226 161 86 
225 153 79 217 145 68 227 154 85 226 161 86 228 162 90 223 155 79 213 139 58 228 153 76 
227 153 72 225 153 79 223 160 87 220 160 88 236 179 121 233 177 111 223 153 76 235 170 94 
228 165 93 232 167 93 228 166 90 226 161 86 234 180 107 232 187 121 241 207 150 247 212 160 
248 217 169 248 225 188 248 225 188 248 225 188 248 225 188 241 214 169 229 195 150 215 163 108 
225 186 132 215 166 116 203 136 90 150 118 91 51 29 18 2 1 1 0 0 0 0 0 0 
0 0 0 0 0 0 0 0 0 0 0 0 0 0 0 0 0 0 0 0 0 0 0 0 
0 0 0 0 0 0 0 0 0 0 0 0 0 0 0 0 0 0 0 0 0 0 0 0 
0 0 0 0 0 0 0 0 0 0 0 0 0 0 0 0 0 0 0 0 0 0 0 0 
0 0 0 0 0 0 0 0 0 0 0 0 0 0 0 
0 0 0 0 0 0 0 0 0 0 0 0 0 0 0 0 0 0 0 0 0 0 0 0 
0 0 0 0 0 0 0 0 0 0 0 0 0 0 0 0 0 0 0 0 0 0 0 0 
0 0 0 0 0 0 0 0 0 0 0 0 0 0 0 0 0 0 0 0 0 0 0 0 
140 88 64 215 152 100 219 154 88 213 140 72 202 111 39 212 122 46 211 139 69 216 167 99 
215 163 108 225 181 124 225 181 124 216 171 108 225 169 100 215 152 87 214 147 72 213 140 72 
214 147 72 212 142 64 222 153 84 217 145 68 220 149 73 223 153 76 231 162 84 220 149 73 
218 146 78 224 169 105 238 189 126 238 178 111 230 170 95 216 167 99 234 188 126 238 192 132 
227 180 112 227 177 111 235 193 134 227 178 107 227 177 111 227 181 116 214 159 92 231 185 116 
225 172 107 216 167 99 216 171 108 232 187 136 235 193 134 243 194 131 241 188 126 232 160 86 
225 148 73 220 149 73 213 146 68 217 145 68 224 161 84 230 173 107 238 192 132 234 188 126 
236 185 115 235 193 134 234 188 126 227 177 111 230 173 107 225 169 100 237 181 114 227 181 116 
232 187 121 233 177 111 236 175 100 231 166 86 236 175 100 238 183 111 241 189 121 238 183 111 
233 176 102 233 177 111 226 174 103 225 169 100 232 167 93 224 161 84 231 175 99 233 176 102 
235 170 94 235 165 90 236 175 100 226 161 86 225 169 100 225 167 94 220 149 73 235 165 90 
225 148 73 225 147 66 228 155 79 226 161 86 226 161 86 223 155 79 228 153 76 223 153 71 
228 155 79 231 162 84 228 155 79 235 170 94 227 154 85 228 155 79 228 155 79 232 167 93 
232 167 93 238 176 102 228 166 90 231 161 79 231 175 99 231 187 126 235 193 134 247 209 150 
241 214 169 248 225 188 241 214 169 248 225 188 241 214 169 241 214 169 248 217 169 235 193 134 
215 166 116 225 181 124 179 108 68 150 107 67 51 29 18 0 0 0 0 0 0 0 0 0 
0 0 0 0 0 0 0 0 0 0 0 0 0 0 0 0 0 0 0 0 0 0 0 0 
0 0 0 0 0 0 0 0 0 0 0 0 0 0 0 0 0 0 0 0 0 0 0 0 
0 0 0 0 0 0 0 0 0 0 0 0 0 0 0 0 0 0 0 0 0 0 0 0 
0 0 0 0 0 0 0 0 0 0 0 0 0 0 0 
0 0 0 0 0 0 0 0 0 0 0 0 0 0 0 0 0 0 0 0 0 0 0 0 
0 0 0 0 0 0 0 0 0 0 0 0 0 0 0 0 0 0 0 0 0 0 0 0 
0 0 0 0 0 0 0 0 0 0 0 0 0 0 0 0 0 0 0 0 0 14 12 9 
182 138 96 215 145 88 212 140 78 212 126 56 212 126 56 216 132 59 215 152 87 216 167 99 
216 171 108 215 166 116 216 171 108 215 162 99 224 164 97 204 143 74 213 146 78 223 159 90 
214 151 79 217 145 68 214 149 73 220 149 73 222 153 84 226 161 86 223 160 87 224 164 97 
226 174 103 225 172 107 236 185 115 230 170 95 226 174 103 214 151 79 230 173 107 232 187 121 
226 174 103 216 171 108 233 196 142 230 193 135 225 186 132 243 201 146 238 199 142 239 195 141 
227 181 116 216 171 108 231 187 126 239 195 141 239 194 135 238 183 111 230 170 95 225 169 100 
224 164 90 224 161 84 220 155 77 220 149 73 220 149 73 220 155 77 233 180 114 225 172 107 
227 180 112 230 193 135 241 207 150 226 174 99 225 169 100 238 178 111 226 174 103 220 160 88 
225 172 107 234 175 107 236 175 100 224 161 84 231 177 107 244 194 126 233 182 111 236 175 100 
228 166 90 228 166 90 231 175 99 233 169 102 228 155 79 228 162 90 225 170 96 224 164 90 
234 180 107 235 170 94 224 161 84 232 167 93 230 170 95 228 162 90 208 128 56 216 132 52 
219 138 59 218 138 64 218 138 64 225 153 79 220 149 73 228 162 90 223 160 87 231 162 84 
231 161 79 228 153 76 211 132 50 225 147 66 228 155 79 225 148 73 223 140 64 218 144 61 
219 146 68 228 165 93 226 161 86 232 167 93 230 170 95 233 177 111 227 177 111 238 199 142 
238 199 142 248 217 169 248 217 169 248 225 188 241 214 169 237 204 161 240 211 161 240 211 161 
216 171 108 226 171 121 183 124 67 179 108 68 140 88 64 0 0 0 0 0 0 0 0 0 
0 0 0 0 0 0 0 0 0 0 0 0 0 0 0 0 0 0 0 0 0 0 0 0 
0 0 0 0 0 0 0 0 0 0 0 0 0 0 0 0 0 0 0 0 0 0 0 0 
0 0 0 0 0 0 0 0 0 0 0 0 0 0 0 0 0 0 0 0 0 0 0 0 
0 0 0 0 0 0 0 0 0 0 0 0 0 0 0 
0 0 0 0 0 0 0 0 0 0 0 0 0 0 0 0 0 0 0 0 0 0 0 0 
0 0 0 0 0 0 0 0 0 0 0 0 0 0 0 0 0 0 0 0 0 0 0 0 
0 0 0 0 0 0 0 0 0 0 0 0 0 0 0 0 0 0 0 0 0 55 53 51 
215 163 108 215 145 88 218 146 78 207 123 49 212 126 52 211 133 62 215 162 99 216 167 99 
215 163 108 226 171 121 216 171 108 215 162 99 224 164 97 213 146 78 214 147 72 219 147 72 
214 140 68 213 139 58 214 147 72 214 149 73 219 147 72 219 146 68 220 149 73 224 164 97 
233 169 102 225 169 100 233 176 102 228 166 90 226 174 103 230 173 107 233 177 111 231 175 99 
233 180 114 238 192 132 233 196 142 247 212 160 247 212 160 247 209 150 241 207 150 243 201 146 
239 195 141 233 196 142 236 204 151 238 199 142 238 186 115 230 170 95 224 164 90 224 169 105 
227 177 111 225 159 90 223 140 64 219 147 72 224 161 84 236 174 95 225 169 100 214 159 92 
225 181 124 247 212 160 243 201 146 223 160 87 220 149 73 225 153 79 218 144 61 224 161 84 
231 166 86 238 186 115 225 167 94 230 173 107 241 189 121 241 189 121 233 182 111 224 164 90 
232 167 93 226 161 86 218 144 61 225 153 79 220 149 73 218 138 64 219 147 72 227 154 85 
225 159 90 228 162 90 220 155 77 223 155 79 231 162 84 223 140 64 213 139 58 224 145 73 
217 140 68 202 111 39 199 113 42 211 132 57 223 153 76 228 166 90 228 162 90 223 153 76 
213 139 58 225 147 66 227 153 72 225 147 66 219 146 68 231 161 79 223 153 76 225 147 66 
216 132 52 227 153 72 223 155 79 237 181 114 233 177 111 230 170 95 230 170 95 238 186 115 
235 193 134 239 195 141 240 211 161 248 217 169 241 214 169 227 195 142 236 204 151 248 217 169 
238 199 142 227 177 111 215 152 100 171 102 53 179 108 68 51 29 18 0 0 0 0 0 0 
0 0 0 0 0 0 0 0 0 0 0 0 0 0 0 0 0 0 0 0 0 0 0 0 
0 0 0 0 0 0 0 0 0 0 0 0 0 0 0 0 0 0 0 0 0 0 0 0 
0 0 0 0 0 0 0 0 0 0 0 0 0 0 0 0 0 0 0 0 0 0 0 0 
0 0 0 0 0 0 0 0 0 0 0 0 0 0 0 
0 0 0 0 0 0 0 0 0 0 0 0 0 0 0 0 0 0 0 0 0 0 0 0 
0 0 0 0 0 0 0 0 0 0 0 0 0 0 0 0 0 0 0 0 0 0 0 0 
0 0 0 0 0 0 0 0 0 0 0 0 0 0 0 0 0 0 0 0 0 108 79 55 
215 152 100 215 145 88 211 133 62 215 133 56 215 133 56 213 140 72 226 169 111 216 171 108 
215 163 108 216 171 108 227 181 116 227 181 116 226 174 103 219 154 88 220 149 73 213 139 58 
216 132 52 208 128 56 203 138 65 222 153 84 220 149 73 220 149 73 223 155 79 223 153 76 
226 161 86 212 142 64 220 160 88 214 151 79 225 169 100 228 166 90 233 177 111 227 178 107 
232 187 121 239 194 126 227 178 107 231 187 126 241 207 150 239 199 135 239 199 135 227 186 126 
227 186 126 231 187 126 241 207 150 243 201 146 238 192 132 224 169 105 216 167 99 230 173 107 
228 162 90 211 139 69 220 149 73 225 169 100 226 174 103 233 182 111 227 177 111 227 181 116 
239 195 141 239 195 141 235 193 134 238 192 132 224 164 97 233 169 102 217 140 68 218 144 61 
231 162 84 223 155 79 231 162 84 232 160 86 215 160 87 233 176 102 233 182 111 231 177 107 
228 162 90 228 162 90 220 149 73 218 138 64 217 145 68 223 160 87 224 164 97 224 164 97 
211 131 59 218 138 64 217 145 68 213 139 58 219 138 59 223 140 64 220 149 73 220 149 73 
225 153 79 212 126 52 223 140 64 219 146 68 217 145 68 228 166 90 232 167 93 224 161 84 
223 153 76 228 155 79 231 161 79 228 162 90 228 162 90 236 175 100 232 167 93 228 153 76 
227 153 72 218 138 64 219 147 72 230 173 107 225 172 107 236 179 121 233 176 102 236 175 100 
238 189 126 235 193 134 235 193 134 248 217 169 248 217 169 241 207 150 237 204 161 248 217 169 
241 207 150 227 181 116 213 154 88 183 124 67 179 108 68 108 79 55 0 0 0 0 0 0 
0 0 0 0 0 0 0 0 0 0 0 0 0 0 0 0 0 0 0 0 0 0 0 0 
0 0 0 0 0 0 0 0 0 0 0 0 0 0 0 0 0 0 0 0 0 0 0 0 
0 0 0 0 0 0 0 0 0 0 0 0 0 0 0 0 0 0 0 0 0 0 0 0 
0 0 0 0 0 0 0 0 0 0 0 0 0 0 0 
0 0 0 0 0 0 0 0 0 0 0 0 0 0 0 0 0 0 0 0 0 0 0 0 
0 0 0 0 0 0 0 0 0 0 0 0 0 0 0 0 0 0 0 0 0 0 0 0 
0 0 0 0 0 0 0 0 0 0 0 0 0 0 0 0 0 0 0 0 0 150 118 91 
215 152 100 212 140 78 201 121 47 215 133 56 218 138 64 223 159 90 215 163 108 227 181 116 
216 171 108 227 177 111 227 177 111 227 177 111 224 164 97 215 152 87 220 149 73 212 142 64 
219 147 72 207 123 49 211 139 69 219 154 88 228 162 90 227 154 85 232 167 93 222 153 84 
223 153 76 216 132 52 219 154 88 214 159 92 224 169 105 228 165 93 223 160 87 230 173 107 
224 169 105 238 192 132 238 186 115 231 187 126 232 187 121 231 187 126 243 201 146 230 193 135 
239 194 135 232 187 121 231 187 126 238 189 126 225 172 107 233 180 114 227 177 111 233 169 102 
220 149 73 214 149 73 214 151 79 224 169 105 231 185 116 226 174 103 232 187 121 243 194 131 
227 180 112 232 187 121 232 187 121 233 177 111 237 181 114 233 177 111 233 169 102 231 162 84 
224 161 84 225 169 100 232 160 86 219 138 59 220 155 77 233 176 102 232 167 93 224 161 84 
228 155 79 225 148 73 224 145 73 213 138 62 203 138 65 202 131 56 225 169 100 234 175 107 
225 149 79 217 145 68 220 155 77 218 138 64 201 121 42 207 122 42 213 138 62 217 140 68 
212 127 48 202 113 34 219 138 59 228 155 79 223 153 76 225 159 90 223 153 71 220 149 73 
225 169 100 230 170 95 225 153 79 220 160 88 230 170 95 228 162 90 235 165 90 224 160 78 
227 153 72 207 123 49 202 111 39 213 138 62 232 167 93 237 181 114 231 177 107 231 161 79 
227 153 72 230 170 95 231 185 116 239 195 141 242 202 151 247 212 160 248 217 169 236 198 150 
247 212 160 239 195 141 214 151 79 183 124 67 179 108 68 140 88 64 0 0 0 0 0 0 
0 0 0 0 0 0 0 0 0 0 0 0 0 0 0 0 0 0 0 0 0 0 0 0 
0 0 0 0 0 0 0 0 0 0 0 0 0 0 0 0 0 0 0 0 0 0 0 0 
0 0 0 0 0 0 0 0 0 0 0 0 0 0 0 0 0 0 0 0 0 0 0 0 
0 0 0 0 0 0 0 0 0 0 0 0 0 0 0 
0 0 0 0 0 0 0 0 0 0 0 0 0 0 0 0 0 0 0 0 0 0 0 0 
0 0 0 0 0 0 0 0 0 0 0 0 0 0 0 0 0 0 0 0 0 0 0 0 
0 0 0 0 0 0 0 0 0 0 0 0 0 0 0 0 0 0 0 0 0 182 138 96 
215 152 100 203 124 65 199 107 32 223 140 64 223 153 76 225 169 100 216 171 108 215 163 108 
215 163 108 225 172 107 224 169 105 216 167 99 219 154 88 220 160 88 223 160 87 213 140 72 
219 147 72 214 140 68 214 151 79 219 154 88 223 159 90 228 165 93 224 164 90 228 165 93 
223 153 76 219 147 72 220 160 88 225 159 90 225 172 107 233 169 102 220 149 73 228 166 90 
222 153 84 232 167 93 224 164 90 227 177 111 233 180 114 215 162 99 227 186 126 235 193 134 
234 188 126 215 162 99 227 177 111 225 169 100 223 160 87 233 169 102 233 169 102 233 169 102 
233 176 102 224 164 97 230 173 107 227 178 107 227 181 116 239 194 135 235 193 134 235 193 134 
237 181 114 227 181 116 227 177 111 223 160 87 228 162 90 230 173 107 222 153 84 213 146 68 
228 162 90 234 175 107 217 140 68 219 146 68 220 155 77 228 165 93 232 167 93 228 166 90 
226 161 86 220 155 77 204 121 49 213 138 64 203 138 65 214 149 73 225 169 100 228 165 93 
216 133 65 208 132 56 217 145 68 226 161 86 219 147 72 218 138 64 219 147 72 228 153 76 
215 133 56 212 127 48 212 127 48 228 162 90 228 165 93 223 160 87 227 153 72 228 155 79 
234 175 107 232 167 93 219 146 68 214 151 79 225 169 100 220 160 88 215 149 79 228 162 90 
224 161 84 217 140 68 207 122 42 225 147 66 228 155 79 223 153 76 228 165 93 220 149 73 
225 147 66 223 155 79 226 161 86 224 164 97 239 199 135 236 204 151 240 211 161 233 196 142 
247 212 160 241 207 150 227 181 116 203 131 74 179 108 68 150 118 91 2 1 1 0 0 0 
0 0 0 0 0 0 0 0 0 0 0 0 0 0 0 0 0 0 0 0 0 0 0 0 
0 0 0 0 0 0 0 0 0 0 0 0 0 0 0 0 0 0 0 0 0 0 0 0 
0 0 0 0 0 0 0 0 0 0 0 0 0 0 0 0 0 0 0 0 0 0 0 0 
0 0 0 0 0 0 0 0 0 0 0 0 0 0 0 
0 0 0 0 0 0 0 0 0 0 0 0 0 0 0 0 0 0 0 0 0 0 0 0 
0 0 0 0 0 0 0 0 0 0 0 0 0 0 0 0 0 0 0 0 0 0 0 0 
0 0 0 0 0 0 0 0 0 0 0 0 0 0 0 0 0 0 2 1 1 203 155 97 
215 145 88 201 119 56 204 113 45 211 132 57 223 160 87 224 164 97 215 162 99 215 163 108 
216 171 108 215 162 99 225 170 96 222 153 84 207 130 56 211 132 57 212 126 52 213 138 62 
217 140 68 220 155 77 214 140 68 213 140 72 219 154 88 224 164 97 224 164 97 228 162 90 
225 153 79 219 146 68 222 153 84 218 142 72 223 153 76 225 153 79 220 149 73 223 160 87 
226 161 86 223 140 64 226 161 86 228 162 90 225 169 100 225 172 107 235 193 134 236 185 115 
236 185 115 230 170 95 225 169 100 225 167 94 223 160 87 211 132 50 212 126 52 219 147 72 
223 160 87 225 167 94 224 164 97 214 151 79 213 154 88 231 185 116 233 182 111 236 185 115 
230 170 95 231 177 107 234 175 107 228 165 93 228 166 90 220 149 73 219 147 72 225 148 73 
225 148 73 225 153 79 219 146 68 223 153 76 214 147 72 230 170 95 228 165 93 225 149 79 
224 161 84 219 154 88 218 142 72 222 153 84 215 149 79 212 142 64 227 154 85 207 130 56 
212 122 46 212 127 48 217 145 68 226 161 86 223 153 76 219 147 72 232 160 86 223 140 64 
219 138 59 219 138 59 212 127 48 225 148 73 223 153 76 228 155 79 227 153 72 223 153 71 
231 162 84 232 167 93 225 153 79 223 155 79 220 160 88 202 131 56 223 159 90 228 162 90 
220 149 73 218 138 64 216 132 52 218 144 61 213 138 62 216 132 59 215 133 56 219 138 59 
219 138 59 225 147 66 216 132 52 219 146 68 231 175 99 231 187 126 236 204 151 248 217 169 
241 214 169 236 204 151 231 187 126 203 132 65 183 124 67 181 117 87 51 29 18 0 0 0 
0 0 0 0 0 0 0 0 0 0 0 0 0 0 0 0 0 0 0 0 0 0 0 0 
0 0 0 0 0 0 0 0 0 0 0 0 0 0 0 0 0 0 0 0 0 0 0 0 
0 0 0 0 0 0 0 0 0 0 0 0 0 0 0 0 0 0 0 0 0 0 0 0 
0 0 0 0 0 0 0 0 0 0 0 0 0 0 0 
0 0 0 0 0 0 0 0 0 0 0 0 0 0 0 0 0 0 0 0 0 0 0 0 
0 0 0 0 0 0 0 0 0 0 0 0 0 0 0 0 0 0 0 0 0 0 0 0 
0 0 0 0 0 0 0 0 0 0 0 0 0 0 0 0 0 0 51 29 18 203 155 97 
213 140 72 199 114 47 199 107 32 212 126 52 222 153 84 216 167 99 215 162 99 214 159 92 
215 162 99 215 162 99 226 161 86 213 138 62 207 130 56 213 138 62 211 132 57 207 130 56 
211 132 57 213 138 62 222 153 84 222 153 84 223 160 87 222 153 84 219 147 72 217 145 68 
218 138 64 219 138 59 211 132 57 219 146 68 219 146 68 223 140 64 217 140 68 228 162 90 
224 164 90 218 146 78 214 151 79 223 155 79 224 161 84 222 153 84 230 173 107 231 177 107 
225 172 107 233 180 114 225 169 100 225 167 94 233 177 111 223 159 90 219 147 72 215 133 56 
225 148 73 217 145 68 224 164 90 214 151 79 225 172 107 233 169 102 228 162 90 225 169 100 
231 175 99 231 175 99 228 162 90 220 155 77 220 149 73 219 138 59 213 138 62 213 139 58 
219 146 68 220 149 73 220 155 77 219 147 72 223 160 87 222 153 84 224 164 97 214 147 72 
204 121 49 189 96 24 208 128 56 211 139 69 214 140 68 211 131 59 216 133 65 207 123 49 
213 138 62 213 138 62 211 132 57 211 132 57 220 149 73 217 145 68 217 140 68 215 133 56 
212 127 48 216 132 52 219 138 59 218 144 61 217 145 68 226 161 86 232 167 93 228 155 79 
223 153 71 219 138 59 223 153 76 223 140 64 216 132 59 202 131 56 223 159 90 224 164 97 
219 146 68 212 126 52 218 138 64 215 133 56 224 145 73 216 132 59 216 132 59 219 147 72 
215 133 56 215 133 56 219 146 68 223 155 79 230 173 107 238 192 132 241 207 150 248 217 169 
248 217 169 248 217 169 233 196 142 215 152 100 182 118 54 181 117 87 55 53 51 0 0 0 
0 0 0 0 0 0 0 0 0 0 0 0 0 0 0 0 0 0 0 0 0 0 0 0 
0 0 0 0 0 0 0 0 0 0 0 0 0 0 0 0 0 0 0 0 0 0 0 0 
0 0 0 0 0 0 0 0 0 0 0 0 0 0 0 0 0 0 0 0 0 0 0 0 
0 0 0 0 0 0 0 0 0 0 0 0 0 0 0 
0 0 0 0 0 0 0 0 0 0 0 0 0 0 0 0 0 0 0 0 0 0 0 0 
0 0 0 0 0 0 0 0 0 0 0 0 0 0 0 0 0 0 0 0 0 0 0 0 
0 0 0 0 0 0 0 0 0 0 0 0 0 0 0 0 0 0 110 92 87 212 140 78 
213 140 72 201 121 47 202 111 39 207 123 49 215 152 87 226 171 121 216 167 99 215 162 99 
223 162 104 214 159 92 224 164 97 211 139 69 208 128 56 213 138 62 215 133 56 217 145 68 
215 133 56 213 138 62 215 149 79 213 154 88 223 159 90 214 151 79 226 161 86 217 145 68 
223 140 64 215 133 56 216 132 52 217 140 68 219 147 72 219 147 72 211 132 57 220 149 73 
223 153 76 228 162 90 225 159 90 226 161 86 223 160 87 223 155 79 217 145 68 225 147 66 
225 169 100 233 180 114 223 159 90 223 155 79 220 160 88 223 159 90 223 160 87 220 149 73 
219 147 72 212 127 48 217 145 68 224 169 105 227 177 111 238 175 106 233 169 102 227 177 111 
225 159 90 222 153 84 216 167 99 223 159 90 223 153 76 232 167 93 225 148 73 218 138 64 
222 153 84 223 160 87 224 161 84 213 138 62 223 155 79 214 149 73 213 146 68 203 132 65 
199 114 47 192 106 35 222 153 84 213 146 78 222 153 84 199 113 42 207 130 56 204 113 45 
213 140 72 215 149 79 225 159 90 223 140 64 219 146 68 219 147 72 219 147 72 219 146 68 
225 148 73 219 138 59 217 140 68 225 149 79 225 147 66 224 161 84 228 165 93 223 160 87 
223 155 79 223 140 64 213 138 62 211 133 62 218 138 64 214 147 72 225 172 107 226 169 111 
215 156 78 226 161 86 220 149 73 227 154 85 207 130 56 217 140 68 219 146 68 225 153 79 
215 133 56 216 132 52 227 154 85 224 164 90 233 169 102 238 189 126 241 207 150 240 211 161 
248 217 169 248 217 169 236 204 151 226 169 111 171 102 53 183 124 67 108 79 55 0 0 0 
0 0 0 0 0 0 0 0 0 0 0 0 0 0 0 0 0 0 0 0 0 0 0 0 
0 0 0 0 0 0 0 0 0 0 0 0 0 0 0 0 0 0 0 0 0 0 0 0 
0 0 0 0 0 0 0 0 0 0 0 0 0 0 0 0 0 0 0 0 0 0 0 0 
0 0 0 0 0 0 0 0 0 0 0 0 0 0 0 
0 0 0 0 0 0 0 0 0 0 0 0 0 0 0 0 0 0 0 0 0 0 0 0 
0 0 0 0 0 0 0 0 0 0 0 0 0 0 0 0 0 0 0 0 0 0 0 0 
0 0 0 0 0 0 0 0 0 0 0 0 0 0 0 2 1 1 182 138 96 212 140 78 
213 140 72 204 113 45 212 126 52 211 133 62 214 159 92 225 181 124 215 166 116 214 159 92 
214 159 92 223 159 90 215 152 87 214 147 72 213 138 64 213 138 62 207 123 49 214 147 72 
211 139 69 222 153 84 222 153 84 219 147 72 211 133 62 214 140 68 217 145 68 215 133 56 
207 122 42 207 123 49 217 145 68 215 133 56 208 128 56 211 132 57 219 138 59 207 122 42 
207 123 49 215 149 79 223 155 79 220 149 73 218 146 78 219 147 72 227 154 85 219 147 72 
213 139 58 220 149 73 216 132 52 208 128 56 227 154 85 224 164 97 224 164 90 223 160 87 
224 164 97 217 140 68 217 145 68 222 153 84 215 152 87 213 138 62 217 140 68 223 160 87 
224 161 84 224 164 97 224 169 105 227 177 111 225 167 94 226 161 86 223 153 76 219 146 68 
219 154 88 224 164 97 219 147 72 217 140 68 220 155 77 227 154 85 211 131 59 202 131 56 
199 113 42 199 114 47 214 147 72 219 154 88 219 147 72 204 121 49 217 140 68 224 145 73 
220 155 77 222 153 84 219 147 72 215 133 56 219 138 59 223 140 64 216 132 52 219 138 59 
217 140 68 224 145 73 219 138 59 218 138 64 219 138 59 228 153 76 228 162 90 219 146 68 
225 153 79 219 146 68 223 140 64 222 153 84 219 147 72 220 155 77 227 177 111 225 169 100 
215 152 87 215 149 79 219 147 72 228 165 93 224 145 73 225 153 79 219 147 72 222 153 84 
228 162 90 227 154 85 228 162 90 228 165 93 228 165 93 233 182 111 244 201 142 247 212 160 
248 217 169 248 217 169 241 207 150 215 163 108 171 102 53 183 124 67 108 79 55 0 0 0 
0 0 0 0 0 0 0 0 0 0 0 0 0 0 0 0 0 0 0 0 0 0 0 0 
0 0 0 0 0 0 0 0 0 0 0 0 0 0 0 0 0 0 0 0 0 0 0 0 
0 0 0 0 0 0 0 0 0 0 0 0 0 0 0 0 0 0 0 0 0 0 0 0 
0 0 0 0 0 0 0 0 0 0 0 0 0 0 0 
0 0 0 0 0 0 0 0 0 0 0 0 0 0 0 0 0 0 0 0 0 0 0 0 
0 0 0 0 0 0 0 0 0 0 0 0 0 0 0 0 0 0 0 0 0 0 0 0 
0 0 0 0 0 0 0 0 0 0 0 0 0 0 0 55 53 51 215 152 100 215 145 88 
207 123 56 204 113 45 212 126 52 225 149 79 215 162 99 225 181 124 215 166 116 213 154 88 
220 160 88 223 159 90 214 151 79 215 149 79 219 147 72 220 149 73 214 140 68 213 146 78 
203 132 65 215 149 79 222 153 84 218 138 64 215 133 56 225 153 79 220 149 73 212 126 52 
207 122 42 204 121 49 213 138 62 213 139 58 224 145 73 217 145 68 222 153 84 213 138 64 
214 140 68 203 138 65 224 164 97 225 169 100 211 139 69 211 131 59 223 155 79 217 145 68 
219 146 68 215 133 56 202 113 34 207 122 42 213 138 62 222 153 84 214 147 72 218 146 78 
213 140 72 225 159 90 222 153 84 211 133 62 223 155 79 223 160 87 225 149 79 226 161 86 
225 167 94 214 159 92 224 164 97 237 181 114 226 161 86 227 154 85 219 147 72 219 147 72 
223 159 90 230 170 95 214 140 68 211 132 57 207 123 49 211 133 62 201 121 47 204 121 49 
213 138 62 211 133 62 212 142 64 215 149 79 222 153 84 214 147 72 220 149 73 212 127 48 
215 133 56 211 139 69 215 149 79 219 154 88 223 160 87 219 147 72 217 145 68 218 138 64 
218 138 64 215 133 56 227 153 72 225 148 73 219 146 68 223 153 76 228 162 90 228 162 90 
228 155 79 223 153 76 217 140 68 213 138 62 215 133 56 213 138 62 224 164 97 215 149 79 
219 154 88 215 149 79 211 139 69 217 145 68 212 127 48 215 133 56 218 138 64 217 140 68 
218 142 72 227 154 85 224 161 84 225 153 79 228 166 90 237 181 114 239 194 126 241 207 150 
240 211 161 237 204 161 242 202 151 227 177 111 183 124 67 183 124 67 108 79 55 0 0 0 
0 0 0 0 0 0 0 0 0 0 0 0 0 0 0 0 0 0 0 0 0 0 0 0 
0 0 0 0 0 0 0 0 0 0 0 0 0 0 0 0 0 0 0 0 0 0 0 0 
0 0 0 0 0 0 0 0 0 0 0 0 0 0 0 0 0 0 0 0 0 0 0 0 
0 0 0 0 0 0 0 0 0 0 0 0 0 0 0 
0 0 0 0 0 0 0 0 0 0 0 0 0 0 0 0 0 0 0 0 0 0 0 0 
0 0 0 0 0 0 0 0 0 0 0 0 0 0 0 0 0 0 0 0 0 0 0 0 
0 0 0 0 0 0 0 0 0 0 0 0 0 0 0 140 88 64 215 152 100 215 145 88 
201 121 47 202 111 39 212 126 52 214 151 79 213 154 88 225 181 124 213 154 88 204 143 74 
215 152 87 223 160 87 215 149 79 214 147 72 219 147 72 211 132 57 214 147 72 215 152 87 
204 143 74 211 133 62 216 132 52 212 127 48 207 123 49 215 149 79 214 147 72 219 147 72 
207 122 42 211 132 50 213 138 62 225 148 73 213 138 62 219 147 72 225 159 90 220 160 88 
223 160 87 202 131 56 213 154 88 224 164 97 222 153 84 224 164 90 223 155 79 211 132 57 
207 123 49 217 140 68 213 138 62 207 130 56 219 147 72 213 138 64 219 146 68 213 138 64 
217 140 68 223 159 90 214 159 92 224 164 97 220 160 88 224 164 90 223 160 87 218 138 64 
212 126 52 214 151 79 224 164 90 228 162 90 219 147 72 219 147 72 225 169 100 230 170 95 
230 170 95 223 155 79 212 142 64 213 138 62 199 107 32 219 138 59 207 123 49 211 133 62 
215 149 79 214 140 68 216 132 59 223 159 90 224 164 97 224 164 97 220 149 73 212 127 48 
220 149 73 228 165 93 224 164 97 230 173 107 225 169 100 214 151 79 219 154 88 226 174 103 
223 155 79 218 138 64 231 162 84 227 153 72 218 138 64 227 153 72 219 146 68 220 149 73 
225 148 73 223 140 64 223 140 64 219 138 59 215 133 56 212 126 52 215 133 56 217 140 68 
215 149 79 204 143 74 223 159 90 218 144 61 232 167 93 222 153 84 223 153 76 223 140 64 
207 123 49 215 133 56 219 146 68 218 138 64 224 160 78 233 176 102 232 187 121 242 202 151 
248 217 169 236 198 150 247 209 150 233 180 114 203 131 74 179 108 68 140 88 64 0 0 0 
0 0 0 0 0 0 0 0 0 0 0 0 0 0 0 0 0 0 0 0 0 0 0 0 
0 0 0 0 0 0 0 0 0 0 0 0 0 0 0 0 0 0 0 0 0 0 0 0 
0 0 0 0 0 0 0 0 0 0 0 0 0 0 0 0 0 0 0 0 0 0 0 0 
0 0 0 0 0 0 0 0 0 0 0 0 0 0 0 
0 0 0 0 0 0 0 0 0 0 0 0 0 0 0 0 0 0 0 0 0 0 0 0 
0 0 0 0 0 0 0 0 0 0 0 0 0 0 0 0 0 0 0 0 0 0 0 0 
0 0 0 0 0 0 0 0 0 0 0 0 0 0 0 150 118 91 215 152 100 212 140 78 
207 123 49 212 122 46 211 133 62 215 160 87 203 155 97 226 171 121 216 171 108 213 154 88 
219 154 88 222 153 84 215 149 79 214 147 72 213 146 68 208 132 56 213 138 62 219 147 72 
204 143 74 208 132 56 217 145 68 213 139 58 213 139 58 211 133 62 213 140 72 214 140 68 
213 138 62 214 147 72 219 147 72 223 153 76 219 147 72 223 155 79 220 149 73 211 132 57 
217 145 68 220 155 77 215 149 79 201 121 42 211 132 57 223 153 76 227 154 85 222 153 84 
222 153 84 218 138 64 212 126 52 201 121 47 225 148 73 211 132 57 219 146 68 220 149 73 
223 153 76 223 153 76 223 159 90 224 164 97 224 164 97 214 151 79 212 126 52 212 122 46 
202 111 39 218 142 72 226 161 86 223 153 76 232 160 86 211 132 57 232 160 86 225 149 79 
228 155 79 212 127 48 220 149 73 219 147 72 225 149 79 199 113 42 213 140 72 215 149 79 
214 159 92 215 152 87 192 106 35 218 142 72 211 131 59 213 146 68 223 160 87 225 148 73 
220 160 88 225 169 100 224 164 97 226 161 86 225 159 90 220 149 73 227 154 85 225 172 107 
225 172 107 232 160 86 227 153 72 225 147 66 225 147 66 215 133 56 219 138 59 211 132 57 
218 138 64 218 138 64 219 138 59 219 147 72 214 140 68 219 146 68 220 149 73 201 121 42 
207 123 49 213 146 78 219 154 88 207 130 56 225 149 79 224 164 90 213 140 72 204 113 45 
207 122 42 202 113 34 219 138 59 225 148 73 224 161 84 238 186 115 239 194 126 244 201 142 
248 217 169 247 212 160 247 212 160 227 177 111 203 131 74 171 102 53 108 79 55 0 0 0 
0 0 0 0 0 0 0 0 0 0 0 0 0 0 0 0 0 0 0 0 0 0 0 0 
0 0 0 0 0 0 0 0 0 0 0 0 0 0 0 0 0 0 0 0 0 0 0 0 
0 0 0 0 0 0 0 0 0 0 0 0 0 0 0 0 0 0 0 0 0 0 0 0 
0 0 0 0 0 0 0 0 0 0 0 0 0 0 0 
0 0 0 0 0 0 0 0 0 0 0 0 0 0 0 0 0 0 0 0 0 0 0 0 
0 0 0 0 0 0 0 0 0 0 0 0 0 0 0 0 0 0 0 0 0 0 0 0 
0 0 0 0 0 0 0 0 0 0 0 0 0 0 0 182 138 96 215 145 88 211 133 62 
218 146 78 218 144 61 222 153 84 225 172 107 215 163 108 227 181 116 215 163 108 215 162 99 
224 164 97 220 160 88 215 149 79 203 138 65 214 140 68 211 132 57 208 132 56 214 140 68 
212 140 78 219 154 88 222 153 84 224 161 84 212 142 64 214 147 72 214 151 79 219 154 88 
223 159 90 230 173 107 222 153 84 212 126 52 218 138 64 220 155 77 219 138 59 199 107 32 
201 121 47 214 147 72 215 149 79 212 126 52 219 146 68 211 132 50 219 138 59 220 149 73 
211 139 69 214 149 73 211 131 59 213 138 62 214 140 68 213 138 62 219 147 72 219 146 68 
208 132 56 212 127 48 219 146 68 201 125 56 213 146 78 223 159 90 220 149 73 211 133 62 
199 113 42 213 138 64 204 121 49 218 142 72 224 164 97 227 154 85 215 133 56 220 149 73 
228 155 79 212 127 48 211 132 57 215 149 79 214 159 92 215 149 79 213 146 78 213 146 78 
215 162 99 224 169 105 192 106 35 207 123 56 218 138 64 217 140 68 225 159 90 216 132 59 
211 133 62 215 149 79 213 154 88 222 153 84 225 148 73 215 133 56 207 123 49 215 149 79 
224 164 90 220 149 73 225 147 66 212 127 48 224 145 73 220 149 73 217 140 68 213 138 64 
214 147 72 220 149 73 226 161 86 215 149 79 225 149 79 227 154 85 223 160 87 218 146 78 
207 122 42 211 139 69 208 128 56 218 138 64 212 126 52 220 149 73 212 126 52 208 128 56 
211 132 57 212 127 48 215 133 56 219 147 72 232 167 93 241 189 121 243 194 131 238 199 142 
248 217 169 248 217 169 241 207 150 232 187 121 194 120 52 171 102 53 140 88 64 0 0 0 
0 0 0 0 0 0 0 0 0 0 0 0 0 0 0 0 0 0 0 0 0 0 0 0 
0 0 0 0 0 0 0 0 0 0 0 0 0 0 0 0 0 0 0 0 0 0 0 0 
0 0 0 0 0 0 0 0 0 0 0 0 0 0 0 0 0 0 0 0 0 0 0 0 
0 0 0 0 0 0 0 0 0 0 0 0 0 0 0 
0 0 0 0 0 0 0 0 0 0 0 0 0 0 0 0 0 0 0 0 0 0 0 0 
0 0 0 0 0 0 0 0 0 0 0 0 0 0 0 0 0 0 0 0 0 0 0 0 
0 0 0 0 0 0 0 0 0 0 0 0 0 0 0 182 138 96 203 131 74 218 142 72 
227 158 93 226 161 86 230 173 107 227 177 111 216 171 108 227 177 111 215 163 108 215 162 99 
224 164 97 225 169 100 213 154 88 214 151 79 213 138 64 208 132 56 207 123 49 213 138 62 
211 139 69 211 132 57 220 149 73 217 145 68 208 132 56 213 138 62 214 140 68 214 147 72 
223 159 90 224 164 97 227 154 85 223 140 64 220 155 77 223 153 76 212 127 48 189 96 24 
211 133 62 214 147 72 213 138 64 207 123 49 214 140 68 220 149 73 215 133 56 216 132 52 
202 113 34 212 122 46 211 131 59 220 149 73 219 146 68 211 132 57 217 140 68 225 153 79 
225 148 73 219 138 59 213 138 62 216 132 59 215 149 79 223 159 90 219 147 72 218 146 78 
215 149 79 218 146 78 215 149 79 219 147 72 222 153 84 211 133 62 219 147 72 215 149 79 
214 147 72 214 140 68 216 133 65 207 122 42 213 138 62 219 147 72 222 153 84 224 164 97 
230 173 107 224 169 105 222 153 84 219 154 88 225 159 90 207 123 49 212 126 56 208 128 56 
202 111 39 202 111 39 219 147 72 226 161 86 220 149 73 225 148 73 220 149 73 224 161 84 
223 160 87 224 145 73 217 140 68 224 145 73 224 161 84 223 160 87 223 160 87 223 155 79 
219 147 72 223 155 79 228 162 90 220 149 73 215 133 56 213 139 58 223 160 87 223 159 90 
207 123 49 202 111 39 207 123 56 220 155 77 211 132 57 212 126 52 212 127 48 223 153 76 
222 153 84 218 138 64 213 139 58 218 138 64 228 165 93 238 189 126 238 189 126 242 202 151 
248 217 169 248 217 169 247 209 150 233 180 114 203 132 65 171 102 53 108 79 55 0 0 0 
0 0 0 0 0 0 0 0 0 0 0 0 0 0 0 0 0 0 0 0 0 0 0 0 
0 0 0 0 0 0 0 0 0 0 0 0 0 0 0 0 0 0 0 0 0 0 0 0 
0 0 0 0 0 0 0 0 0 0 0 0 0 0 0 0 0 0 0 0 0 0 0 0 
0 0 0 0 0 0 0 0 0 0 0 0 0 0 0 
0 0 0 0 0 0 0 0 0 0 0 0 0 0 0 0 0 0 0 0 0 0 0 0 
0 0 0 0 0 0 0 0 0 0 0 0 0 0 0 0 0 0 0 0 0 0 0 0 
0 0 0 0 0 0 0 0 0 0 0 0 55 53 51 215 152 100 203 124 65 204 121 49 
213 138 64 224 161 84 225 169 100 216 171 108 216 171 108 203 155 97 215 162 99 215 160 87 
220 160 88 214 151 79 219 154 88 215 149 79 213 138 62 207 123 49 192 106 35 194 110 39 
204 121 49 207 123 49 207 123 49 211 132 57 213 138 62 211 131 59 218 142 72 207 130 56 
211 131 59 222 153 84 225 153 79 218 144 61 220 149 73 225 148 73 212 126 52 189 96 24 
210 133 67 215 149 79 222 153 84 224 145 73 214 151 79 225 170 96 226 161 86 225 148 73 
217 145 68 213 138 62 220 155 77 211 132 57 211 132 57 216 132 59 213 138 62 214 147 72 
220 149 73 211 133 62 214 140 68 213 138 62 213 138 62 208 128 56 225 149 79 208 128 56 
213 138 62 214 140 68 222 153 84 218 142 72 213 138 62 211 131 59 218 142 72 216 132 59 
212 127 48 213 138 64 216 132 59 211 132 50 199 113 42 204 121 49 217 145 68 208 128 56 
216 132 59 210 133 67 219 154 88 227 158 93 227 154 85 208 128 56 215 133 56 217 145 68 
218 142 72 207 123 56 215 133 56 220 149 73 217 145 68 213 138 62 223 155 79 223 155 79 
232 167 93 218 146 78 223 155 79 228 153 76 219 146 68 217 145 68 225 167 94 228 165 93 
220 149 73 213 138 62 202 111 39 213 138 62 223 153 76 211 132 57 219 147 72 208 132 56 
212 126 56 217 140 68 211 133 62 214 147 72 219 138 59 216 132 52 215 133 56 220 149 73 
217 145 68 219 138 59 223 140 64 216 132 52 226 161 86 238 186 115 238 189 126 247 212 160 
241 214 169 240 211 161 242 202 151 224 169 105 203 132 65 183 124 67 104 64 29 0 0 0 
0 0 0 0 0 0 0 0 0 0 0 0 0 0 0 0 0 0 0 0 0 0 0 0 
0 0 0 0 0 0 0 0 0 0 0 0 0 0 0 0 0 0 0 0 0 0 0 0 
0 0 0 0 0 0 0 0 0 0 0 0 0 0 0 0 0 0 0 0 0 0 0 0 
0 0 0 0 0 0 0 0 0 0 0 0 0 0 0 
0 0 0 0 0 0 0 0 0 0 0 0 0 0 0 0 0 0 0 0 0 0 0 0 
0 0 0 0 0 0 0 0 0 0 0 0 0 0 0 0 0 0 0 0 0 0 0 0 
0 0 0 0 0 0 0 0 0 0 0 0 150 118 91 212 140 78 210 133 67 207 123 49 
215 133 56 217 145 68 216 167 99 225 181 124 216 171 108 203 155 97 216 171 108 220 160 88 
222 153 84 213 140 72 204 143 74 219 154 88 211 139 69 199 113 42 195 105 31 199 113 42 
199 113 42 204 113 45 204 113 45 208 132 56 214 140 68 207 130 56 201 125 56 208 128 56 
204 121 49 208 128 56 210 133 67 217 145 68 219 146 68 217 145 68 213 138 64 201 121 42 
208 128 56 222 153 84 219 154 88 217 140 68 220 160 88 233 169 102 220 149 73 219 147 72 
208 128 56 204 121 49 218 142 72 227 154 85 220 149 73 212 142 64 208 128 56 214 147 72 
214 147 72 223 153 76 215 149 79 211 139 69 214 140 68 201 121 42 204 121 49 217 145 68 
219 147 72 212 142 64 214 140 68 211 133 62 218 142 72 214 147 72 214 147 72 207 122 42 
211 133 62 215 149 79 222 153 84 220 149 73 218 142 72 213 138 62 214 147 72 208 132 56 
194 110 39 199 107 32 211 133 62 217 145 68 214 140 68 224 145 73 216 132 59 212 142 64 
223 153 76 199 121 50 217 140 68 211 132 57 213 139 58 213 138 62 225 148 73 208 132 56 
219 147 72 224 145 73 218 138 64 219 138 59 224 145 73 227 154 85 224 164 97 220 149 73 
225 149 79 213 138 62 216 132 59 218 142 72 222 153 84 225 159 90 217 145 68 211 132 57 
213 138 62 211 133 62 217 140 68 213 138 62 211 132 57 215 133 56 211 132 50 217 145 68 
218 138 64 217 145 68 223 155 79 225 148 73 236 175 100 241 189 121 238 192 132 248 217 169 
248 217 169 240 211 161 243 201 146 224 164 97 213 140 72 183 124 67 55 53 51 0 0 0 
0 0 0 0 0 0 0 0 0 0 0 0 0 0 0 0 0 0 0 0 0 0 0 0 
0 0 0 0 0 0 0 0 0 0 0 0 0 0 0 0 0 0 0 0 0 0 0 0 
0 0 0 0 0 0 0 0 0 0 0 0 0 0 0 0 0 0 0 0 0 0 0 0 
0 0 0 0 0 0 0 0 0 0 0 0 0 0 0 
0 0 0 0 0 0 0 0 0 0 0 0 0 0 0 0 0 0 0 0 0 0 0 0 
0 0 0 0 0 0 0 0 0 0 0 0 0 0 0 0 0 0 0 0 0 0 0 0 
0 0 0 0 0 0 0 0 0 14 12 9 203 155 97 215 145 88 210 133 67 201 121 47 
207 123 49 227 154 85 216 171 108 216 171 108 216 171 108 216 171 108 224 169 105 214 159 92 
213 154 88 213 138 62 213 138 64 204 143 74 207 123 56 202 111 39 204 113 45 202 111 39 
201 121 47 202 111 39 199 107 32 211 133 62 214 147 72 214 140 68 207 130 56 211 139 69 
214 147 72 222 153 84 220 160 88 233 169 102 223 155 79 215 160 87 224 164 97 213 138 62 
219 147 72 213 138 64 223 159 90 211 139 69 224 164 97 220 160 88 224 145 73 217 140 68 
211 133 62 208 128 56 212 126 52 218 142 72 216 133 65 217 140 68 208 128 56 207 130 56 
214 140 68 207 123 49 204 121 49 211 139 69 219 154 88 213 138 64 216 132 59 199 121 50 
213 140 72 207 130 56 214 140 68 213 138 64 217 140 68 220 149 73 223 153 76 218 138 64 
219 147 72 222 153 84 219 154 88 218 142 72 204 121 49 195 105 31 201 125 56 211 133 62 
211 132 57 202 111 39 201 125 56 214 147 72 218 142 72 208 128 56 204 113 45 216 132 59 
213 138 62 212 126 52 208 132 56 217 140 68 218 138 64 212 122 46 217 140 68 223 153 76 
214 147 72 219 147 72 223 140 64 212 126 52 219 138 59 220 149 73 225 159 90 225 159 90 
225 149 79 219 147 72 213 138 62 219 147 72 215 152 87 224 169 105 228 165 93 223 155 79 
219 147 72 218 142 72 201 121 42 212 126 52 202 113 34 218 138 64 215 133 56 207 122 42 
215 133 56 217 145 68 225 159 90 225 167 94 236 174 95 241 189 121 235 193 134 240 211 161 
248 217 169 237 204 161 243 201 146 223 159 90 213 140 72 183 124 67 51 29 18 0 0 0 
0 0 0 0 0 0 0 0 0 0 0 0 0 0 0 0 0 0 0 0 0 0 0 0 
0 0 0 110 92 87 0 0 0 0 0 0 0 0 0 0 0 0 0 0 0 0 0 0 
0 0 0 0 0 0 0 0 0 0 0 0 0 0 0 0 0 0 0 0 0 0 0 0 
0 0 0 0 0 0 0 0 0 0 0 0 0 0 0 
0 0 0 0 0 0 0 0 0 0 0 0 0 0 0 0 0 0 0 0 0 0 0 0 
0 0 0 0 0 0 0 0 0 0 0 0 0 0 0 0 0 0 0 0 0 0 0 0 
0 0 0 0 0 0 0 0 0 104 64 29 203 155 97 212 140 78 201 119 56 207 123 49 
211 131 59 218 146 78 214 159 92 216 171 108 216 171 108 216 171 108 213 154 88 215 162 99 
213 146 78 211 131 59 211 133 62 214 147 72 207 130 56 192 106 35 199 107 32 194 110 39 
208 128 56 204 121 49 201 121 42 207 123 49 208 132 56 211 139 69 207 130 56 207 130 56 
211 133 62 214 140 68 223 155 79 218 146 78 211 131 59 219 154 88 225 159 90 218 142 72 
211 131 59 207 123 49 213 146 78 224 164 97 230 173 107 225 159 90 223 155 79 213 146 68 
214 140 68 214 140 68 207 123 49 207 123 49 211 131 59 218 142 72 216 133 65 225 148 73 
213 138 62 217 140 68 211 133 62 208 128 56 202 131 56 219 147 72 211 139 69 204 113 45 
207 123 49 204 113 45 216 133 65 211 133 62 215 133 56 201 121 47 211 131 59 213 138 62 
208 132 56 204 121 49 199 113 42 204 121 49 204 121 49 199 113 42 201 125 56 210 133 67 
222 153 84 222 153 84 201 121 47 203 132 65 214 151 79 215 149 79 201 121 47 216 132 59 
219 154 88 215 152 87 208 128 56 217 140 68 219 146 68 212 126 52 218 138 64 218 138 64 
214 147 72 222 153 84 219 138 59 223 140 64 216 132 52 228 153 76 224 145 73 214 147 72 
217 140 68 214 151 79 215 149 79 223 159 90 219 154 88 225 169 100 222 153 84 226 161 86 
228 165 93 218 146 78 217 140 68 218 138 64 202 111 39 217 145 68 208 128 56 195 105 31 
219 138 59 219 147 72 223 153 76 225 153 79 237 181 114 243 194 131 243 201 146 240 211 161 
248 217 169 248 217 169 243 201 146 219 154 88 222 153 84 181 117 87 14 12 9 0 0 0 
0 0 0 0 0 0 0 0 0 0 0 0 0 0 0 0 0 0 0 0 0 0 0 0 
0 0 0 51 29 18 0 0 0 0 0 0 0 0 0 0 0 0 0 0 0 0 0 0 
0 0 0 0 0 0 0 0 0 0 0 0 0 0 0 0 0 0 0 0 0 0 0 0 
0 0 0 0 0 0 0 0 0 0 0 0 0 0 0 
0 0 0 0 0 0 0 0 0 0 0 0 0 0 0 0 0 0 0 0 0 0 0 0 
0 0 0 0 0 0 0 0 0 0 0 0 0 0 0 0 0 0 0 0 0 0 0 0 
0 0 0 0 0 0 0 0 0 108 79 55 215 152 100 212 140 78 194 110 39 194 110 39 
207 123 49 214 147 72 214 159 92 215 166 116 215 163 108 215 163 108 214 159 92 220 160 88 
204 143 74 213 154 88 213 138 64 211 133 62 207 130 56 202 111 39 199 107 32 199 107 32 
201 125 56 203 132 65 211 131 59 208 128 56 213 138 64 215 152 87 219 154 88 208 128 56 
211 139 69 212 126 52 208 128 56 212 126 56 207 122 42 207 123 56 211 131 59 208 128 56 
217 140 68 218 138 64 213 138 64 218 146 78 223 160 87 220 149 73 225 148 73 216 132 52 
213 140 72 224 164 97 219 147 72 211 133 62 211 133 62 216 132 59 199 107 32 211 131 59 
217 140 68 211 131 59 207 123 49 202 113 34 204 121 49 201 121 47 210 133 67 202 111 39 
204 121 49 201 121 47 218 142 72 212 126 56 201 121 42 207 123 49 194 110 39 199 114 47 
213 138 64 203 132 65 203 132 65 213 140 72 203 138 65 207 130 56 219 154 88 204 143 74 
215 152 87 223 159 90 214 147 72 213 146 78 222 153 84 223 159 90 226 161 86 223 155 79 
223 159 90 224 169 105 222 153 84 223 160 87 220 160 88 218 138 64 207 122 42 218 138 64 
223 159 90 233 169 102 224 145 73 207 122 42 216 132 59 207 123 49 213 138 62 218 144 61 
213 138 62 215 149 79 222 153 84 213 146 78 213 140 72 218 138 64 218 138 64 220 149 73 
222 153 84 218 142 72 223 153 76 212 126 56 195 105 31 204 113 45 199 114 47 216 133 65 
207 123 49 207 123 49 211 133 62 231 162 84 239 181 106 239 194 126 239 194 135 247 212 160 
248 217 169 248 217 169 235 193 134 224 164 97 215 149 79 181 117 87 51 29 18 0 0 0 
0 0 0 0 0 0 0 0 0 0 0 0 0 0 0 0 0 0 0 0 0 0 0 0 
0 0 0 0 0 0 0 0 0 0 0 0 0 0 0 0 0 0 0 0 0 0 0 0 
0 0 0 0 0 0 0 0 0 0 0 0 0 0 0 0 0 0 0 0 0 0 0 0 
0 0 0 0 0 0 0 0 0 0 0 0 0 0 0 
0 0 0 0 0 0 0 0 0 0 0 0 0 0 0 0 0 0 0 0 0 0 0 0 
0 0 0 0 0 0 0 0 0 0 0 0 0 0 0 0 0 0 0 0 0 0 0 0 
0 0 0 0 0 0 0 0 0 108 79 55 203 136 90 203 131 74 194 110 39 204 121 49 
217 145 68 215 149 79 203 155 97 216 171 108 215 163 108 224 169 105 224 164 97 220 155 77 
214 159 92 224 169 105 223 155 79 214 149 73 214 147 72 204 113 45 201 121 42 207 123 49 
208 128 56 203 138 65 211 139 69 207 130 56 211 139 69 213 146 78 204 143 74 218 142 72 
211 131 59 199 114 47 189 96 24 189 96 24 204 113 45 212 126 52 211 131 59 212 126 52 
208 132 56 218 138 64 219 138 59 207 123 49 215 133 56 213 139 58 219 138 59 212 127 48 
207 130 56 220 149 73 219 147 72 211 133 62 214 140 68 211 131 59 213 138 62 213 138 64 
199 113 42 212 126 52 207 123 49 202 113 34 201 121 47 208 128 56 192 106 35 207 123 49 
211 133 62 210 133 67 213 138 64 211 139 69 218 146 78 218 142 72 211 131 59 204 121 49 
204 113 45 194 110 39 201 125 56 183 105 36 194 110 39 199 114 47 211 139 69 215 152 87 
224 164 97 222 153 84 201 121 47 201 119 56 214 147 72 220 149 73 225 149 79 218 146 78 
222 153 84 223 159 90 223 159 90 224 164 90 215 149 79 214 147 72 217 140 68 213 138 64 
223 153 76 218 146 78 213 138 62 218 142 72 224 164 97 223 159 90 218 138 64 216 132 52 
217 145 68 214 147 72 220 149 73 204 121 49 211 131 59 207 122 42 215 133 56 213 138 62 
207 130 56 212 126 52 212 126 52 217 140 68 211 133 62 211 131 59 213 138 64 222 153 84 
214 140 68 220 149 73 223 162 104 233 180 114 239 181 106 244 194 126 238 199 142 247 212 160 
248 225 188 248 217 169 238 192 132 233 177 111 215 152 87 181 117 87 14 12 9 0 0 0 
0 0 0 0 0 0 0 0 0 0 0 0 0 0 0 0 0 0 0 0 0 0 0 0 
0 0 0 0 0 0 0 0 0 0 0 0 0 0 0 0 0 0 0 0 0 0 0 0 
0 0 0 0 0 0 0 0 0 0 0 0 0 0 0 0 0 0 0 0 0 0 0 0 
0 0 0 0 0 0 0 0 0 0 0 0 0 0 0 
0 0 0 0 0 0 0 0 0 0 0 0 0 0 0 0 0 0 0 0 0 0 0 0 
0 0 0 0 0 0 0 0 0 0 0 0 0 0 0 0 0 0 0 0 0 0 0 0 
0 0 0 0 0 0 0 0 0 110 92 87 215 145 88 186 105 52 207 123 49 217 140 68 
224 164 90 224 164 97 215 162 99 215 163 108 215 163 108 224 169 105 224 164 97 214 147 72 
213 146 78 224 164 97 223 155 79 214 147 72 215 149 79 214 140 68 201 121 47 204 113 45 
199 113 42 199 121 50 208 128 56 207 123 56 192 106 35 195 105 31 207 130 56 207 130 56 
211 133 62 215 149 79 213 140 72 199 114 47 199 113 42 202 111 39 208 128 56 208 128 56 
204 121 49 217 145 68 211 132 57 218 138 64 211 132 57 216 132 59 211 132 50 223 153 76 
227 154 85 211 133 62 218 146 78 215 152 87 215 149 79 208 128 56 214 140 68 211 133 62 
216 133 65 201 121 47 194 110 39 195 105 31 199 113 42 199 113 42 195 105 31 199 114 47 
211 139 69 211 131 59 204 113 45 207 123 49 211 133 62 213 140 72 213 138 64 199 114 47 
176 87 19 194 110 39 199 121 50 199 114 47 208 128 56 204 113 45 199 121 50 211 139 69 
210 133 67 213 138 62 216 133 65 176 87 19 192 106 35 213 138 62 216 132 59 207 122 42 
212 126 52 208 128 56 224 145 73 219 146 68 219 147 72 222 153 84 222 153 84 217 140 68 
212 126 52 208 128 56 211 133 62 222 153 84 224 164 97 214 151 79 204 113 45 219 138 59 
219 138 59 213 138 62 217 140 68 195 105 31 207 123 49 202 111 39 207 122 42 215 133 56 
212 126 52 212 126 56 212 126 56 218 142 72 220 149 73 222 153 84 222 153 84 220 155 77 
223 160 87 223 159 90 224 169 105 238 189 126 241 189 121 245 200 134 239 199 135 248 217 169 
248 225 188 247 212 160 231 187 126 233 169 102 215 145 88 150 107 67 2 1 1 0 0 0 
0 0 0 0 0 0 0 0 0 0 0 0 0 0 0 0 0 0 0 0 0 0 0 0 
0 0 0 0 0 0 0 0 0 0 0 0 0 0 0 0 0 0 0 0 0 0 0 0 
0 0 0 0 0 0 0 0 0 0 0 0 0 0 0 0 0 0 0 0 0 0 0 0 
0 0 0 0 0 0 0 0 0 0 0 0 0 0 0 
0 0 0 0 0 0 0 0 0 0 0 0 0 0 0 0 0 0 0 0 0 0 0 0 
0 0 0 0 0 0 0 0 0 0 0 0 0 0 0 0 0 0 0 0 0 0 0 0 
0 0 0 0 0 0 0 0 0 150 118 91 203 131 74 188 97 36 207 123 56 217 140 68 
223 160 87 216 167 99 216 171 108 215 162 99 215 162 99 213 154 88 213 146 78 220 149 73 
214 149 73 223 153 76 217 145 68 218 138 64 208 132 56 214 140 68 214 140 68 202 111 39 
199 114 47 207 123 49 202 111 39 204 121 49 189 96 24 189 96 24 183 105 36 201 121 47 
210 133 67 213 154 88 214 159 92 214 147 72 211 139 69 211 131 59 214 140 68 211 133 62 
199 113 42 211 133 62 213 140 72 215 149 79 213 140 72 213 138 64 207 130 56 225 149 79 
218 138 64 218 138 64 213 138 64 218 146 78 225 159 90 214 151 79 223 159 90 223 159 90 
213 138 64 218 138 64 204 121 49 208 128 56 218 146 78 215 149 79 210 133 67 201 125 56 
204 121 49 195 105 31 202 111 39 211 132 57 213 138 62 207 123 49 211 133 62 204 113 45 
199 113 42 208 128 56 211 133 62 213 138 62 220 155 77 211 133 62 214 140 68 204 121 49 
192 106 35 201 121 47 211 132 57 204 113 45 202 111 39 202 111 39 212 127 48 212 127 48 
211 132 57 216 132 59 192 106 35 208 128 56 222 153 84 222 153 84 219 147 72 217 140 68 
212 126 52 216 132 59 219 147 72 213 138 64 223 160 87 225 169 100 225 169 100 225 148 73 
213 139 58 223 140 64 208 128 56 202 111 39 208 132 56 215 133 56 212 126 52 216 132 59 
212 122 46 202 111 39 192 106 35 199 113 42 211 139 69 215 149 79 218 146 78 214 147 72 
228 165 93 225 169 100 226 171 121 243 201 146 245 200 134 243 194 131 239 194 135 248 217 169 
248 225 188 240 211 161 224 169 105 233 169 102 203 131 74 150 107 67 0 0 0 0 0 0 
0 0 0 0 0 0 0 0 0 0 0 0 0 0 0 0 0 0 0 0 0 0 0 0 
0 0 0 0 0 0 0 0 0 0 0 0 0 0 0 0 0 0 0 0 0 0 0 0 
0 0 0 0 0 0 0 0 0 0 0 0 0 0 0 0 0 0 0 0 0 0 0 0 
0 0 0 0 0 0 0 0 0 0 0 0 0 0 0 
0 0 0 0 0 0 0 0 0 0 0 0 0 0 0 0 0 0 0 0 0 0 0 0 
0 0 0 0 0 0 0 0 0 0 0 0 0 0 0 0 0 0 0 0 0 0 0 0 
0 0 0 0 0 0 2 1 1 182 138 96 203 131 74 188 97 36 199 114 47 201 125 56 
219 154 88 215 162 99 215 162 99 203 155 97 204 143 74 213 146 78 213 146 78 228 165 93 
220 155 77 220 149 73 217 145 68 212 142 64 218 138 64 211 132 57 219 147 72 211 131 59 
207 123 49 204 121 49 194 110 39 211 133 62 201 121 47 199 121 50 201 119 56 212 126 56 
202 131 56 213 146 78 214 159 92 213 146 78 211 139 69 202 131 56 210 133 67 213 138 64 
211 131 59 207 130 56 214 140 68 215 149 79 219 154 88 219 154 88 213 140 72 218 146 78 
218 142 72 201 121 47 207 123 49 207 123 49 212 127 48 211 132 57 222 153 84 222 153 84 
220 149 73 213 138 62 212 126 52 207 123 49 211 131 59 213 138 64 207 123 56 207 130 56 
214 140 68 211 133 62 207 123 49 201 121 42 212 126 56 208 128 56 208 132 56 217 140 68 
211 131 59 208 128 56 204 121 49 213 138 62 213 138 62 204 121 49 201 121 47 207 123 49 
208 132 56 214 147 72 218 138 64 211 131 59 199 113 42 211 132 57 215 133 56 216 132 59 
212 126 52 207 123 49 194 110 39 214 140 68 215 149 79 213 140 72 207 122 42 202 113 34 
195 105 31 211 131 59 223 155 79 224 164 97 224 164 97 233 177 111 232 167 93 217 140 68 
224 145 73 211 132 57 217 140 68 216 132 59 217 145 68 213 138 62 212 126 52 207 123 49 
204 113 45 204 121 49 212 126 56 189 96 24 213 138 62 213 138 62 212 126 52 207 122 42 
220 149 73 224 164 97 225 181 124 242 202 151 247 209 150 239 194 135 247 212 160 248 217 169 
248 225 188 238 199 142 225 169 100 219 154 88 203 131 74 108 79 55 0 0 0 0 0 0 
0 0 0 0 0 0 0 0 0 0 0 0 0 0 0 0 0 0 0 0 0 0 0 0 
0 0 0 0 0 0 0 0 0 0 0 0 0 0 0 0 0 0 0 0 0 0 0 0 
0 0 0 0 0 0 0 0 0 0 0 0 0 0 0 0 0 0 0 0 0 0 0 0 
0 0 0 0 0 0 0 0 0 0 0 0 0 0 0 
0 0 0 0 0 0 0 0 0 0 0 0 0 0 0 0 0 0 0 0 0 0 0 0 
0 0 0 0 0 0 0 0 0 0 0 0 0 0 0 0 0 0 0 0 0 0 0 0 
0 0 0 0 0 0 55 53 51 203 136 90 203 124 65 188 97 36 192 106 35 208 128 56 
219 154 88 214 159 92 215 162 99 215 162 99 204 143 74 215 152 87 223 160 87 220 160 88 
220 149 73 223 153 71 219 146 68 220 149 73 215 152 87 214 147 72 213 138 62 207 123 49 
201 121 42 213 138 64 203 132 65 211 139 69 202 131 56 202 131 56 204 143 74 201 125 56 
192 106 35 211 131 59 218 138 64 207 123 49 207 123 56 189 96 24 176 87 19 194 110 39 
208 128 56 208 128 56 211 133 62 211 133 62 213 140 72 227 154 85 211 131 59 207 130 56 
211 131 59 212 126 52 207 123 49 204 113 45 204 121 49 207 123 49 213 138 62 214 140 68 
211 131 59 207 123 49 208 128 56 215 133 56 207 123 49 195 105 31 204 121 49 213 138 64 
207 123 56 218 142 72 204 121 49 207 122 42 208 132 56 213 146 78 214 140 68 194 110 39 
199 113 42 213 140 72 218 142 72 213 138 64 207 123 49 202 113 34 202 111 39 207 122 42 
204 121 49 201 119 56 199 113 42 201 121 47 202 111 39 207 123 49 208 128 56 223 140 64 
212 126 52 211 132 57 207 123 49 199 113 42 204 121 49 204 113 45 201 121 47 202 111 39 
202 111 39 213 140 72 214 151 79 224 164 97 226 161 86 223 155 79 217 145 68 217 145 68 
223 155 79 207 123 49 216 132 59 213 138 62 219 146 68 218 138 64 199 114 47 204 113 45 
194 110 39 211 139 69 201 125 56 195 105 31 207 123 49 204 113 45 202 113 34 212 126 52 
220 149 73 214 159 92 233 180 114 245 200 134 243 194 131 238 199 142 248 217 169 248 217 169 
248 217 169 239 195 141 228 165 93 203 131 74 179 108 68 104 64 29 0 0 0 0 0 0 
0 0 0 0 0 0 0 0 0 0 0 0 0 0 0 0 0 0 0 0 0 0 0 0 
0 0 0 0 0 0 0 0 0 0 0 0 0 0 0 0 0 0 0 0 0 0 0 0 
0 0 0 0 0 0 0 0 0 0 0 0 0 0 0 0 0 0 0 0 0 0 0 0 
0 0 0 0 0 0 0 0 0 0 0 0 0 0 0 
0 0 0 0 0 0 0 0 0 0 0 0 0 0 0 0 0 0 0 0 0 0 0 0 
0 0 0 0 0 0 0 0 0 0 0 0 0 0 0 0 0 0 0 0 0 0 0 0 
0 0 0 0 0 0 108 79 55 203 131 74 203 124 65 188 97 36 192 106 35 213 138 64 
214 159 92 214 159 92 215 163 108 215 163 108 213 154 88 220 160 88 214 151 79 214 151 79 
223 160 87 226 161 86 220 149 73 217 145 68 213 146 78 215 149 79 211 139 69 218 146 78 
201 121 47 202 111 39 203 132 65 213 146 78 210 133 67 212 140 78 223 162 104 218 146 78 
211 139 69 203 138 65 212 126 52 201 121 42 195 105 31 188 97 36 211 133 62 213 140 72 
203 132 65 201 125 56 204 113 45 199 107 32 201 119 56 194 110 39 202 111 39 204 121 49 
212 126 52 211 132 57 199 107 32 195 105 31 199 114 47 204 121 49 211 133 62 218 138 64 
216 132 52 208 128 56 204 121 49 212 126 56 218 142 72 211 133 62 211 133 62 211 131 59 
199 113 42 192 106 35 204 113 45 195 105 31 199 121 50 215 152 87 236 179 121 204 121 49 
202 111 39 199 114 47 194 110 39 207 123 56 202 111 39 212 126 52 208 132 56 218 142 72 
211 131 59 216 133 65 192 106 35 189 96 24 199 114 47 201 121 47 207 123 49 217 140 68 
207 130 56 207 123 49 195 105 31 202 113 34 202 111 39 204 121 49 212 126 52 202 111 39 
199 113 42 212 142 64 225 148 73 211 132 57 204 113 45 212 126 52 212 126 52 216 132 59 
211 132 57 216 132 59 207 123 49 202 111 39 211 133 62 214 147 72 214 140 68 202 111 39 
207 123 49 213 138 64 208 128 56 204 121 49 195 105 31 189 96 24 207 123 49 212 126 52 
219 147 72 223 159 90 233 176 102 244 194 126 239 194 126 247 209 150 231 187 126 247 212 160 
247 212 160 245 200 134 225 159 90 201 125 56 179 108 68 55 53 51 0 0 0 0 0 0 
0 0 0 0 0 0 0 0 0 0 0 0 0 0 0 0 0 0 0 0 0 0 0 0 
0 0 0 0 0 0 0 0 0 0 0 0 0 0 0 0 0 0 0 0 0 0 0 0 
0 0 0 0 0 0 0 0 0 0 0 0 0 0 0 0 0 0 0 0 0 0 0 0 
0 0 0 0 0 0 0 0 0 0 0 0 0 0 0 
0 0 0 0 0 0 0 0 0 0 0 0 0 0 0 0 0 0 0 0 0 0 0 0 
0 0 0 0 0 0 0 0 0 0 0 0 0 0 0 0 0 0 0 0 0 0 0 0 
0 0 0 0 0 0 110 92 87 203 136 90 203 124 65 192 106 35 207 123 56 213 146 78 
215 162 99 215 163 108 226 171 121 216 171 108 214 159 92 223 162 104 222 153 84 222 153 84 
225 149 79 225 153 79 212 142 64 222 153 84 215 156 78 220 160 88 213 146 78 215 152 87 
214 147 72 199 113 42 201 125 56 203 138 65 211 131 59 207 123 56 212 140 78 212 140 78 
211 139 69 213 146 78 214 140 68 199 113 42 194 110 39 199 113 42 203 132 65 213 146 78 
222 153 84 213 146 78 204 143 74 215 149 79 213 146 78 214 140 68 211 133 62 199 113 42 
204 121 49 212 126 52 207 123 49 189 96 24 199 113 42 199 113 42 211 131 59 215 133 56 
211 132 57 217 145 68 218 146 78 211 132 57 214 140 68 207 130 56 208 132 56 210 133 67 
207 123 56 208 128 56 192 106 35 199 107 32 199 113 42 211 131 59 207 130 56 207 123 49 
199 113 42 208 128 56 207 123 49 199 113 42 194 110 39 208 132 56 208 128 56 211 132 57 
213 138 64 211 139 69 210 133 67 199 114 47 192 106 35 211 131 59 218 138 64 211 133 62 
219 147 72 204 113 45 202 111 39 202 111 39 199 113 42 208 128 56 204 113 45 199 113 42 
194 110 39 204 113 45 213 138 62 213 138 62 199 113 42 213 140 72 214 147 72 214 140 68 
216 132 59 211 132 57 218 142 72 216 133 65 217 140 68 215 149 79 210 133 67 204 113 45 
199 107 32 189 96 24 204 121 49 199 114 47 207 130 56 207 123 49 212 127 48 207 122 42 
213 139 58 226 161 86 231 166 86 239 181 106 239 194 126 235 193 134 238 189 126 247 212 160 
247 212 160 238 189 126 219 154 88 201 119 56 183 124 67 51 29 18 0 0 0 0 0 0 
0 0 0 0 0 0 0 0 0 0 0 0 0 0 0 0 0 0 0 0 0 0 0 0 
0 0 0 0 0 0 0 0 0 0 0 0 0 0 0 0 0 0 0 0 0 0 0 0 
0 0 0 0 0 0 0 0 0 0 0 0 0 0 0 0 0 0 0 0 0 0 0 0 
0 0 0 0 0 0 0 0 0 0 0 0 0 0 0 
0 0 0 0 0 0 0 0 0 0 0 0 0 0 0 0 0 0 0 0 0 0 0 0 
0 0 0 0 0 0 0 0 0 0 0 0 0 0 0 0 0 0 0 0 0 0 0 0 
0 0 0 0 0 0 150 107 67 215 145 88 194 120 52 194 110 39 211 139 69 224 164 97 
224 169 105 215 163 108 215 166 116 215 163 108 213 154 88 219 154 88 213 140 72 219 147 72 
208 132 56 213 138 64 213 146 68 222 153 84 228 165 93 224 164 90 220 160 88 219 154 88 
222 153 84 208 128 56 207 123 49 211 131 59 199 113 42 202 111 39 189 96 24 199 114 47 
199 114 47 199 114 47 194 110 39 207 130 56 211 133 62 207 130 56 211 139 69 218 146 78 
211 131 59 213 138 64 222 153 84 214 140 68 207 123 56 211 133 62 211 133 62 213 138 62 
208 128 56 201 125 56 214 140 68 216 132 59 195 105 31 195 105 31 201 121 42 218 138 64 
208 128 56 204 121 49 217 140 68 216 132 52 218 138 64 213 138 64 204 143 74 219 154 88 
219 147 72 213 146 68 218 142 72 207 123 56 208 128 56 207 123 56 208 128 56 212 126 52 
211 133 62 214 147 72 217 145 68 216 132 59 217 140 68 213 138 62 207 123 49 212 126 52 
211 131 59 201 121 47 211 139 69 225 153 79 207 123 56 202 111 39 199 113 42 211 132 57 
213 138 62 204 121 49 199 113 42 194 110 39 208 128 56 207 130 56 204 121 49 199 113 42 
213 140 72 211 131 59 213 140 72 203 138 65 222 153 84 222 153 84 219 154 88 214 140 68 
215 133 56 213 138 62 207 130 56 211 133 62 211 133 62 213 138 64 208 128 56 207 123 56 
189 96 24 204 121 49 202 113 34 202 111 39 211 133 62 212 126 52 202 111 39 216 132 52 
223 140 64 228 153 76 235 170 94 235 170 94 234 180 107 241 189 121 239 199 135 247 212 160 
244 201 142 231 177 107 213 146 78 194 120 52 181 117 87 14 12 9 0 0 0 0 0 0 
0 0 0 0 0 0 0 0 0 0 0 0 0 0 0 0 0 0 0 0 0 0 0 0 
0 0 0 0 0 0 0 0 0 0 0 0 0 0 0 0 0 0 0 0 0 0 0 0 
0 0 0 0 0 0 0 0 0 0 0 0 0 0 0 0 0 0 0 0 0 0 0 0 
0 0 0 0 0 0 0 0 0 0 0 0 0 0 0 
0 0 0 0 0 0 0 0 0 0 0 0 0 0 0 0 0 0 0 0 0 0 0 0 
0 0 0 0 0 0 0 0 0 0 0 0 0 0 0 0 0 0 0 0 0 0 0 0 
0 0 0 0 0 0 150 118 91 203 136 90 188 97 36 201 119 56 214 140 68 220 160 88 
224 169 105 215 166 116 215 163 108 215 162 99 213 154 88 203 138 65 213 140 72 208 132 56 
214 140 68 211 139 69 203 138 65 214 151 79 224 161 84 223 160 87 214 149 73 223 155 79 
218 142 72 208 132 56 211 133 62 201 121 42 194 110 39 192 106 35 194 110 39 199 121 50 
192 106 35 204 121 49 202 111 39 194 110 39 204 121 49 211 132 57 201 125 56 194 110 39 
195 105 31 202 111 39 199 113 42 211 132 50 211 132 57 211 139 69 220 149 73 217 140 68 
204 121 49 199 114 47 207 123 56 207 123 49 207 123 49 211 131 59 204 121 49 204 121 49 
217 140 68 202 111 39 207 123 49 215 133 56 212 126 52 204 121 49 217 140 68 212 126 56 
211 132 50 216 132 59 212 126 52 216 133 65 218 142 72 215 149 79 218 138 64 212 126 52 
213 138 64 219 147 72 213 139 58 218 138 64 217 140 68 207 130 56 208 128 56 211 132 57 
204 113 45 202 111 39 207 123 49 211 133 62 211 133 62 210 133 67 195 105 31 212 122 46 
207 123 49 222 153 84 215 149 79 207 123 56 211 131 59 203 132 65 211 133 62 218 142 72 
219 154 88 213 146 78 218 146 78 218 146 78 210 133 67 211 133 62 222 153 84 224 145 73 
215 133 56 218 138 64 202 113 34 218 138 64 217 140 68 204 113 45 207 123 49 199 114 47 
192 106 35 176 87 19 189 96 24 202 111 39 216 132 59 218 138 64 202 113 34 211 132 50 
212 127 48 227 153 72 231 161 79 236 174 95 233 182 111 244 194 126 245 200 134 247 209 150 
239 194 126 233 176 102 214 147 72 194 120 52 150 107 67 2 1 1 0 0 0 0 0 0 
0 0 0 0 0 0 0 0 0 0 0 0 0 0 0 0 0 0 0 0 0 0 0 0 
0 0 0 0 0 0 0 0 0 0 0 0 0 0 0 0 0 0 0 0 0 0 0 0 
0 0 0 0 0 0 0 0 0 0 0 0 0 0 0 0 0 0 0 0 0 0 0 0 
0 0 0 0 0 0 0 0 0 0 0 0 0 0 0 
0 0 0 0 0 0 0 0 0 0 0 0 0 0 0 0 0 0 0 0 0 0 0 0 
0 0 0 0 0 0 0 0 0 0 0 0 0 0 0 0 0 0 0 0 0 0 0 0 
0 0 0 0 0 0 150 118 91 203 131 74 189 96 24 204 121 49 213 138 64 224 164 97 
226 169 111 216 171 108 215 166 116 216 171 108 213 154 88 203 132 65 213 140 72 211 133 62 
217 140 68 202 131 56 203 132 65 223 160 87 226 161 86 228 162 90 212 142 64 214 147 72 
212 142 64 208 128 56 210 133 67 210 133 67 199 121 50 199 114 47 199 121 50 203 138 65 
218 146 78 218 146 78 211 131 59 218 142 72 213 138 62 208 128 56 218 142 72 218 146 78 
213 138 64 211 131 59 208 128 56 207 123 49 211 133 62 217 145 68 218 138 64 212 126 56 
204 113 45 211 133 62 199 113 42 189 96 24 195 105 31 204 121 49 211 133 62 213 138 64 
211 133 62 207 123 49 201 121 42 212 126 52 211 132 57 217 140 68 213 138 62 211 132 57 
218 138 64 218 138 64 218 138 64 214 140 68 201 121 47 199 113 42 195 105 31 192 106 35 
199 113 42 199 113 42 212 126 56 207 123 49 208 128 56 204 121 49 201 121 47 212 126 52 
204 113 45 211 133 62 199 113 42 207 123 56 214 147 72 215 149 79 208 128 56 199 114 47 
211 133 62 215 149 79 223 159 90 225 149 79 213 138 64 211 139 69 214 147 72 219 147 72 
222 153 84 223 159 90 203 124 65 189 96 24 207 123 56 212 127 48 211 132 57 212 126 52 
189 96 24 202 111 39 195 105 31 189 96 24 212 126 52 207 123 49 204 113 45 194 110 39 
211 131 59 204 121 49 211 131 59 202 111 39 195 105 31 216 132 59 207 123 49 211 132 50 
212 127 48 225 147 66 228 153 76 232 167 93 238 183 111 241 189 121 245 200 134 241 207 150 
241 189 121 228 165 93 201 125 56 186 105 52 140 88 64 0 0 0 0 0 0 0 0 0 
0 0 0 0 0 0 0 0 0 0 0 0 0 0 0 0 0 0 0 0 0 0 0 0 
0 0 0 0 0 0 0 0 0 0 0 0 0 0 0 0 0 0 0 0 0 0 0 0 
0 0 0 0 0 0 0 0 0 0 0 0 0 0 0 0 0 0 0 0 0 0 0 0 
0 0 0 0 0 0 0 0 0 0 0 0 0 0 0 
0 0 0 0 0 0 0 0 0 0 0 0 0 0 0 0 0 0 0 0 0 0 0 0 
0 0 0 0 0 0 0 0 0 0 0 0 0 0 0 0 0 0 0 0 0 0 0 0 
0 0 0 0 0 0 150 118 91 194 120 52 189 96 24 204 121 49 210 133 67 214 159 92 
216 171 108 215 163 108 216 171 108 203 155 97 213 154 88 204 143 74 230 173 107 219 147 72 
213 138 62 211 139 69 214 151 79 223 159 90 223 160 87 223 155 79 211 132 57 214 147 72 
203 138 65 201 125 56 194 110 39 210 133 67 214 159 92 222 153 84 195 105 31 199 121 50 
210 133 67 213 140 72 199 113 42 207 123 56 218 142 72 204 121 49 199 113 42 207 123 56 
208 128 56 218 138 64 217 145 68 217 145 68 219 147 72 217 145 68 212 127 48 219 146 68 
201 121 47 211 131 59 217 140 68 208 128 56 204 121 49 204 121 49 211 139 69 215 149 79 
208 128 56 204 121 49 213 138 64 212 126 52 201 121 47 208 128 56 208 128 56 211 132 57 
207 123 49 207 123 49 207 130 56 212 126 52 204 113 45 218 138 64 216 132 59 189 96 24 
192 106 35 202 111 39 195 105 31 189 96 24 194 110 39 207 123 56 211 131 59 204 113 45 
195 105 31 199 114 47 199 113 42 176 87 19 210 133 67 202 131 56 199 113 42 211 133 62 
218 142 72 213 138 62 213 138 62 213 138 62 211 132 57 208 128 56 204 113 45 192 106 35 
211 139 69 219 154 88 203 124 65 211 131 59 211 133 62 213 138 62 217 140 68 213 138 64 
207 123 49 204 121 49 211 131 59 188 97 36 199 107 32 201 121 47 212 126 56 192 106 35 
208 128 56 210 133 67 204 121 49 199 107 32 201 121 42 211 131 59 207 130 56 213 138 62 
219 146 68 231 161 79 231 161 79 231 166 86 236 185 115 238 189 126 245 200 134 245 200 134 
238 186 115 223 155 79 199 114 47 183 124 67 104 64 29 0 0 0 0 0 0 0 0 0 
0 0 0 0 0 0 0 0 0 0 0 0 0 0 0 0 0 0 0 0 0 0 0 0 
0 0 0 0 0 0 0 0 0 0 0 0 0 0 0 0 0 0 0 0 0 0 0 0 
0 0 0 0 0 0 0 0 0 0 0 0 0 0 0 0 0 0 0 0 0 0 0 0 
0 0 0 0 0 0 0 0 0 0 0 0 0 0 0 
0 0 0 0 0 0 0 0 0 0 0 0 0 0 0 0 0 0 0 0 0 0 0 0 
0 0 0 0 0 0 0 0 0 0 0 0 0 0 0 0 0 0 0 0 0 0 0 0 
0 0 0 0 0 0 150 118 91 186 105 52 176 87 19 199 114 47 217 140 68 215 162 99 
215 166 116 215 166 116 215 166 116 214 159 92 214 151 79 213 146 78 214 159 92 214 147 72 
203 138 65 214 140 68 203 138 65 222 153 84 223 153 76 213 138 62 213 138 62 213 138 64 
211 139 69 213 146 78 208 128 56 194 120 52 212 140 78 213 140 72 204 121 49 194 110 39 
192 106 35 199 114 47 199 121 50 211 139 69 199 121 50 207 130 56 199 121 50 208 128 56 
213 138 64 212 127 48 218 138 64 201 121 47 207 122 42 216 132 59 211 132 57 207 123 49 
211 133 62 211 139 69 207 123 49 204 121 49 208 128 56 207 123 49 213 138 62 207 130 56 
212 126 52 207 123 49 211 132 57 211 131 59 213 138 62 217 140 68 213 138 64 213 138 64 
219 147 72 213 138 64 213 140 72 208 128 56 212 122 46 201 121 42 207 123 49 208 128 56 
211 131 59 204 121 49 204 113 45 204 113 45 195 105 31 189 96 24 194 110 39 195 105 31 
199 113 42 194 110 39 204 121 49 204 121 49 211 139 69 218 142 72 208 128 56 211 139 69 
211 133 62 215 133 56 211 132 57 218 138 64 211 132 57 211 133 62 211 133 62 199 113 42 
203 132 65 215 149 79 201 119 56 214 140 68 212 126 52 215 133 56 208 132 56 213 138 62 
207 123 49 213 138 62 210 133 67 199 107 32 202 111 39 207 123 49 195 105 31 176 87 19 
194 110 39 207 130 56 207 123 56 189 96 24 195 105 31 195 105 31 204 121 49 207 123 49 
218 138 64 231 162 84 225 147 66 227 153 72 231 177 107 241 189 121 245 200 134 243 194 131 
238 183 111 223 153 76 203 124 65 179 108 68 104 64 29 0 0 0 0 0 0 0 0 0 
0 0 0 0 0 0 0 0 0 0 0 0 0 0 0 0 0 0 0 0 0 0 0 0 
0 0 0 0 0 0 0 0 0 0 0 0 0 0 0 0 0 0 0 0 0 0 0 0 
0 0 0 0 0 0 0 0 0 0 0 0 0 0 0 0 0 0 0 0 0 0 0 0 
0 0 0 0 0 0 0 0 0 0 0 0 0 0 0 
0 0 0 0 0 0 0 0 0 0 0 0 0 0 0 0 0 0 0 0 0 0 0 0 
0 0 0 0 0 0 0 0 0 0 0 0 0 0 0 0 0 0 0 0 0 0 0 0 
0 0 0 0 0 0 150 118 91 186 105 52 176 87 19 199 121 50 213 138 62 220 160 88 
215 163 108 215 166 116 216 171 108 214 159 92 213 146 78 211 133 62 214 147 72 213 146 78 
215 149 79 199 121 50 199 121 50 220 149 73 220 149 73 212 126 52 212 126 52 199 121 50 
203 138 65 203 138 65 211 139 69 203 132 65 194 110 39 189 96 24 188 97 36 199 121 50 
210 133 67 218 142 72 211 139 69 199 121 50 208 128 56 211 131 59 213 138 62 211 132 50 
215 133 56 216 132 59 213 138 64 219 147 72 211 133 62 213 140 72 211 139 69 213 138 64 
211 133 62 222 153 84 222 153 84 211 139 69 212 127 48 207 123 49 194 110 39 199 113 42 
208 128 56 207 123 56 204 113 45 202 111 39 207 122 42 212 127 48 207 122 42 207 123 49 
208 132 56 212 142 64 222 153 84 219 154 88 223 159 90 214 140 68 199 107 32 199 107 32 
201 121 42 199 107 32 207 130 56 210 133 67 189 96 24 189 96 24 199 121 50 201 121 47 
189 96 24 189 96 24 188 97 36 204 121 49 211 139 69 210 133 67 194 120 52 210 133 67 
194 110 39 202 111 39 204 121 49 192 106 35 194 110 39 194 110 39 199 113 42 207 123 49 
213 138 62 212 142 64 218 138 64 201 125 56 214 140 68 212 122 46 207 123 49 207 123 49 
211 133 62 213 140 72 214 147 72 212 126 52 202 111 39 204 113 45 189 96 24 189 96 24 
201 121 47 199 114 47 199 113 42 189 96 24 176 87 19 201 121 47 211 131 59 218 138 64 
225 148 73 228 153 76 228 153 76 231 166 86 225 167 94 233 180 114 245 200 134 243 194 131 
231 175 99 218 146 78 182 118 54 171 102 53 14 12 9 0 0 0 0 0 0 0 0 0 
0 0 0 0 0 0 0 0 0 0 0 0 0 0 0 0 0 0 0 0 0 0 0 0 
0 0 0 0 0 0 0 0 0 0 0 0 0 0 0 0 0 0 0 0 0 0 0 0 
0 0 0 0 0 0 0 0 0 0 0 0 0 0 0 0 0 0 0 0 0 0 0 0 
0 0 0 0 0 0 0 0 0 0 0 0 0 0 0 
0 0 0 0 0 0 0 0 0 0 0 0 0 0 0 0 0 0 0 0 0 0 0 0 
0 0 0 0 0 0 0 0 0 0 0 0 0 0 0 0 0 0 0 0 0 0 0 0 
0 0 0 0 0 0 150 107 67 186 105 52 174 91 37 204 121 49 211 133 62 224 164 97 
226 171 121 226 171 121 216 171 108 213 154 88 213 146 78 208 128 56 207 130 56 208 132 56 
213 140 72 217 145 68 211 132 57 214 147 72 220 149 73 215 133 56 208 128 56 211 139 69 
211 133 62 211 139 69 213 154 88 213 154 88 203 132 65 199 113 42 176 87 19 192 106 35 
208 132 56 213 140 72 215 152 87 225 149 79 211 133 62 214 147 72 211 139 69 214 140 68 
208 128 56 218 138 64 213 146 78 213 140 72 214 147 72 215 149 79 219 154 88 230 161 102 
215 133 56 212 126 52 213 138 64 232 160 86 216 132 59 218 146 78 217 140 68 204 121 49 
207 130 56 213 138 64 211 131 59 211 131 59 213 138 62 216 132 59 216 132 59 204 121 49 
195 105 31 201 121 47 213 138 62 215 149 79 224 164 97 218 146 78 199 107 32 202 111 39 
207 123 49 208 128 56 224 145 73 207 123 56 211 131 59 203 124 65 203 138 65 208 132 56 
201 121 47 208 128 56 213 138 64 207 123 56 211 133 62 207 123 56 188 97 36 188 97 36 
189 96 24 204 121 49 213 138 64 199 121 50 188 97 36 199 113 42 204 113 45 207 123 49 
204 113 45 212 126 52 213 138 62 225 149 79 211 133 62 207 122 42 212 122 46 212 126 52 
211 131 59 207 130 56 219 147 72 212 126 56 219 147 72 218 142 72 201 125 56 192 106 35 
199 113 42 194 110 39 207 123 49 216 132 59 189 96 24 192 106 35 218 138 64 217 140 68 
227 153 72 225 147 66 231 162 84 232 167 93 233 176 102 241 189 121 244 194 126 236 185 115 
228 165 93 203 132 65 171 102 53 140 88 64 0 0 0 0 0 0 0 0 0 0 0 0 
0 0 0 0 0 0 0 0 0 0 0 0 0 0 0 0 0 0 0 0 0 0 0 0 
0 0 0 0 0 0 0 0 0 0 0 0 0 0 0 0 0 0 0 0 0 0 0 0 
0 0 0 0 0 0 0 0 0 0 0 0 0 0 0 0 0 0 0 0 0 0 0 0 
0 0 0 0 0 0 0 0 0 0 0 0 0 0 0 
0 0 0 0 0 0 0 0 0 0 0 0 0 0 0 0 0 0 0 0 0 0 0 0 
0 0 0 0 0 0 0 0 0 0 0 0 0 0 0 0 0 0 0 0 0 0 0 0 
0 0 0 0 0 0 150 118 91 182 118 54 188 97 36 192 106 35 201 125 56 213 154 88 
203 155 97 225 181 124 216 167 99 213 154 88 213 154 88 213 140 72 211 131 59 211 132 57 
204 121 49 218 142 72 215 149 79 214 147 72 223 153 76 219 138 59 212 127 48 213 138 62 
204 143 74 219 154 88 215 163 108 224 169 105 227 158 93 210 133 67 216 133 65 192 106 35 
192 106 35 194 110 39 202 131 56 211 139 69 214 140 68 213 138 64 213 140 72 215 149 79 
213 138 64 213 138 62 213 146 78 224 164 97 223 159 90 219 147 72 219 147 72 218 142 72 
211 132 57 217 140 68 207 130 56 212 126 52 218 138 64 213 138 64 207 123 49 208 128 56 
217 140 68 211 131 59 201 121 47 207 130 56 211 133 62 213 138 64 208 128 56 211 131 59 
204 121 49 204 121 49 211 132 57 199 113 42 201 121 47 211 131 59 204 121 49 207 123 49 
207 123 49 211 132 57 213 138 64 208 128 56 207 130 56 203 138 65 210 133 67 207 123 49 
204 121 49 199 113 42 202 111 39 199 114 47 192 106 35 176 87 19 189 96 24 204 113 45 
202 113 34 208 128 56 203 138 65 213 146 78 214 140 68 216 133 65 212 126 52 212 126 56 
202 111 39 195 105 31 199 113 42 211 131 59 204 113 45 204 121 49 199 107 32 202 111 39 
195 105 31 204 113 45 213 138 64 218 146 78 214 147 72 213 138 64 210 133 67 210 133 67 
207 123 49 207 123 49 204 113 45 212 126 52 207 123 49 199 114 47 207 123 49 215 133 56 
225 147 66 228 153 76 228 155 79 235 165 90 233 176 102 243 194 131 244 194 126 233 182 111 
228 162 90 199 121 50 171 102 53 104 64 29 0 0 0 0 0 0 0 0 0 0 0 0 
0 0 0 0 0 0 0 0 0 0 0 0 0 0 0 0 0 0 0 0 0 0 0 0 
0 0 0 0 0 0 0 0 0 0 0 0 0 0 0 0 0 0 0 0 0 0 0 0 
0 0 0 0 0 0 0 0 0 0 0 0 0 0 0 0 0 0 0 0 0 0 0 0 
0 0 0 0 0 0 0 0 0 0 0 0 0 0 0 
0 0 0 0 0 0 0 0 0 0 0 0 0 0 0 0 0 0 0 0 0 0 0 0 
0 0 0 0 0 0 0 0 0 0 0 0 0 0 0 0 0 0 0 0 0 0 0 0 
0 0 0 0 0 0 182 138 96 194 120 52 176 87 19 188 97 36 199 114 47 211 139 69 
213 154 88 225 181 124 227 181 116 215 163 108 213 154 88 224 164 97 207 130 56 199 121 50 
218 138 64 208 132 56 217 145 68 214 151 79 219 147 72 211 132 57 216 132 52 211 132 50 
208 132 56 213 146 78 215 162 99 224 169 105 225 169 100 224 164 97 223 155 79 217 140 68 
213 138 62 194 110 39 203 132 65 215 149 79 222 153 84 212 126 52 213 138 62 219 147 72 
220 155 77 222 153 84 214 147 72 214 147 72 217 145 68 219 147 72 225 149 79 213 138 62 
217 145 68 215 152 87 213 146 78 213 140 72 207 123 56 218 138 64 207 122 42 207 122 42 
207 123 49 207 123 49 223 140 64 211 133 62 222 153 84 223 159 90 222 153 84 217 140 68 
211 133 62 214 140 68 211 133 62 207 123 49 199 113 42 199 113 42 199 113 42 199 107 32 
207 123 49 208 128 56 204 121 49 201 121 47 192 106 35 192 106 35 192 106 35 203 132 65 
194 110 39 192 106 35 204 113 45 207 123 56 207 123 49 188 97 36 189 96 24 199 113 42 
207 123 49 211 131 59 213 138 64 222 153 84 227 154 85 212 126 52 212 126 52 201 121 42 
204 121 49 207 123 49 211 132 57 211 131 59 211 131 59 208 128 56 192 106 35 199 113 42 
199 113 42 207 123 49 207 123 49 208 128 56 207 123 49 204 121 49 218 142 72 211 131 59 
199 113 42 199 113 42 212 122 46 202 113 34 207 123 49 211 132 57 223 140 64 215 133 56 
219 138 59 219 147 72 228 155 79 235 170 94 238 183 111 243 194 131 244 194 126 233 182 111 
222 153 84 194 120 52 171 102 53 51 29 18 0 0 0 0 0 0 0 0 0 0 0 0 
0 0 0 0 0 0 0 0 0 0 0 0 0 0 0 0 0 0 0 0 0 0 0 0 
0 0 0 0 0 0 0 0 0 0 0 0 0 0 0 0 0 0 0 0 0 0 0 0 
0 0 0 0 0 0 0 0 0 0 0 0 0 0 0 0 0 0 0 0 0 0 0 0 
0 0 0 0 0 0 0 0 0 0 0 0 0 0 0 
0 0 0 0 0 0 0 0 0 0 0 0 0 0 0 0 0 0 0 0 0 0 0 0 
0 0 0 0 0 0 0 0 0 0 0 0 0 0 0 0 0 0 0 0 0 0 0 0 
0 0 0 0 0 0 182 138 96 210 133 67 194 110 39 199 113 42 208 128 56 213 146 78 
226 169 111 225 181 124 215 163 108 203 155 97 213 154 88 219 154 88 213 140 72 214 147 72 
212 127 48 207 130 56 211 139 69 219 147 72 222 153 84 223 155 79 219 146 68 225 147 66 
208 132 56 201 121 47 213 138 62 217 145 68 217 145 68 222 153 84 220 160 88 224 164 97 
224 169 105 215 152 87 218 146 78 222 153 84 214 149 73 225 149 79 212 142 64 220 149 73 
225 153 79 225 149 79 211 133 62 217 145 68 225 148 73 217 145 68 218 142 72 218 138 64 
219 147 72 219 154 88 220 160 88 224 164 97 223 160 87 219 146 68 216 132 52 215 133 56 
216 132 59 208 132 56 207 123 49 212 122 46 213 138 64 214 149 73 218 142 72 201 121 47 
204 121 49 201 121 42 212 126 52 211 132 57 214 140 68 204 121 49 189 96 24 199 107 32 
199 113 42 207 122 42 207 123 49 201 125 56 199 121 50 207 123 56 188 97 36 201 119 56 
201 125 56 204 121 49 194 110 39 199 113 42 201 125 56 211 133 62 211 131 59 204 121 49 
189 96 24 176 87 19 192 106 35 207 123 49 199 113 42 199 107 32 204 113 45 204 121 49 
204 121 49 202 111 39 195 105 31 199 107 32 189 96 24 204 113 45 203 132 65 218 142 72 
208 132 56 212 126 52 212 126 52 202 113 34 212 122 46 212 126 52 211 133 62 201 121 47 
199 113 42 207 123 49 204 113 45 204 121 49 201 121 42 215 133 56 218 138 64 212 127 48 
216 132 52 223 140 64 219 146 68 231 166 86 236 185 115 245 200 134 244 194 126 236 185 115 
225 159 90 201 119 56 171 102 53 51 29 18 0 0 0 0 0 0 0 0 0 0 0 0 
0 0 0 0 0 0 0 0 0 0 0 0 0 0 0 0 0 0 0 0 0 0 0 0 
0 0 0 0 0 0 0 0 0 0 0 0 0 0 0 0 0 0 0 0 0 0 0 0 
0 0 0 0 0 0 0 0 0 0 0 0 0 0 0 0 0 0 0 0 0 0 0 0 
0 0 0 0 0 0 0 0 0 0 0 0 0 0 0 
0 0 0 0 0 0 0 0 0 0 0 0 0 0 0 0 0 0 0 0 0 0 0 0 
0 0 0 0 0 0 0 0 0 0 0 0 0 0 0 0 0 0 0 0 0 0 0 0 
0 0 0 0 0 0 181 117 87 210 133 67 213 140 72 207 123 49 212 126 52 214 147 72 
215 163 108 227 181 116 203 155 97 203 155 97 213 154 88 214 140 68 217 145 68 211 139 69 
208 132 56 213 138 64 215 149 79 222 153 84 223 160 87 225 170 96 228 166 90 226 161 86 
224 164 90 223 160 87 228 153 76 220 149 73 218 144 61 223 160 87 225 169 100 225 169 100 
227 177 111 224 169 105 214 159 92 219 154 88 225 167 94 227 177 111 227 177 111 225 169 100 
223 160 87 220 155 77 223 153 71 223 153 71 219 138 59 213 139 58 219 138 59 213 138 64 
211 132 57 213 138 62 223 160 87 223 160 87 217 145 68 219 138 59 215 133 56 211 132 57 
207 130 56 217 140 68 217 140 68 207 123 49 208 128 56 212 142 64 213 138 62 219 138 59 
212 126 52 204 113 45 207 123 49 207 122 42 207 130 56 208 132 56 212 126 56 204 113 45 
213 138 64 213 138 62 213 138 64 218 142 72 215 133 56 208 128 56 192 106 35 199 113 42 
194 110 39 189 96 24 204 113 45 212 126 56 213 138 64 213 138 64 208 128 56 216 133 65 
212 126 56 188 97 36 202 111 39 202 111 39 204 113 45 207 123 49 211 131 59 207 122 42 
204 113 45 195 105 31 195 105 31 199 114 47 192 106 35 204 121 49 203 132 65 194 110 39 
213 138 64 217 140 68 223 140 64 207 122 42 212 122 46 202 113 34 199 113 42 204 113 45 
202 111 39 189 96 24 204 113 45 212 126 52 199 107 32 212 122 46 204 113 45 212 122 46 
215 133 56 212 127 48 217 145 68 236 175 100 241 189 121 244 194 126 244 194 126 237 181 114 
213 146 78 201 119 56 179 108 68 2 1 1 0 0 0 0 0 0 0 0 0 0 0 0 
0 0 0 0 0 0 0 0 0 0 0 0 0 0 0 0 0 0 0 0 0 0 0 0 
0 0 0 0 0 0 0 0 0 0 0 0 0 0 0 0 0 0 0 0 0 0 0 0 
0 0 0 0 0 0 0 0 0 0 0 0 0 0 0 0 0 0 0 0 0 0 0 0 
0 0 0 0 0 0 0 0 0 0 0 0 0 0 0 
0 0 0 0 0 0 0 0 0 0 0 0 0 0 0 0 0 0 0 0 0 0 0 0 
0 0 0 0 0 0 0 0 0 0 0 0 0 0 0 0 0 0 0 0 0 0 0 0 
0 0 0 0 0 0 183 124 67 210 133 67 225 149 79 213 138 62 215 133 56 223 153 76 
216 167 99 216 171 108 216 171 108 224 169 105 213 154 88 213 154 88 214 151 79 214 147 72 
214 151 79 219 154 88 214 151 79 220 160 88 223 160 87 230 170 95 224 161 84 226 174 99 
225 172 107 224 169 105 225 169 100 225 167 94 226 174 99 225 169 100 226 174 103 227 180 112 
227 177 111 227 181 116 227 186 126 234 188 126 231 187 126 227 181 116 231 187 126 233 182 111 
225 170 96 231 162 84 223 153 71 215 152 87 220 160 88 228 165 93 214 149 73 226 161 86 
220 149 73 213 138 62 212 142 64 220 149 73 223 153 76 219 146 68 215 149 79 214 147 72 
219 147 72 213 139 58 218 144 61 218 138 64 220 149 73 219 147 72 214 147 72 211 131 59 
213 138 62 217 145 68 211 132 50 216 132 59 211 132 57 207 130 56 204 121 49 192 106 35 
207 123 49 211 133 62 216 132 59 208 132 56 207 123 49 211 133 62 201 125 56 194 110 39 
199 113 42 199 114 47 194 110 39 204 121 49 207 130 56 208 128 56 199 107 32 211 133 62 
218 146 78 218 146 78 207 122 42 208 128 56 207 123 49 204 113 45 201 121 47 207 122 42 
199 113 42 201 121 47 201 125 56 201 125 56 207 130 56 189 96 24 199 113 42 194 110 39 
218 142 72 219 146 68 219 138 59 212 126 52 212 122 46 207 122 42 212 122 46 208 128 56 
212 126 56 199 113 42 192 106 35 189 96 24 202 111 39 195 105 31 202 111 39 212 126 52 
216 132 59 211 132 57 224 161 84 236 175 100 238 186 115 244 194 126 231 177 107 231 175 99 
211 133 62 201 119 56 150 107 67 0 0 0 0 0 0 0 0 0 0 0 0 0 0 0 
0 0 0 0 0 0 0 0 0 0 0 0 0 0 0 0 0 0 0 0 0 0 0 0 
0 0 0 0 0 0 0 0 0 0 0 0 0 0 0 0 0 0 0 0 0 0 0 0 
0 0 0 0 0 0 0 0 0 0 0 0 0 0 0 0 0 0 0 0 0 0 0 0 
0 0 0 0 0 0 0 0 0 0 0 0 0 0 0 
0 0 0 0 0 0 0 0 0 0 0 0 0 0 0 0 0 0 0 0 0 0 0 0 
0 0 0 0 0 0 0 0 0 0 0 0 0 0 0 0 0 0 0 0 0 0 0 0 
0 0 0 0 0 0 183 124 67 199 121 50 223 159 90 217 145 68 223 153 76 228 165 93 
216 167 99 224 169 105 226 169 111 215 162 99 214 159 92 214 159 92 216 167 99 215 162 99 
224 164 90 215 152 87 204 143 74 225 169 100 225 169 100 230 173 107 231 175 99 225 169 100 
231 177 107 232 187 121 231 185 116 227 177 111 227 180 112 227 180 112 231 185 116 231 185 116 
227 177 111 235 193 134 233 196 142 232 201 151 233 196 142 242 202 151 243 201 146 227 181 116 
226 174 99 231 175 99 230 170 95 225 169 100 233 177 111 233 177 111 224 164 90 223 160 87 
223 155 79 223 155 79 219 146 68 220 149 73 223 153 76 215 133 56 218 138 64 219 146 68 
214 147 72 225 153 79 219 138 59 215 133 56 204 121 49 211 132 57 222 153 84 228 165 93 
223 160 87 220 155 77 218 144 61 213 139 58 225 148 73 218 146 78 218 146 78 213 138 62 
213 138 64 211 131 59 212 126 52 208 128 56 217 140 68 202 111 39 199 114 47 207 130 56 
204 121 49 194 110 39 211 139 69 214 147 72 213 146 78 215 152 87 201 119 56 207 123 49 
207 130 56 211 133 62 201 121 42 199 113 42 202 111 39 202 111 39 194 110 39 201 121 42 
204 113 45 199 107 32 208 128 56 211 139 69 213 140 72 213 140 72 195 105 31 199 113 42 
217 140 68 217 140 68 212 126 56 211 132 57 204 113 45 199 107 32 204 113 45 199 114 47 
189 96 24 188 97 36 204 113 45 189 96 24 176 87 19 202 111 39 212 126 52 213 138 62 
218 138 64 207 130 56 235 170 94 233 176 102 241 189 121 241 189 121 238 183 111 226 161 86 
199 114 47 186 105 52 108 79 55 0 0 0 0 0 0 0 0 0 0 0 0 0 0 0 
0 0 0 0 0 0 0 0 0 0 0 0 0 0 0 0 0 0 0 0 0 0 0 0 
0 0 0 0 0 0 0 0 0 0 0 0 0 0 0 0 0 0 0 0 0 0 0 0 
0 0 0 0 0 0 0 0 0 0 0 0 0 0 0 0 0 0 0 0 0 0 0 0 
0 0 0 0 0 0 0 0 0 0 0 0 0 0 0 
0 0 0 0 0 0 0 0 0 0 0 0 0 0 0 0 0 0 0 0 0 0 0 0 
0 0 0 0 0 0 0 0 0 0 0 0 0 0 0 0 0 0 0 0 0 0 0 0 
0 0 0 0 0 0 181 117 87 210 133 67 222 153 84 225 153 79 228 155 79 228 165 93 
224 169 105 216 171 108 216 171 108 214 159 92 204 143 74 213 154 88 224 164 97 225 169 100 
225 170 96 220 160 88 219 154 88 220 160 88 216 167 99 231 187 126 232 187 121 227 177 111 
227 181 116 227 186 126 234 188 126 227 181 116 227 181 116 227 181 116 227 181 116 225 181 124 
218 182 128 232 201 151 232 201 151 232 201 151 232 201 151 232 201 151 236 198 150 230 193 135 
230 193 135 230 193 135 235 193 134 232 187 121 236 185 115 233 176 102 225 167 94 232 167 93 
226 161 86 223 153 71 223 153 71 220 149 73 219 146 68 219 138 59 223 153 76 220 149 73 
223 160 87 219 147 72 218 138 64 212 142 64 217 145 68 219 147 72 223 159 90 225 153 79 
212 142 64 215 149 79 219 154 88 223 153 76 219 147 72 220 155 77 227 154 85 213 138 62 
213 139 58 218 138 64 207 123 49 207 123 56 208 128 56 195 105 31 195 105 31 204 121 49 
211 133 62 211 131 59 208 128 56 210 133 67 213 138 64 211 131 59 207 123 49 208 128 56 
211 132 50 211 132 50 213 138 62 216 132 59 202 111 39 201 121 42 202 111 39 199 113 42 
201 121 42 204 121 49 207 123 56 203 132 65 218 146 78 222 153 84 199 107 32 202 111 39 
207 123 56 199 113 42 204 121 49 212 126 52 199 113 42 199 113 42 192 106 35 204 113 45 
195 105 31 189 96 24 204 113 45 199 113 42 176 87 19 189 96 24 204 113 45 207 123 49 
201 125 56 211 133 62 226 161 86 225 169 100 244 194 126 244 194 126 231 175 99 225 149 79 
183 105 36 186 105 52 108 79 55 0 0 0 0 0 0 0 0 0 0 0 0 0 0 0 
0 0 0 0 0 0 0 0 0 0 0 0 0 0 0 0 0 0 0 0 0 0 0 0 
0 0 0 0 0 0 0 0 0 0 0 0 0 0 0 0 0 0 0 0 0 0 0 0 
0 0 0 0 0 0 0 0 0 0 0 0 0 0 0 0 0 0 0 0 0 0 0 0 
0 0 0 0 0 0 0 0 0 0 0 0 0 0 0 
0 0 0 0 0 0 0 0 0 0 0 0 0 0 0 0 0 0 0 0 0 0 0 0 
0 0 0 0 0 0 0 0 0 0 0 0 0 0 0 0 0 0 0 0 0 0 0 0 
0 0 0 0 0 0 150 107 67 213 140 72 227 154 85 232 167 93 226 161 86 225 169 100 
224 169 105 225 172 107 225 169 100 216 167 99 214 159 92 224 169 105 225 172 107 226 174 103 
226 174 103 225 172 107 227 177 111 227 180 112 225 181 124 231 187 126 235 193 134 232 187 136 
227 186 126 239 195 141 239 194 135 239 194 126 235 193 134 239 194 135 239 195 141 233 196 142 
236 204 151 232 201 151 237 204 161 236 204 151 237 204 161 240 211 161 241 214 169 232 201 151 
225 186 132 227 195 142 236 198 150 233 196 142 234 188 126 233 182 111 233 180 114 226 161 86 
224 161 84 230 170 95 223 155 79 228 155 79 223 153 76 222 153 84 230 170 95 224 161 84 
220 155 77 223 155 79 219 147 72 220 155 77 223 160 87 225 159 90 223 159 90 219 138 59 
219 138 59 208 132 56 211 132 57 219 147 72 223 155 79 223 160 87 225 169 100 220 160 88 
223 155 79 211 132 57 212 127 48 214 140 68 219 147 72 218 138 64 201 121 42 208 128 56 
213 138 64 207 123 56 189 96 24 199 113 42 201 121 47 202 111 39 199 107 32 212 127 48 
208 132 56 211 132 50 219 138 59 213 139 58 215 133 56 216 132 52 212 122 46 204 113 45 
207 123 49 202 131 56 213 140 72 199 121 50 199 121 50 211 131 59 204 121 49 194 110 39 
199 113 42 204 121 49 204 113 45 202 111 39 202 111 39 199 113 42 189 96 24 192 106 35 
199 113 42 189 96 24 199 113 42 204 121 49 194 110 39 207 123 49 199 107 32 212 122 46 
208 132 56 217 145 68 226 161 86 233 169 102 241 189 121 238 183 111 224 160 78 217 140 68 
183 105 36 179 108 68 51 29 18 0 0 0 0 0 0 0 0 0 0 0 0 0 0 0 
0 0 0 0 0 0 0 0 0 0 0 0 0 0 0 0 0 0 0 0 0 0 0 0 
0 0 0 0 0 0 0 0 0 0 0 0 0 0 0 0 0 0 0 0 0 0 0 0 
0 0 0 0 0 0 0 0 0 0 0 0 0 0 0 0 0 0 0 0 0 0 0 0 
0 0 0 0 0 0 0 0 0 0 0 0 0 0 0 
0 0 0 0 0 0 0 0 0 0 0 0 0 0 0 0 0 0 0 0 0 0 0 0 
0 0 0 0 0 0 0 0 0 0 0 0 0 0 0 0 0 0 0 0 0 0 0 0 
0 0 0 0 0 0 55 53 51 210 133 67 213 140 72 225 149 79 227 154 85 223 160 87 
204 143 74 225 181 124 227 181 116 224 169 105 216 167 99 224 169 105 227 177 111 227 186 126 
227 180 112 224 169 105 231 185 116 231 187 126 235 193 134 225 181 124 232 187 136 232 187 121 
227 181 116 230 193 135 231 187 126 239 195 141 231 187 126 235 193 134 238 199 142 236 204 151 
241 214 169 225 188 139 225 188 139 237 204 161 232 201 151 229 195 150 237 204 161 237 204 161 
240 211 161 229 195 150 225 186 132 225 181 124 235 193 134 235 193 134 234 188 126 227 181 116 
225 172 107 227 178 107 228 162 90 223 153 76 225 169 100 231 177 107 233 176 102 226 161 86 
231 162 84 223 160 87 219 154 88 223 159 90 224 164 97 222 153 84 222 153 84 223 153 76 
219 146 68 219 146 68 222 153 84 223 160 87 223 160 87 222 153 84 220 160 88 224 164 97 
230 173 107 227 154 85 219 138 59 216 132 52 214 147 72 218 146 78 218 142 72 217 140 68 
213 138 64 207 123 49 194 110 39 195 105 31 208 132 56 219 138 59 207 122 42 215 133 56 
215 133 56 215 133 56 207 122 42 207 122 42 212 127 48 207 122 42 207 122 42 207 122 42 
204 113 45 210 133 67 213 140 72 199 113 42 199 114 47 208 128 56 211 131 59 204 121 49 
199 114 47 194 110 39 189 96 24 192 106 35 202 111 39 189 96 24 195 105 31 199 114 47 
211 133 62 189 96 24 195 105 31 192 106 35 212 126 56 216 132 59 215 133 56 207 123 49 
213 138 64 230 170 95 228 162 90 235 170 94 239 181 106 234 180 107 227 154 85 212 126 56 
183 105 36 156 92 61 0 0 0 0 0 0 0 0 0 0 0 0 0 0 0 0 0 0 
0 0 0 0 0 0 0 0 0 0 0 0 0 0 0 0 0 0 0 0 0 0 0 0 
0 0 0 0 0 0 0 0 0 0 0 0 0 0 0 0 0 0 0 0 0 0 0 0 
0 0 0 0 0 0 0 0 0 0 0 0 0 0 0 0 0 0 0 0 0 0 0 0 
0 0 0 0 0 0 0 0 0 0 0 0 0 0 0 
0 0 0 0 0 0 0 0 0 0 0 0 0 0 0 0 0 0 0 0 0 0 0 0 
0 0 0 0 0 0 0 0 0 0 0 0 0 0 0 0 0 0 0 0 0 0 0 0 
0 0 0 0 0 0 0 0 0 171 102 53 201 125 56 218 138 64 218 138 64 219 147 72 
219 154 88 227 177 111 232 187 121 227 177 111 225 172 107 216 171 108 227 181 116 231 187 126 
231 187 126 225 172 107 227 195 142 233 196 142 233 196 142 218 182 128 225 181 124 235 193 134 
216 171 108 226 171 121 225 181 124 227 186 126 227 195 142 236 204 151 236 204 151 232 201 151 
232 201 151 232 201 151 218 182 128 229 195 150 229 195 150 229 195 150 232 201 151 237 204 161 
232 201 151 227 195 142 240 211 161 236 204 151 238 199 142 235 193 134 235 193 134 235 193 134 
235 193 134 231 187 126 233 177 111 224 164 90 226 174 103 237 181 114 233 180 114 231 177 107 
225 170 96 228 166 90 224 164 90 225 170 96 230 173 107 228 165 93 226 161 86 226 161 86 
225 153 79 219 138 59 222 153 84 220 160 88 217 145 68 228 165 93 233 169 102 228 162 90 
228 162 90 228 162 90 224 145 73 211 132 57 215 149 79 223 160 87 220 149 73 216 133 65 
213 139 58 215 133 56 215 133 56 216 133 65 207 130 56 211 133 62 223 140 64 216 132 52 
207 122 42 202 113 34 207 122 42 216 132 52 219 138 59 212 122 46 208 128 56 213 138 62 
204 121 49 194 110 39 176 87 19 195 105 31 192 106 35 199 114 47 204 121 49 207 123 56 
211 133 62 211 131 59 192 106 35 204 113 45 194 110 39 192 106 35 195 105 31 199 107 32 
199 113 42 207 123 56 195 105 31 202 111 39 207 122 42 215 133 56 219 146 68 216 132 52 
215 133 56 232 167 93 223 160 87 239 181 106 239 181 106 238 183 111 225 148 73 204 121 49 
188 97 36 137 77 46 0 0 0 0 0 0 0 0 0 0 0 0 0 0 0 0 0 0 
0 0 0 0 0 0 0 0 0 0 0 0 0 0 0 0 0 0 0 0 0 0 0 0 
0 0 0 0 0 0 0 0 0 0 0 0 0 0 0 0 0 0 0 0 0 0 0 0 
0 0 0 0 0 0 0 0 0 0 0 0 0 0 0 0 0 0 0 0 0 0 0 0 
0 0 0 0 0 0 0 0 0 0 0 0 0 0 0 
0 0 0 0 0 0 0 0 0 0 0 0 0 0 0 0 0 0 0 0 0 0 0 0 
0 0 0 0 0 0 0 0 0 0 0 0 0 0 0 0 0 0 0 0 0 0 0 0 
0 0 0 0 0 0 0 0 0 51 29 18 203 124 65 210 133 67 216 132 59 208 128 56 
214 147 72 214 159 92 225 169 100 224 169 105 224 169 105 216 171 108 215 166 116 232 187 136 
236 198 150 233 196 142 232 201 151 227 195 142 236 198 150 236 198 150 233 196 142 236 204 151 
230 193 135 230 193 135 227 195 142 233 196 142 236 204 151 233 196 142 233 196 142 227 195 142 
225 188 139 240 211 161 229 195 150 237 204 161 229 195 150 237 204 161 241 214 169 240 211 161 
237 204 161 232 201 151 240 211 161 236 204 151 225 186 132 232 187 136 233 196 142 233 196 142 
238 192 132 231 187 126 227 181 116 226 174 103 226 161 86 220 149 73 224 164 97 227 180 112 
231 177 107 226 174 99 225 170 96 225 169 100 225 167 94 220 160 88 214 149 73 214 151 79 
222 153 84 220 149 73 220 149 73 228 165 93 225 169 100 230 173 107 225 169 100 226 161 86 
223 155 79 231 161 79 223 153 76 213 138 62 213 146 68 214 151 79 223 160 87 225 153 79 
219 138 59 218 144 61 215 133 56 213 138 64 225 149 79 217 140 68 207 123 49 207 122 42 
215 133 56 212 127 48 212 127 48 202 113 34 207 122 42 204 121 49 208 132 56 214 140 68 
211 139 69 199 114 47 188 97 36 192 106 35 189 96 24 189 96 24 189 96 24 188 97 36 
194 110 39 199 113 42 199 107 32 194 110 39 208 128 56 199 113 42 189 96 24 189 96 24 
192 106 35 194 110 39 189 96 24 199 107 32 207 122 42 212 126 52 225 148 73 225 147 66 
228 153 76 228 166 90 228 165 93 239 181 106 236 175 100 238 176 102 219 146 68 194 110 39 
174 91 37 104 64 29 0 0 0 0 0 0 0 0 0 0 0 0 0 0 0 0 0 0 
0 0 0 0 0 0 0 0 0 0 0 0 0 0 0 0 0 0 0 0 0 0 0 0 
0 0 0 0 0 0 0 0 0 0 0 0 0 0 0 0 0 0 0 0 0 0 0 0 
0 0 0 0 0 0 0 0 0 0 0 0 0 0 0 0 0 0 0 0 0 0 0 0 
0 0 0 0 0 0 0 0 0 0 0 0 0 0 0 
0 0 0 0 0 0 0 0 0 0 0 0 0 0 0 0 0 0 0 0 0 0 0 0 
0 0 0 0 0 0 0 0 0 0 0 0 0 0 0 0 0 0 0 0 0 0 0 0 
0 0 0 0 0 0 0 0 0 0 0 0 104 64 29 201 119 56 199 113 42 204 113 45 
211 133 62 214 147 72 218 146 78 215 152 87 215 162 99 224 169 105 227 177 111 227 186 126 
236 198 150 236 204 151 237 204 161 233 196 142 232 201 151 232 201 151 232 201 151 236 198 150 
236 204 151 236 204 151 236 204 151 227 195 142 237 204 161 236 204 151 227 195 142 229 195 150 
227 195 142 232 201 151 237 204 161 229 195 150 237 204 161 229 195 150 225 188 139 227 195 142 
229 195 150 232 201 151 232 201 151 227 195 142 232 201 151 237 204 161 236 204 151 238 199 142 
232 187 121 231 185 116 227 177 111 225 169 100 228 166 90 223 153 76 224 161 84 225 169 100 
230 173 107 224 161 84 223 155 79 223 155 79 225 167 94 227 177 111 231 177 107 225 169 100 
224 164 97 215 156 78 218 144 61 223 153 71 226 161 86 225 169 100 233 177 111 230 173 107 
225 172 107 224 164 90 228 166 90 223 160 87 215 149 79 223 160 87 227 154 85 217 140 68 
225 148 73 215 133 56 212 122 46 207 123 49 214 140 68 214 149 73 216 132 59 207 122 42 
208 128 56 212 126 56 202 113 34 212 122 46 207 122 42 195 105 31 199 114 47 218 146 78 
219 154 88 207 123 56 192 106 35 189 96 24 189 96 24 192 106 35 195 105 31 189 96 24 
195 105 31 195 105 31 199 113 42 199 114 47 192 106 35 176 87 19 192 106 35 199 113 42 
192 106 35 176 87 19 204 113 45 207 123 49 215 133 56 217 140 68 230 173 107 235 170 94 
232 167 93 222 153 84 236 175 100 238 176 102 235 170 94 235 165 90 213 138 62 183 105 36 
171 102 53 51 29 18 0 0 0 0 0 0 0 0 0 0 0 0 0 0 0 0 0 0 
0 0 0 0 0 0 0 0 0 0 0 0 0 0 0 0 0 0 0 0 0 0 0 0 
0 0 0 0 0 0 0 0 0 0 0 0 0 0 0 0 0 0 0 0 0 0 0 0 
0 0 0 0 0 0 0 0 0 0 0 0 0 0 0 0 0 0 0 0 0 0 0 0 
0 0 0 0 0 0 0 0 0 0 0 0 0 0 0 
0 0 0 0 0 0 0 0 0 0 0 0 0 0 0 0 0 0 0 0 0 0 0 0 
0 0 0 0 0 0 0 0 0 0 0 0 0 0 0 0 0 0 0 0 0 0 0 0 
0 0 0 0 0 0 0 0 0 0 0 0 14 12 9 171 102 53 199 113 42 194 110 39 
194 110 39 211 131 59 203 132 65 201 125 56 224 169 105 227 181 116 225 181 124 225 181 124 
230 193 135 229 195 150 232 201 151 236 204 151 218 182 128 232 201 151 229 195 150 232 201 151 
227 195 142 229 195 150 236 198 150 236 204 151 232 201 151 236 204 151 233 196 142 229 195 150 
237 204 161 237 204 161 240 211 161 227 195 142 227 195 142 232 201 151 227 195 142 225 188 139 
225 188 139 225 188 139 218 182 128 229 195 150 237 204 161 237 204 161 236 198 150 233 196 142 
227 181 116 227 181 116 225 181 124 227 180 112 226 174 103 231 175 99 225 167 94 224 164 97 
224 164 90 223 153 76 213 139 58 212 142 64 213 146 68 224 164 90 224 169 105 236 185 115 
238 178 111 231 175 99 225 169 100 226 174 103 230 170 95 228 166 90 220 160 88 225 172 107 
239 194 135 238 189 126 237 181 114 233 176 102 228 165 93 220 155 77 228 162 90 223 160 87 
213 138 64 212 127 48 202 113 34 212 122 46 211 132 57 213 140 72 201 121 47 207 123 49 
208 132 56 217 140 68 195 105 31 202 111 39 207 123 49 201 121 42 212 126 56 201 121 47 
204 121 49 204 121 49 207 123 49 201 121 47 194 110 39 192 106 35 199 113 42 192 106 35 
199 114 47 192 106 35 194 110 39 194 110 39 207 123 56 199 121 50 211 133 62 210 133 67 
204 113 45 189 96 24 207 123 56 207 122 42 212 126 52 222 153 84 238 186 115 231 166 86 
224 161 84 214 151 79 238 186 115 241 189 121 231 175 99 228 155 79 217 140 68 176 87 19 
137 77 46 0 0 0 0 0 0 0 0 0 0 0 0 0 0 0 0 0 0 0 0 0 
0 0 0 0 0 0 0 0 0 0 0 0 0 0 0 0 0 0 0 0 0 0 0 0 
0 0 0 0 0 0 0 0 0 0 0 0 0 0 0 0 0 0 0 0 0 0 0 0 
0 0 0 0 0 0 0 0 0 0 0 0 0 0 0 0 0 0 0 0 0 0 0 0 
0 0 0 0 0 0 0 0 0 0 0 0 0 0 0 
0 0 0 0 0 0 0 0 0 0 0 0 0 0 0 0 0 0 0 0 0 0 0 0 
0 0 0 0 0 0 0 0 0 0 0 0 0 0 0 0 0 0 0 0 0 0 0 0 
0 0 0 0 0 0 0 0 0 0 0 0 0 0 0 51 29 18 183 124 67 194 110 39 
195 105 31 194 110 39 211 133 62 213 140 72 218 142 72 214 147 72 225 169 100 226 169 111 
233 196 142 227 195 142 233 196 142 225 188 139 236 198 150 232 187 136 215 162 99 225 186 132 
225 188 139 218 182 128 233 196 142 236 204 151 236 204 151 229 195 150 227 195 142 229 195 150 
237 204 161 229 195 150 237 204 161 237 204 161 232 201 151 237 204 161 229 195 150 237 204 161 
225 188 139 225 186 132 225 188 139 237 204 161 232 201 151 236 204 151 225 188 139 230 193 135 
231 187 126 235 193 134 231 187 126 225 172 107 225 172 107 226 174 103 226 174 103 225 167 94 
231 175 99 231 162 84 219 146 68 213 138 62 214 147 72 230 173 107 231 177 107 225 167 94 
228 165 93 230 170 95 225 169 100 226 174 103 231 177 107 230 170 95 230 170 95 231 177 107 
231 185 116 232 187 121 225 172 107 228 165 93 224 161 84 226 161 86 223 160 87 228 162 90 
231 166 86 225 153 79 215 133 56 217 140 68 211 132 57 211 131 59 214 140 68 204 121 49 
213 138 64 211 131 59 207 123 49 212 126 52 211 132 57 211 132 57 218 142 72 208 128 56 
204 113 45 189 96 24 199 121 50 201 125 56 204 121 49 204 121 49 194 110 39 189 96 24 
189 96 24 189 96 24 194 110 39 192 106 35 199 113 42 199 113 42 204 121 49 204 113 45 
202 111 39 189 96 24 204 113 45 215 133 56 213 138 62 224 164 97 238 186 115 223 153 76 
215 156 78 224 169 105 239 194 126 238 186 115 232 167 93 219 146 68 194 110 39 174 91 37 
104 64 29 0 0 0 0 0 0 0 0 0 0 0 0 0 0 0 0 0 0 0 0 0 
0 0 0 0 0 0 0 0 0 0 0 0 0 0 0 0 0 0 0 0 0 0 0 0 
0 0 0 0 0 0 0 0 0 0 0 0 0 0 0 0 0 0 0 0 0 0 0 0 
0 0 0 0 0 0 0 0 0 0 0 0 0 0 0 0 0 0 0 0 0 0 0 0 
0 0 0 0 0 0 0 0 0 0 0 0 0 0 0 
0 0 0 0 0 0 0 0 0 0 0 0 0 0 0 0 0 0 0 0 0 0 0 0 
0 0 0 0 0 0 0 0 0 0 0 0 0 0 0 0 0 0 0 0 0 0 0 0 
0 0 0 0 0 0 0 0 0 0 0 0 0 0 0 0 0 0 2 1 1 150 107 67 
203 136 90 204 121 49 204 121 49 207 123 49 199 113 42 217 140 68 222 153 84 223 159 90 
224 169 105 224 169 105 216 171 108 227 186 126 225 186 132 231 187 126 225 172 107 214 159 92 
215 163 108 225 181 124 225 181 124 230 193 135 235 193 134 230 193 135 236 198 150 232 201 151 
237 204 161 237 204 161 237 204 161 229 195 150 232 201 151 232 201 151 232 201 151 232 201 151 
232 201 151 227 195 142 229 195 150 232 201 151 229 195 150 225 188 139 225 186 132 225 186 132 
225 186 132 230 193 135 230 193 135 225 181 124 225 181 124 227 181 116 227 177 111 216 167 99 
227 178 107 226 174 99 215 156 78 224 161 84 224 161 84 228 166 90 226 174 99 215 160 87 
228 166 90 230 170 95 224 164 90 220 160 88 213 154 88 224 169 105 233 180 114 227 180 112 
233 180 114 234 188 126 231 187 126 233 177 111 228 155 79 223 155 79 224 164 90 230 170 95 
224 145 73 218 146 78 215 149 79 225 153 79 218 138 64 202 113 34 207 123 49 207 123 49 
201 121 42 199 107 32 199 107 32 199 113 42 211 132 57 207 123 49 211 133 62 213 138 64 
207 123 56 189 96 24 188 97 36 192 106 35 204 121 49 204 121 49 192 106 35 201 125 56 
194 110 39 192 106 35 192 106 35 176 87 19 202 111 39 176 87 19 176 87 19 192 106 35 
195 105 31 195 105 31 223 140 64 225 147 66 223 153 76 231 175 99 233 176 102 228 162 90 
225 167 94 238 189 126 243 194 131 238 183 111 235 165 90 211 132 57 174 91 37 171 102 53 
51 29 18 0 0 0 0 0 0 0 0 0 0 0 0 0 0 0 0 0 0 0 0 0 
0 0 0 0 0 0 0 0 0 0 0 0 0 0 0 0 0 0 0 0 0 0 0 0 
0 0 0 0 0 0 0 0 0 0 0 0 0 0 0 0 0 0 0 0 0 0 0 0 
0 0 0 0 0 0 0 0 0 0 0 0 0 0 0 0 0 0 0 0 0 0 0 0 
0 0 0 0 0 0 0 0 0 0 0 0 0 0 0 
0 0 0 0 0 0 0 0 0 0 0 0 0 0 0 0 0 0 0 0 0 0 0 0 
0 0 0 0 0 0 0 0 0 0 0 0 0 0 0 0 0 0 0 0 0 0 0 0 
0 0 0 0 0 0 0 0 0 0 0 0 0 0 0 0 0 0 0 0 0 2 1 1 
51 29 18 150 107 67 203 131 74 199 114 47 192 106 35 207 123 56 211 139 69 219 154 88 
219 154 88 224 164 97 219 154 88 224 164 97 224 164 90 224 164 97 223 160 87 224 164 97 
223 159 90 215 149 79 225 159 90 224 164 97 225 167 94 227 178 107 232 187 121 225 188 139 
225 186 132 225 186 132 225 186 132 233 196 142 227 195 142 225 188 139 236 204 151 232 201 151 
229 195 150 225 188 139 236 198 150 227 195 142 232 201 151 227 195 142 225 188 139 225 188 139 
227 195 142 229 195 150 230 193 135 225 181 124 227 186 126 225 172 107 224 169 105 225 169 100 
226 174 103 230 173 107 225 170 96 226 174 103 227 178 107 236 185 115 234 180 107 228 165 93 
226 161 86 225 170 96 225 172 107 214 159 92 216 171 108 234 188 126 225 181 124 225 172 107 
233 182 111 225 169 100 233 180 114 231 177 107 224 161 84 223 153 76 223 153 76 223 153 76 
207 130 56 199 113 42 213 146 68 214 151 79 223 155 79 211 133 62 208 128 56 212 126 52 
207 123 49 199 114 47 189 96 24 189 96 24 201 121 42 207 123 49 207 123 49 211 133 62 
204 113 45 192 106 35 176 87 19 195 105 31 192 106 35 194 110 39 189 96 24 189 96 24 
176 87 19 176 87 19 189 96 24 189 96 24 195 105 31 192 106 35 176 87 19 192 106 35 
212 126 56 218 138 64 219 138 59 227 153 72 231 166 86 231 175 99 238 175 106 230 170 95 
233 180 114 238 189 126 243 194 131 238 183 111 228 155 79 201 121 47 174 91 37 156 92 61 
0 0 0 0 0 0 0 0 0 0 0 0 0 0 0 0 0 0 0 0 0 0 0 0 
0 0 0 0 0 0 0 0 0 0 0 0 0 0 0 0 0 0 0 0 0 0 0 0 
0 0 0 0 0 0 0 0 0 0 0 0 0 0 0 0 0 0 0 0 0 0 0 0 
0 0 0 0 0 0 0 0 0 0 0 0 0 0 0 0 0 0 0 0 0 0 0 0 
0 0 0 0 0 0 0 0 0 0 0 0 0 0 0 
0 0 0 0 0 0 0 0 0 0 0 0 0 0 0 0 0 0 0 0 0 0 0 0 
0 0 0 0 0 0 0 0 0 0 0 0 0 0 0 0 0 0 0 0 0 0 0 0 
0 0 0 0 0 0 0 0 0 0 0 0 0 0 0 0 0 0 0 0 0 0 0 0 
0 0 0 0 0 0 51 29 18 153 87 46 171 102 53 179 108 68 179 108 68 182 138 96 
181 117 87 183 124 67 183 124 67 203 131 74 204 143 74 213 140 72 208 132 56 202 131 56 
201 125 56 207 122 42 208 128 56 210 133 67 202 131 56 194 120 52 212 140 78 215 152 87 
204 143 74 203 131 74 213 146 78 204 143 74 215 163 108 225 181 124 225 181 124 225 181 124 
227 181 116 227 181 116 232 187 121 227 186 126 233 196 142 233 196 142 227 195 142 229 195 150 
225 188 139 225 186 132 225 186 132 225 188 139 227 195 142 227 186 126 216 167 99 231 177 107 
224 169 105 227 177 111 216 171 108 227 181 116 231 187 126 239 195 141 227 186 126 231 185 116 
227 177 111 225 172 107 227 180 112 227 186 126 225 186 132 225 181 124 225 186 132 238 199 142 
235 193 134 231 187 126 225 172 107 227 180 112 231 175 99 224 161 84 220 155 77 220 149 73 
225 148 73 217 145 68 213 146 68 225 149 79 211 131 59 204 121 49 217 140 68 208 128 56 
207 123 49 207 123 56 204 121 49 208 128 56 211 133 62 218 138 64 199 113 42 199 114 47 
192 106 35 192 106 35 199 113 42 199 113 42 195 105 31 202 111 39 195 105 31 188 97 36 
189 96 24 189 96 24 192 106 35 189 96 24 199 107 32 212 126 56 195 105 31 195 105 31 
216 132 59 216 132 59 215 133 56 223 153 71 227 153 72 224 160 78 238 186 115 225 169 100 
231 185 116 238 189 126 236 185 115 236 175 100 217 140 68 188 97 36 174 91 37 104 64 29 
0 0 0 0 0 0 0 0 0 0 0 0 0 0 0 0 0 0 0 0 0 0 0 0 
0 0 0 0 0 0 0 0 0 0 0 0 0 0 0 0 0 0 0 0 0 0 0 0 
0 0 0 0 0 0 0 0 0 0 0 0 0 0 0 0 0 0 0 0 0 0 0 0 
0 0 0 0 0 0 0 0 0 0 0 0 0 0 0 0 0 0 0 0 0 0 0 0 
0 0 0 0 0 0 0 0 0 0 0 0 0 0 0 
0 0 0 0 0 0 0 0 0 0 0 0 0 0 0 0 0 0 0 0 0 0 0 0 
0 0 0 0 0 0 0 0 0 0 0 0 0 0 0 0 0 0 0 0 0 0 0 0 
0 0 0 0 0 0 0 0 0 0 0 0 0 0 0 0 0 0 0 0 0 0 0 0 
0 0 0 0 0 0 0 0 0 0 0 0 2 1 1 2 1 1 2 1 1 14 12 9 
108 79 55 140 88 64 150 107 67 181 117 87 181 117 87 183 124 67 203 124 65 183 105 36 
183 105 36 183 105 36 171 102 53 171 102 53 171 102 53 154 83 29 174 91 37 171 102 53 
171 102 53 171 102 53 171 102 53 182 118 54 183 124 67 203 132 65 203 124 65 211 139 69 
222 153 84 213 146 68 222 153 84 220 160 88 224 169 105 225 172 107 227 181 116 225 181 124 
227 181 116 227 186 126 227 186 126 230 193 135 233 196 142 232 187 136 235 193 134 234 188 126 
225 181 124 227 186 126 230 193 135 225 188 139 227 195 142 225 188 139 225 186 132 225 181 124 
216 171 108 234 188 126 238 189 126 233 196 142 238 199 142 238 199 142 233 196 142 230 193 135 
235 193 134 234 188 126 227 186 126 227 186 126 238 189 126 228 166 90 224 164 90 223 159 90 
214 159 92 224 164 97 214 140 68 213 138 64 211 133 62 214 140 68 218 142 72 225 149 79 
213 140 72 211 139 69 213 140 72 211 139 69 213 138 64 207 123 49 216 133 65 207 123 56 
194 110 39 199 113 42 199 114 47 194 110 39 199 107 32 199 107 32 192 106 35 204 121 49 
192 106 35 188 97 36 194 110 39 189 96 24 195 105 31 199 114 47 188 97 36 192 106 35 
194 110 39 219 138 59 215 133 56 219 138 59 225 147 66 235 165 90 228 165 93 234 180 107 
241 189 121 241 189 121 241 189 121 231 175 99 211 131 59 194 110 39 174 91 37 104 64 29 
0 0 0 0 0 0 0 0 0 0 0 0 0 0 0 0 0 0 0 0 0 0 0 0 
0 0 0 0 0 0 0 0 0 0 0 0 0 0 0 0 0 0 0 0 0 0 0 0 
0 0 0 0 0 0 0 0 0 0 0 0 0 0 0 0 0 0 0 0 0 0 0 0 
0 0 0 0 0 0 0 0 0 0 0 0 0 0 0 0 0 0 0 0 0 0 0 0 
0 0 0 0 0 0 0 0 0 0 0 0 0 0 0 
0 0 0 0 0 0 0 0 0 0 0 0 0 0 0 0 0 0 0 0 0 0 0 0 
0 0 0 0 0 0 0 0 0 0 0 0 0 0 0 0 0 0 0 0 0 0 0 0 
0 0 0 0 0 0 0 0 0 0 0 0 0 0 0 0 0 0 0 0 0 0 0 0 
0 0 0 0 0 0 0 0 0 0 0 0 0 0 0 0 0 0 0 0 0 0 0 0 
0 0 0 0 0 0 0 0 0 14 12 9 51 29 18 108 79 55 140 88 64 156 92 61 
156 92 61 156 92 61 181 117 87 181 117 87 181 117 87 181 117 87 150 118 91 150 118 91 
150 118 91 150 107 67 150 107 67 150 107 67 179 108 68 179 108 68 171 102 53 183 105 36 
194 120 52 183 105 36 204 121 49 207 130 56 218 146 78 215 149 79 214 149 73 222 153 84 
220 160 88 226 174 103 225 169 100 224 169 105 227 177 111 226 174 103 225 172 107 231 187 126 
231 187 126 230 193 135 236 204 151 233 196 142 233 196 142 225 188 139 229 195 150 233 196 142 
225 181 124 236 198 150 225 186 132 225 188 139 241 207 150 236 204 151 238 199 142 234 188 126 
227 177 111 227 177 111 234 188 126 231 187 126 231 177 107 232 167 93 225 167 94 216 167 99 
215 162 99 225 169 100 214 147 72 218 138 64 212 142 64 215 152 87 222 153 84 218 146 78 
207 123 49 201 125 56 211 133 62 214 147 72 213 138 62 204 121 49 213 138 64 211 133 62 
212 126 56 199 113 42 204 121 49 202 111 39 199 107 32 202 111 39 192 106 35 194 110 39 
188 97 36 189 96 24 204 113 45 188 97 36 189 96 24 189 96 24 204 121 49 216 133 65 
215 133 56 218 138 64 219 138 59 216 132 52 228 153 76 226 161 86 225 167 94 238 186 115 
241 189 121 244 194 126 238 186 115 222 153 84 204 121 49 183 105 36 174 91 37 51 29 18 
0 0 0 0 0 0 0 0 0 0 0 0 0 0 0 0 0 0 0 0 0 0 0 0 
0 0 0 0 0 0 0 0 0 0 0 0 0 0 0 0 0 0 0 0 0 0 0 0 
0 0 0 0 0 0 0 0 0 0 0 0 0 0 0 0 0 0 0 0 0 0 0 0 
0 0 0 0 0 0 0 0 0 0 0 0 0 0 0 0 0 0 0 0 0 0 0 0 
0 0 0 0 0 0 0 0 0 0 0 0 0 0 0 
0 0 0 0 0 0 0 0 0 0 0 0 0 0 0 0 0 0 0 0 0 0 0 0 
0 0 0 0 0 0 0 0 0 0 0 0 0 0 0 0 0 0 0 0 0 0 0 0 
0 0 0 0 0 0 0 0 0 0 0 0 0 0 0 0 0 0 0 0 0 0 0 0 
0 0 0 0 0 0 0 0 0 0 0 0 0 0 0 0 0 0 0 0 0 0 0 0 
0 0 0 0 0 0 0 0 0 0 0 0 0 0 0 0 0 0 0 0 0 0 0 0 
14 12 9 14 12 9 51 29 18 108 79 55 110 92 87 140 88 64 150 107 67 150 118 91 
150 118 91 150 118 91 181 117 87 181 117 87 181 117 87 179 108 68 179 108 68 179 108 68 
179 108 68 183 124 67 171 102 53 194 120 52 199 114 47 199 114 47 194 120 52 194 120 52 
210 133 67 213 146 78 215 152 87 220 155 77 222 153 84 219 154 88 214 151 79 230 173 107 
227 181 116 227 181 116 231 187 126 227 186 126 225 186 132 230 193 135 236 198 150 236 204 151 
229 195 150 227 195 142 225 186 132 229 195 150 237 204 161 233 196 142 230 193 135 232 187 136 
235 193 134 236 185 115 227 178 107 231 177 107 237 181 114 231 177 107 233 176 102 230 173 107 
227 177 111 230 173 107 224 164 90 220 149 73 219 138 59 208 132 56 213 138 62 204 121 49 
212 126 52 207 123 49 207 122 42 204 121 49 195 105 31 199 107 32 201 125 56 213 146 68 
213 138 64 213 140 72 211 133 62 202 111 39 204 113 45 199 107 32 204 113 45 192 106 35 
202 111 39 189 96 24 199 113 42 199 121 50 192 106 35 202 111 39 212 126 52 215 133 56 
216 132 52 219 138 59 219 138 59 228 153 76 224 160 78 223 160 87 215 156 78 233 182 111 
236 185 115 238 183 111 233 176 102 224 145 73 199 121 50 174 91 37 156 92 61 2 1 1 
0 0 0 0 0 0 0 0 0 0 0 0 0 0 0 0 0 0 0 0 0 0 0 0 
0 0 0 0 0 0 0 0 0 0 0 0 0 0 0 0 0 0 0 0 0 0 0 0 
0 0 0 0 0 0 0 0 0 0 0 0 0 0 0 0 0 0 0 0 0 0 0 0 
0 0 0 0 0 0 0 0 0 0 0 0 0 0 0 0 0 0 0 0 0 0 0 0 
0 0 0 0 0 0 0 0 0 0 0 0 0 0 0 
0 0 0 0 0 0 0 0 0 0 0 0 0 0 0 0 0 0 0 0 0 0 0 0 
0 0 0 0 0 0 0 0 0 0 0 0 0 0 0 0 0 0 0 0 0 0 0 0 
0 0 0 0 0 0 0 0 0 0 0 0 0 0 0 0 0 0 0 0 0 0 0 0 
0 0 0 0 0 0 0 0 0 0 0 0 0 0 0 0 0 0 0 0 0 0 0 0 
0 0 0 0 0 0 0 0 0 0 0 0 0 0 0 0 0 0 0 0 0 0 0 0 
0 0 0 0 0 0 0 0 0 0 0 0 0 0 0 0 0 0 0 0 0 0 0 0 
2 1 1 14 12 9 14 12 9 51 29 18 51 29 18 104 64 29 108 79 55 108 79 55 
150 107 67 181 117 87 182 138 96 181 117 87 183 124 67 174 91 37 186 105 52 183 105 36 
201 119 56 186 105 52 210 133 67 194 120 52 186 105 52 201 125 56 202 131 56 219 154 88 
213 146 78 215 152 87 214 159 92 215 162 99 227 177 111 227 181 116 230 193 135 230 193 135 
227 195 142 227 195 142 236 204 151 227 195 142 225 188 139 215 166 116 218 182 128 236 198 150 
227 195 142 225 181 124 225 181 124 238 192 132 234 188 126 227 180 112 233 176 102 226 174 99 
216 167 99 233 177 111 224 164 90 219 147 72 213 138 62 208 132 56 210 133 67 218 138 64 
213 138 62 202 131 56 203 138 65 214 140 68 207 122 42 204 113 45 204 113 45 208 128 56 
212 142 64 215 152 87 223 159 90 211 133 62 212 126 52 195 105 31 202 111 39 195 105 31 
204 113 45 204 113 45 207 123 49 207 123 49 199 113 42 195 105 31 215 133 56 219 147 72 
214 151 79 215 133 56 227 153 72 231 166 86 235 170 94 223 155 79 238 175 106 238 186 115 
241 189 121 236 175 100 235 165 90 224 145 73 194 120 52 154 83 29 150 107 67 2 1 1 
2 1 1 0 0 0 0 0 0 0 0 0 0 0 0 0 0 0 0 0 0 0 0 0 
0 0 0 0 0 0 0 0 0 0 0 0 0 0 0 0 0 0 0 0 0 0 0 0 
0 0 0 0 0 0 0 0 0 0 0 0 0 0 0 0 0 0 0 0 0 0 0 0 
0 0 0 0 0 0 0 0 0 0 0 0 0 0 0 0 0 0 0 0 0 0 0 0 
0 0 0 0 0 0 0 0 0 0 0 0 0 0 0 
0 0 0 0 0 0 0 0 0 0 0 0 0 0 0 0 0 0 0 0 0 0 0 0 
0 0 0 0 0 0 0 0 0 0 0 0 0 0 0 0 0 0 0 0 0 0 0 0 
0 0 0 0 0 0 0 0 0 0 0 0 0 0 0 0 0 0 0 0 0 0 0 0 
0 0 0 0 0 0 0 0 0 0 0 0 0 0 0 0 0 0 0 0 0 0 0 0 
0 0 0 0 0 0 0 0 0 0 0 0 0 0 0 0 0 0 0 0 0 0 0 0 
0 0 0 0 0 0 0 0 0 0 0 0 0 0 0 0 0 0 0 0 0 0 0 0 
0 0 0 0 0 0 0 0 0 0 0 0 0 0 0 0 0 0 0 0 0 0 0 0 
0 0 0 2 1 1 51 29 18 108 79 55 150 107 67 150 118 91 181 117 87 179 108 68 
171 102 53 171 102 53 154 83 29 174 91 37 154 83 29 174 91 37 174 91 37 183 105 36 
183 105 36 201 125 56 211 133 62 211 133 62 218 142 72 224 164 97 227 181 116 238 199 142 
233 196 142 236 198 150 232 201 151 232 201 151 236 204 151 236 204 151 236 204 151 240 211 161 
229 195 150 225 186 132 225 186 132 232 187 136 239 195 141 238 199 142 234 188 126 231 185 116 
225 172 107 233 177 111 226 174 99 225 167 94 220 160 88 213 146 78 219 154 88 219 146 68 
211 132 57 203 132 65 211 139 69 211 133 62 219 138 59 219 146 68 211 133 62 213 138 64 
220 149 73 211 132 57 213 138 62 217 140 68 213 138 62 207 123 49 207 123 49 202 111 39 
202 111 39 204 113 45 202 111 39 207 123 49 201 121 42 212 126 52 219 147 72 215 152 87 
215 152 87 226 161 86 228 162 90 232 167 93 231 162 84 224 161 84 230 170 95 234 180 107 
225 169 100 236 175 100 231 161 79 213 139 58 201 119 56 174 91 37 140 88 64 0 0 0 
0 0 0 0 0 0 0 0 0 0 0 0 0 0 0 0 0 0 0 0 0 0 0 0 
0 0 0 0 0 0 0 0 0 0 0 0 0 0 0 0 0 0 0 0 0 0 0 0 
0 0 0 0 0 0 0 0 0 0 0 0 0 0 0 0 0 0 0 0 0 0 0 0 
0 0 0 0 0 0 0 0 0 0 0 0 0 0 0 0 0 0 0 0 0 0 0 0 
0 0 0 0 0 0 0 0 0 0 0 0 0 0 0 
0 0 0 0 0 0 0 0 0 0 0 0 0 0 0 0 0 0 0 0 0 0 0 0 
0 0 0 0 0 0 0 0 0 0 0 0 0 0 0 0 0 0 0 0 0 0 0 0 
0 0 0 0 0 0 0 0 0 0 0 0 0 0 0 0 0 0 0 0 0 0 0 0 
0 0 0 0 0 0 0 0 0 0 0 0 0 0 0 0 0 0 0 0 0 0 0 0 
0 0 0 0 0 0 0 0 0 0 0 0 0 0 0 0 0 0 0 0 0 0 0 0 
2 1 1 2 1 1 0 0 0 0 0 0 0 0 0 0 0 0 0 0 0 0 0 0 
0 0 0 0 0 0 0 0 0 0 0 0 0 0 0 0 0 0 0 0 0 0 0 0 
0 0 0 0 0 0 0 0 0 0 0 0 0 0 0 2 1 1 51 29 18 104 64 29 
140 88 64 181 117 87 181 117 87 179 108 68 154 83 29 149 63 22 154 83 29 154 83 29 
154 83 29 176 87 19 189 96 24 189 96 24 199 113 42 210 133 67 212 140 78 215 162 99 
225 181 124 230 193 135 236 198 150 242 202 151 236 198 150 236 198 150 227 195 142 232 201 151 
232 201 151 232 201 151 233 196 142 225 186 132 225 181 124 230 193 135 230 193 135 225 186 132 
238 192 132 230 173 107 230 173 107 231 177 107 233 177 111 214 159 92 224 164 97 222 153 84 
219 147 72 214 147 72 220 155 77 223 153 76 218 138 64 213 138 62 223 153 76 219 147 72 
222 153 84 219 154 88 217 140 68 215 133 56 218 138 64 212 126 52 212 126 52 202 113 34 
201 121 42 208 128 56 211 133 62 218 138 64 216 132 59 217 140 68 220 160 88 213 154 88 
224 169 105 230 173 107 231 175 99 226 161 86 226 161 86 228 155 79 228 166 90 234 175 107 
238 175 106 238 175 106 226 161 86 201 125 56 174 91 37 174 91 37 104 64 29 0 0 0 
0 0 0 0 0 0 0 0 0 0 0 0 0 0 0 0 0 0 0 0 0 0 0 0 
0 0 0 0 0 0 0 0 0 0 0 0 0 0 0 0 0 0 0 0 0 0 0 0 
0 0 0 0 0 0 0 0 0 0 0 0 0 0 0 0 0 0 0 0 0 0 0 0 
0 0 0 0 0 0 0 0 0 0 0 0 0 0 0 0 0 0 0 0 0 0 0 0 
0 0 0 0 0 0 0 0 0 0 0 0 0 0 0 
0 0 0 0 0 0 0 0 0 0 0 0 0 0 0 0 0 0 0 0 0 0 0 0 
0 0 0 0 0 0 0 0 0 0 0 0 0 0 0 0 0 0 0 0 0 0 0 0 
0 0 0 0 0 0 0 0 0 0 0 0 0 0 0 0 0 0 0 0 0 0 0 0 
0 0 0 0 0 0 0 0 0 0 0 0 0 0 0 0 0 0 0 0 0 0 0 0 
0 0 0 0 0 0 0 0 0 0 0 0 0 0 0 0 0 0 0 0 0 0 0 0 
0 0 0 0 0 0 0 0 0 0 0 0 0 0 0 0 0 0 0 0 0 0 0 0 
0 0 0 0 0 0 0 0 0 0 0 0 0 0 0 0 0 0 0 0 0 0 0 0 
0 0 0 0 0 0 0 0 0 0 0 0 0 0 0 0 0 0 0 0 0 0 0 0 
0 0 0 2 1 1 51 29 18 108 79 55 140 88 64 150 107 67 181 117 87 181 117 87 
179 108 68 171 102 53 153 87 46 154 83 29 171 102 53 201 119 56 199 114 47 201 125 56 
203 131 74 214 159 92 226 171 121 227 181 116 227 181 116 227 186 126 215 166 116 230 193 135 
225 181 124 227 186 126 233 196 142 239 195 141 227 181 116 227 181 116 230 193 135 233 196 142 
225 181 124 227 186 126 225 181 124 232 187 121 232 187 121 225 181 124 227 181 116 224 169 105 
224 164 90 223 160 87 218 144 61 223 153 76 225 153 79 223 153 76 220 149 73 223 153 76 
219 154 88 213 154 88 233 169 102 223 155 79 226 161 86 222 153 84 217 140 68 216 132 52 
211 132 50 218 138 64 214 140 68 213 138 64 213 138 62 222 153 84 224 164 90 225 169 100 
225 169 100 230 173 107 225 167 94 220 160 88 230 170 95 230 173 107 233 177 111 237 181 114 
238 178 111 230 170 95 228 155 79 199 114 47 188 97 36 171 102 53 104 64 29 0 0 0 
0 0 0 0 0 0 0 0 0 0 0 0 0 0 0 0 0 0 0 0 0 0 0 0 
0 0 0 0 0 0 0 0 0 0 0 0 0 0 0 0 0 0 0 0 0 0 0 0 
0 0 0 0 0 0 0 0 0 0 0 0 0 0 0 0 0 0 0 0 0 0 0 0 
0 0 0 0 0 0 0 0 0 0 0 0 0 0 0 0 0 0 0 0 0 0 0 0 
0 0 0 0 0 0 0 0 0 0 0 0 0 0 0 
0 0 0 0 0 0 0 0 0 0 0 0 0 0 0 0 0 0 0 0 0 0 0 0 
0 0 0 0 0 0 0 0 0 0 0 0 0 0 0 0 0 0 0 0 0 0 0 0 
0 0 0 0 0 0 0 0 0 0 0 0 0 0 0 0 0 0 0 0 0 0 0 0 
0 0 0 0 0 0 0 0 0 0 0 0 0 0 0 0 0 0 0 0 0 0 0 0 
0 0 0 0 0 0 0 0 0 0 0 0 0 0 0 0 0 0 0 0 0 0 0 0 
0 0 0 0 0 0 0 0 0 0 0 0 0 0 0 0 0 0 0 0 0 0 0 0 
0 0 0 0 0 0 0 0 0 0 0 0 0 0 0 0 0 0 0 0 0 0 0 0 
0 0 0 0 0 0 0 0 0 0 0 0 0 0 0 0 0 0 0 0 0 0 0 0 
0 0 0 0 0 0 0 0 0 0 0 0 0 0 0 2 1 1 14 12 9 51 29 18 
108 79 55 150 118 91 181 117 87 181 117 87 181 117 87 171 102 53 186 105 52 186 105 52 
194 120 52 203 132 65 203 132 65 214 159 92 224 169 105 215 163 108 225 181 124 235 193 134 
231 187 126 235 193 134 231 187 126 225 181 124 231 187 126 232 187 121 231 187 126 230 193 135 
227 186 126 230 193 135 236 198 150 232 187 136 230 193 135 227 186 126 225 188 139 233 196 142 
232 187 136 231 187 126 224 169 105 225 169 100 226 174 103 224 169 105 226 174 103 225 169 100 
224 169 105 224 169 105 233 180 114 225 172 107 230 173 107 236 179 121 233 177 111 228 162 90 
228 153 76 219 146 68 225 148 73 214 147 72 223 155 79 231 177 107 228 166 90 223 160 87 
228 165 93 228 155 79 218 142 72 220 155 77 225 170 96 233 176 102 238 183 111 233 180 114 
238 183 111 238 176 102 211 132 57 192 106 35 183 105 36 150 107 67 51 29 18 0 0 0 
0 0 0 0 0 0 0 0 0 0 0 0 0 0 0 0 0 0 0 0 0 0 0 0 
0 0 0 0 0 0 0 0 0 0 0 0 0 0 0 0 0 0 0 0 0 0 0 0 
0 0 0 0 0 0 0 0 0 0 0 0 0 0 0 0 0 0 0 0 0 0 0 0 
0 0 0 0 0 0 0 0 0 0 0 0 0 0 0 0 0 0 0 0 0 0 0 0 
0 0 0 0 0 0 0 0 0 0 0 0 0 0 0 
0 0 0 0 0 0 0 0 0 0 0 0 0 0 0 0 0 0 0 0 0 0 0 0 
0 0 0 0 0 0 0 0 0 0 0 0 0 0 0 0 0 0 0 0 0 0 0 0 
0 0 0 0 0 0 0 0 0 0 0 0 0 0 0 0 0 0 0 0 0 0 0 0 
0 0 0 0 0 0 0 0 0 0 0 0 0 0 0 0 0 0 0 0 0 0 0 0 
0 0 0 0 0 0 0 0 0 0 0 0 0 0 0 0 0 0 0 0 0 0 0 0 
0 0 0 0 0 0 0 0 0 0 0 0 0 0 0 0 0 0 0 0 0 0 0 0 
0 0 0 0 0 0 0 0 0 0 0 0 0 0 0 0 0 0 0 0 0 0 0 0 
0 0 0 0 0 0 0 0 0 0 0 0 0 0 0 0 0 0 0 0 0 0 0 0 
0 0 0 0 0 0 0 0 0 0 0 0 0 0 0 0 0 0 0 0 0 0 0 0 
0 0 0 0 0 0 14 12 9 55 53 51 140 88 64 150 118 91 182 138 96 182 138 96 
179 108 68 171 102 53 171 102 53 183 105 36 194 120 52 194 120 52 214 159 92 223 162 104 
214 159 92 224 169 105 220 160 88 215 162 99 224 169 105 227 181 116 231 177 107 225 172 107 
227 177 111 216 171 108 215 166 116 227 186 126 225 186 132 225 186 132 225 186 132 225 188 139 
218 182 128 215 166 116 225 181 124 225 181 124 225 188 139 225 186 132 232 187 136 225 181 124 
232 187 136 242 202 151 239 195 141 232 187 121 236 185 115 233 182 111 233 177 111 225 170 96 
230 170 95 224 164 90 230 170 95 226 174 99 233 169 102 234 175 107 224 161 84 228 162 90 
230 170 95 225 153 79 217 145 68 223 153 76 232 167 93 230 170 95 231 175 99 226 174 99 
236 185 115 231 175 99 211 133 62 186 105 52 171 102 53 140 88 64 0 0 0 0 0 0 
0 0 0 0 0 0 0 0 0 0 0 0 0 0 0 0 0 0 0 0 0 0 0 0 
0 0 0 0 0 0 0 0 0 0 0 0 0 0 0 0 0 0 0 0 0 0 0 0 
0 0 0 0 0 0 0 0 0 0 0 0 0 0 0 0 0 0 0 0 0 0 0 0 
0 0 0 0 0 0 0 0 0 0 0 0 0 0 0 0 0 0 0 0 0 0 0 0 
0 0 0 0 0 0 0 0 0 0 0 0 0 0 0 
0 0 0 0 0 0 0 0 0 0 0 0 0 0 0 0 0 0 0 0 0 0 0 0 
0 0 0 0 0 0 0 0 0 0 0 0 0 0 0 0 0 0 0 0 0 0 0 0 
0 0 0 0 0 0 0 0 0 0 0 0 0 0 0 0 0 0 0 0 0 0 0 0 
0 0 0 0 0 0 0 0 0 0 0 0 0 0 0 0 0 0 0 0 0 0 0 0 
0 0 0 0 0 0 0 0 0 0 0 0 0 0 0 0 0 0 0 0 0 0 0 0 
0 0 0 0 0 0 0 0 0 0 0 0 0 0 0 0 0 0 0 0 0 0 0 0 
0 0 0 0 0 0 0 0 0 0 0 0 0 0 0 0 0 0 0 0 0 0 0 0 
0 0 0 0 0 0 0 0 0 0 0 0 0 0 0 0 0 0 0 0 0 0 0 0 
0 0 0 0 0 0 0 0 0 0 0 0 0 0 0 0 0 0 0 0 0 0 0 0 
0 0 0 0 0 0 0 0 0 0 0 0 0 0 0 0 0 0 14 12 9 104 64 29 
140 88 64 150 118 91 181 117 87 181 117 87 181 117 87 183 124 67 203 124 65 203 124 65 
203 124 65 203 132 65 211 133 62 213 138 64 218 146 78 223 160 87 224 161 84 228 165 93 
228 165 93 225 169 100 230 173 107 233 180 114 227 181 116 227 186 126 231 187 126 230 193 135 
236 198 150 225 186 132 227 186 126 233 196 142 233 196 142 233 196 142 229 195 150 236 198 150 
233 196 142 242 202 151 241 207 150 244 201 142 238 183 111 233 176 102 233 180 114 227 177 111 
232 187 121 231 185 116 233 180 114 226 174 103 214 159 92 225 172 107 230 170 95 231 162 84 
219 146 68 213 140 72 227 154 85 228 153 76 223 155 79 224 164 90 224 164 90 238 186 115 
236 185 115 230 170 95 213 140 72 174 91 37 174 91 37 104 64 29 0 0 0 0 0 0 
0 0 0 0 0 0 0 0 0 0 0 0 0 0 0 0 0 0 0 0 0 0 0 0 
0 0 0 0 0 0 0 0 0 0 0 0 0 0 0 0 0 0 0 0 0 0 0 0 
0 0 0 0 0 0 0 0 0 0 0 0 0 0 0 0 0 0 0 0 0 0 0 0 
0 0 0 0 0 0 0 0 0 0 0 0 0 0 0 0 0 0 0 0 0 0 0 0 
0 0 0 0 0 0 0 0 0 0 0 0 0 0 0 
0 0 0 0 0 0 0 0 0 0 0 0 0 0 0 0 0 0 0 0 0 0 0 0 
0 0 0 0 0 0 0 0 0 0 0 0 0 0 0 0 0 0 0 0 0 0 0 0 
0 0 0 0 0 0 0 0 0 0 0 0 0 0 0 0 0 0 0 0 0 0 0 0 
0 0 0 0 0 0 0 0 0 0 0 0 0 0 0 0 0 0 0 0 0 0 0 0 
0 0 0 0 0 0 0 0 0 0 0 0 0 0 0 0 0 0 0 0 0 0 0 0 
0 0 0 0 0 0 0 0 0 0 0 0 0 0 0 0 0 0 0 0 0 0 0 0 
0 0 0 0 0 0 0 0 0 0 0 0 0 0 0 0 0 0 0 0 0 0 0 0 
0 0 0 0 0 0 0 0 0 0 0 0 0 0 0 0 0 0 0 0 0 0 0 0 
0 0 0 0 0 0 0 0 0 0 0 0 0 0 0 0 0 0 0 0 0 0 0 0 
0 0 0 0 0 0 0 0 0 0 0 0 0 0 0 0 0 0 0 0 0 0 0 0 
0 0 0 0 0 0 2 1 1 55 53 51 108 79 55 150 118 91 182 138 96 181 117 87 
183 124 67 186 105 52 194 120 52 194 120 52 199 114 47 201 125 56 213 140 72 213 140 72 
212 142 64 213 138 64 214 147 72 224 164 90 224 164 97 225 172 107 227 181 116 231 187 126 
225 181 124 230 193 135 233 196 142 225 186 132 225 186 132 225 181 124 230 193 135 236 198 150 
236 204 151 230 193 135 230 193 135 243 201 146 235 193 134 234 188 126 232 187 121 231 187 126 
235 193 134 234 188 126 233 177 111 224 169 105 225 169 100 232 187 121 227 177 111 224 164 97 
218 144 61 222 153 84 228 155 79 227 153 72 223 155 79 225 167 94 230 173 107 234 180 107 
238 186 115 233 180 114 210 133 67 183 105 36 153 87 46 55 53 51 0 0 0 0 0 0 
0 0 0 0 0 0 0 0 0 0 0 0 0 0 0 0 0 0 0 0 0 0 0 0 
0 0 0 0 0 0 0 0 0 0 0 0 0 0 0 0 0 0 0 0 0 0 0 0 
0 0 0 0 0 0 0 0 0 0 0 0 0 0 0 0 0 0 0 0 0 0 0 0 
0 0 0 0 0 0 0 0 0 0 0 0 0 0 0 0 0 0 0 0 0 0 0 0 
0 0 0 0 0 0 0 0 0 0 0 0 0 0 0 
0 0 0 0 0 0 0 0 0 0 0 0 0 0 0 0 0 0 0 0 0 0 0 0 
0 0 0 0 0 0 0 0 0 0 0 0 0 0 0 0 0 0 0 0 0 0 0 0 
0 0 0 0 0 0 0 0 0 0 0 0 0 0 0 0 0 0 0 0 0 0 0 0 
0 0 0 0 0 0 0 0 0 0 0 0 0 0 0 0 0 0 0 0 0 0 0 0 
0 0 0 0 0 0 0 0 0 0 0 0 0 0 0 0 0 0 0 0 0 0 0 0 
0 0 0 0 0 0 0 0 0 0 0 0 0 0 0 0 0 0 0 0 0 0 0 0 
0 0 0 0 0 0 0 0 0 0 0 0 0 0 0 0 0 0 0 0 0 0 0 0 
0 0 0 0 0 0 0 0 0 0 0 0 0 0 0 0 0 0 0 0 0 0 0 0 
0 0 0 0 0 0 0 0 0 0 0 0 0 0 0 0 0 0 0 0 0 0 0 0 
0 0 0 0 0 0 0 0 0 0 0 0 0 0 0 0 0 0 0 0 0 0 0 0 
0 0 0 0 0 0 0 0 0 0 0 0 0 0 0 0 0 0 2 1 1 51 29 18 
140 88 64 181 117 87 182 138 96 181 117 87 179 108 68 186 105 52 183 105 36 194 120 52 
201 125 56 199 114 47 207 130 56 211 133 62 213 138 62 214 147 72 215 160 87 225 172 107 
227 181 116 225 181 124 230 193 135 225 186 132 225 181 124 232 187 136 232 187 136 233 196 142 
236 198 150 238 199 142 236 204 151 233 196 142 230 193 135 243 201 146 235 193 134 230 193 135 
231 187 126 232 187 121 233 182 111 227 178 107 233 180 114 230 173 107 230 173 107 220 160 88 
218 144 61 219 147 72 217 145 68 225 148 73 226 161 86 230 170 95 219 154 88 232 167 93 
234 175 107 219 154 88 194 120 52 174 91 37 171 102 53 51 29 18 0 0 0 0 0 0 
0 0 0 0 0 0 0 0 0 0 0 0 0 0 0 0 0 0 0 0 0 0 0 0 
0 0 0 0 0 0 0 0 0 0 0 0 0 0 0 0 0 0 0 0 0 0 0 0 
0 0 0 0 0 0 0 0 0 0 0 0 0 0 0 0 0 0 0 0 0 0 0 0 
0 0 0 0 0 0 0 0 0 0 0 0 0 0 0 0 0 0 0 0 0 0 0 0 
0 0 0 0 0 0 0 0 0 0 0 0 0 0 0 
0 0 0 0 0 0 0 0 0 0 0 0 0 0 0 0 0 0 0 0 0 0 0 0 
0 0 0 0 0 0 0 0 0 0 0 0 0 0 0 0 0 0 0 0 0 0 0 0 
0 0 0 0 0 0 0 0 0 0 0 0 0 0 0 0 0 0 0 0 0 0 0 0 
0 0 0 0 0 0 0 0 0 0 0 0 0 0 0 0 0 0 0 0 0 0 0 0 
0 0 0 0 0 0 0 0 0 0 0 0 0 0 0 0 0 0 0 0 0 0 0 0 
0 0 0 0 0 0 0 0 0 0 0 0 0 0 0 0 0 0 0 0 0 0 0 0 
0 0 0 0 0 0 0 0 0 0 0 0 0 0 0 0 0 0 0 0 0 0 0 0 
0 0 0 0 0 0 0 0 0 0 0 0 0 0 0 0 0 0 0 0 0 0 0 0 
0 0 0 0 0 0 0 0 0 0 0 0 0 0 0 0 0 0 0 0 0 0 0 0 
0 0 0 0 0 0 0 0 0 0 0 0 0 0 0 0 0 0 0 0 0 0 0 0 
0 0 0 0 0 0 0 0 0 0 0 0 0 0 0 0 0 0 0 0 0 0 0 0 
0 0 0 0 0 0 14 12 9 108 79 55 150 118 91 179 108 68 186 105 52 174 91 37 
174 91 37 174 91 37 183 105 36 194 110 39 204 113 45 199 113 42 201 125 56 220 149 73 
223 155 79 231 177 107 227 181 116 231 187 126 235 193 134 231 187 126 232 187 136 235 193 134 
233 196 142 233 196 142 225 186 132 225 186 132 236 204 151 237 204 161 229 195 150 225 186 132 
225 186 132 230 193 135 235 193 134 231 187 126 234 188 126 213 154 88 203 138 65 218 146 78 
217 140 68 214 140 68 217 145 68 219 146 68 220 155 77 220 160 88 213 140 72 232 160 86 
228 162 90 211 139 69 183 105 36 154 83 29 150 107 67 51 29 18 0 0 0 0 0 0 
0 0 0 0 0 0 0 0 0 0 0 0 0 0 0 0 0 0 0 0 0 0 0 0 
0 0 0 0 0 0 0 0 0 0 0 0 0 0 0 0 0 0 0 0 0 0 0 0 
0 0 0 0 0 0 0 0 0 0 0 0 0 0 0 0 0 0 0 0 0 0 0 0 
0 0 0 0 0 0 0 0 0 0 0 0 0 0 0 0 0 0 0 0 0 0 0 0 
0 0 0 0 0 0 0 0 0 0 0 0 0 0 0 
0 0 0 0 0 0 0 0 0 0 0 0 0 0 0 0 0 0 0 0 0 0 0 0 
0 0 0 0 0 0 0 0 0 0 0 0 0 0 0 0 0 0 0 0 0 0 0 0 
0 0 0 0 0 0 0 0 0 0 0 0 0 0 0 0 0 0 0 0 0 0 0 0 
0 0 0 0 0 0 0 0 0 0 0 0 0 0 0 0 0 0 0 0 0 0 0 0 
0 0 0 0 0 0 0 0 0 0 0 0 0 0 0 0 0 0 0 0 0 0 0 0 
0 0 0 0 0 0 0 0 0 0 0 0 0 0 0 0 0 0 0 0 0 0 0 0 
0 0 0 0 0 0 0 0 0 0 0 0 0 0 0 0 0 0 0 0 0 0 0 0 
0 0 0 0 0 0 0 0 0 0 0 0 0 0 0 0 0 0 0 0 0 0 0 0 
0 0 0 0 0 0 0 0 0 0 0 0 0 0 0 0 0 0 0 0 0 0 0 0 
0 0 0 0 0 0 0 0 0 0 0 0 0 0 0 0 0 0 0 0 0 0 0 0 
0 0 0 0 0 0 0 0 0 0 0 0 0 0 0 0 0 0 0 0 0 0 0 0 
0 0 0 0 0 0 0 0 0 0 0 0 2 1 1 51 29 18 108 79 55 150 107 67 
179 108 68 179 108 68 153 87 46 171 102 53 174 91 37 176 87 19 192 106 35 207 123 49 
212 127 48 211 139 69 222 153 84 228 165 93 225 167 94 227 178 107 231 185 116 232 187 121 
230 193 135 243 201 146 236 198 150 225 186 132 232 201 151 232 201 151 229 195 150 236 204 151 
225 188 139 236 198 150 229 195 150 233 196 142 231 187 126 216 167 99 224 164 97 222 153 84 
217 145 68 214 140 68 223 153 76 223 153 71 232 167 93 222 153 84 232 160 86 219 147 72 
214 140 68 194 110 39 149 63 22 186 105 52 150 107 67 0 0 0 0 0 0 0 0 0 
0 0 0 0 0 0 0 0 0 0 0 0 0 0 0 0 0 0 0 0 0 0 0 0 
0 0 0 0 0 0 0 0 0 0 0 0 0 0 0 0 0 0 0 0 0 0 0 0 
0 0 0 0 0 0 0 0 0 0 0 0 0 0 0 0 0 0 0 0 0 0 0 0 
0 0 0 0 0 0 0 0 0 0 0 0 0 0 0 0 0 0 0 0 0 0 0 0 
0 0 0 0 0 0 0 0 0 0 0 0 0 0 0 
0 0 0 0 0 0 0 0 0 0 0 0 0 0 0 0 0 0 0 0 0 0 0 0 
0 0 0 0 0 0 0 0 0 0 0 0 0 0 0 0 0 0 0 0 0 0 0 0 
0 0 0 0 0 0 0 0 0 0 0 0 0 0 0 0 0 0 0 0 0 0 0 0 
0 0 0 0 0 0 0 0 0 0 0 0 0 0 0 0 0 0 0 0 0 0 0 0 
0 0 0 0 0 0 0 0 0 0 0 0 0 0 0 0 0 0 0 0 0 0 0 0 
0 0 0 0 0 0 0 0 0 0 0 0 0 0 0 0 0 0 0 0 0 0 0 0 
0 0 0 0 0 0 0 0 0 0 0 0 0 0 0 0 0 0 0 0 0 0 0 0 
0 0 0 0 0 0 0 0 0 0 0 0 0 0 0 0 0 0 0 0 0 0 0 0 
0 0 0 0 0 0 0 0 0 0 0 0 0 0 0 0 0 0 0 0 0 0 0 0 
0 0 0 0 0 0 0 0 0 0 0 0 0 0 0 0 0 0 0 0 0 0 0 0 
0 0 0 0 0 0 0 0 0 0 0 0 0 0 0 0 0 0 0 0 0 0 0 0 
0 0 0 0 0 0 0 0 0 0 0 0 0 0 0 0 0 0 0 0 0 0 0 0 
14 12 9 108 79 55 140 88 64 181 117 87 181 117 87 171 102 53 174 91 37 201 119 56 
194 120 52 199 114 47 204 121 49 213 138 64 218 146 78 223 159 90 216 167 99 233 180 114 
233 180 114 232 187 136 233 196 142 236 198 150 240 211 161 232 201 151 227 195 142 236 198 150 
225 186 132 230 193 135 218 182 128 236 198 150 227 186 126 231 187 126 231 177 107 215 160 87 
225 167 94 225 169 100 230 173 107 230 170 95 233 176 102 230 170 95 225 153 79 212 126 52 
204 121 49 174 91 37 149 63 22 171 102 53 108 79 55 0 0 0 0 0 0 0 0 0 
0 0 0 0 0 0 0 0 0 0 0 0 0 0 0 0 0 0 0 0 0 0 0 0 
0 0 0 0 0 0 0 0 0 0 0 0 0 0 0 0 0 0 0 0 0 0 0 0 
0 0 0 0 0 0 0 0 0 0 0 0 0 0 0 0 0 0 0 0 0 0 0 0 
0 0 0 0 0 0 0 0 0 0 0 0 0 0 0 0 0 0 0 0 0 0 0 0 
0 0 0 0 0 0 0 0 0 0 0 0 0 0 0 
0 0 0 0 0 0 0 0 0 0 0 0 0 0 0 0 0 0 0 0 0 0 0 0 
0 0 0 0 0 0 0 0 0 0 0 0 0 0 0 0 0 0 0 0 0 0 0 0 
0 0 0 0 0 0 0 0 0 0 0 0 0 0 0 0 0 0 0 0 0 0 0 0 
0 0 0 0 0 0 0 0 0 0 0 0 0 0 0 0 0 0 0 0 0 0 0 0 
0 0 0 0 0 0 0 0 0 0 0 0 0 0 0 0 0 0 0 0 0 0 0 0 
0 0 0 0 0 0 0 0 0 0 0 0 0 0 0 0 0 0 0 0 0 0 0 0 
0 0 0 0 0 0 0 0 0 0 0 0 0 0 0 0 0 0 0 0 0 0 0 0 
0 0 0 0 0 0 0 0 0 0 0 0 0 0 0 0 0 0 0 0 0 0 0 0 
0 0 0 0 0 0 0 0 0 0 0 0 0 0 0 0 0 0 0 0 0 0 0 0 
0 0 0 0 0 0 0 0 0 0 0 0 0 0 0 0 0 0 0 0 0 0 0 0 
0 0 0 0 0 0 0 0 0 0 0 0 0 0 0 0 0 0 0 0 0 0 0 0 
0 0 0 0 0 0 0 0 0 0 0 0 0 0 0 0 0 0 0 0 0 0 0 0 
0 0 0 0 0 0 0 0 0 2 1 1 55 53 51 140 88 64 150 107 67 179 108 68 
174 91 37 174 91 37 174 91 37 186 105 52 186 105 52 174 91 37 194 120 52 214 159 92 
226 174 103 232 187 121 235 193 134 233 196 142 229 195 150 227 195 142 232 187 136 225 186 132 
233 196 142 233 196 142 235 193 134 235 193 134 227 181 116 227 177 111 225 172 107 224 164 97 
225 169 100 227 177 111 233 180 114 228 166 90 220 160 88 222 153 84 216 132 59 207 123 56 
199 114 47 174 91 37 149 63 22 171 102 53 55 53 51 0 0 0 0 0 0 0 0 0 
0 0 0 0 0 0 0 0 0 0 0 0 0 0 0 0 0 0 0 0 0 0 0 0 
0 0 0 0 0 0 0 0 0 0 0 0 0 0 0 0 0 0 0 0 0 0 0 0 
0 0 0 0 0 0 0 0 0 0 0 0 0 0 0 0 0 0 0 0 0 0 0 0 
0 0 0 0 0 0 0 0 0 0 0 0 0 0 0 0 0 0 0 0 0 0 0 0 
0 0 0 0 0 0 0 0 0 0 0 0 0 0 0 
0 0 0 0 0 0 0 0 0 0 0 0 0 0 0 0 0 0 0 0 0 0 0 0 
0 0 0 0 0 0 0 0 0 0 0 0 0 0 0 0 0 0 0 0 0 0 0 0 
0 0 0 0 0 0 0 0 0 0 0 0 0 0 0 0 0 0 0 0 0 0 0 0 
0 0 0 0 0 0 0 0 0 0 0 0 0 0 0 0 0 0 0 0 0 0 0 0 
0 0 0 0 0 0 0 0 0 0 0 0 0 0 0 0 0 0 0 0 0 0 0 0 
0 0 0 0 0 0 0 0 0 0 0 0 0 0 0 0 0 0 0 0 0 0 0 0 
0 0 0 0 0 0 0 0 0 0 0 0 0 0 0 0 0 0 0 0 0 0 0 0 
0 0 0 0 0 0 0 0 0 0 0 0 0 0 0 0 0 0 0 0 0 0 0 0 
0 0 0 0 0 0 0 0 0 0 0 0 0 0 0 0 0 0 0 0 0 0 0 0 
0 0 0 0 0 0 0 0 0 0 0 0 0 0 0 0 0 0 0 0 0 0 0 0 
0 0 0 0 0 0 0 0 0 0 0 0 0 0 0 0 0 0 0 0 0 0 0 0 
0 0 0 0 0 0 0 0 0 0 0 0 0 0 0 0 0 0 0 0 0 0 0 0 
0 0 0 0 0 0 0 0 0 0 0 0 0 0 0 0 0 0 2 1 1 51 29 18 
104 64 29 137 77 46 171 102 53 154 83 29 154 83 29 174 91 37 194 120 52 171 102 53 
182 118 54 203 131 74 212 140 78 215 152 100 215 163 108 216 171 108 216 171 108 225 181 124 
239 194 135 231 187 126 231 187 126 227 181 116 215 162 99 215 162 99 230 173 107 215 152 87 
220 160 88 213 154 88 225 167 94 225 159 90 218 146 78 214 140 68 199 113 42 192 106 35 
176 87 19 174 91 37 174 91 37 156 92 61 14 12 9 0 0 0 0 0 0 0 0 0 
0 0 0 0 0 0 0 0 0 0 0 0 0 0 0 0 0 0 0 0 0 0 0 0 
0 0 0 0 0 0 0 0 0 0 0 0 0 0 0 0 0 0 0 0 0 0 0 0 
0 0 0 0 0 0 0 0 0 0 0 0 0 0 0 0 0 0 0 0 0 0 0 0 
0 0 0 0 0 0 0 0 0 0 0 0 0 0 0 0 0 0 0 0 0 0 0 0 
0 0 0 0 0 0 0 0 0 0 0 0 0 0 0 
0 0 0 0 0 0 0 0 0 0 0 0 0 0 0 0 0 0 0 0 0 0 0 0 
0 0 0 0 0 0 0 0 0 0 0 0 0 0 0 0 0 0 0 0 0 0 0 0 
0 0 0 0 0 0 0 0 0 0 0 0 0 0 0 0 0 0 0 0 0 0 0 0 
0 0 0 0 0 0 0 0 0 0 0 0 0 0 0 0 0 0 0 0 0 0 0 0 
0 0 0 0 0 0 0 0 0 0 0 0 0 0 0 0 0 0 0 0 0 0 0 0 
0 0 0 0 0 0 0 0 0 0 0 0 0 0 0 0 0 0 0 0 0 0 0 0 
0 0 0 0 0 0 0 0 0 0 0 0 0 0 0 0 0 0 0 0 0 0 0 0 
0 0 0 0 0 0 0 0 0 0 0 0 0 0 0 0 0 0 0 0 0 0 0 0 
0 0 0 0 0 0 0 0 0 0 0 0 0 0 0 0 0 0 0 0 0 0 0 0 
0 0 0 0 0 0 0 0 0 0 0 0 0 0 0 0 0 0 0 0 0 0 0 0 
0 0 0 0 0 0 0 0 0 0 0 0 0 0 0 0 0 0 0 0 0 0 0 0 
0 0 0 0 0 0 0 0 0 0 0 0 0 0 0 0 0 0 0 0 0 0 0 0 
0 0 0 0 0 0 0 0 0 0 0 0 0 0 0 0 0 0 0 0 0 0 0 0 
0 0 0 0 0 0 14 12 9 108 79 55 140 88 64 181 117 87 181 117 87 153 87 46 
174 91 37 182 118 54 171 102 53 183 105 36 194 120 52 183 124 67 183 124 67 203 136 90 
223 162 104 216 167 99 215 152 87 214 151 79 213 146 78 213 140 72 219 147 72 215 149 79 
214 151 79 215 152 87 222 153 84 213 146 78 211 139 69 201 119 56 188 97 36 176 87 19 
174 91 37 174 91 37 154 83 29 108 79 55 0 0 0 0 0 0 0 0 0 0 0 0 
0 0 0 0 0 0 0 0 0 0 0 0 0 0 0 0 0 0 0 0 0 0 0 0 
0 0 0 0 0 0 0 0 0 0 0 0 0 0 0 0 0 0 0 0 0 0 0 0 
0 0 0 0 0 0 0 0 0 0 0 0 0 0 0 0 0 0 0 0 0 0 0 0 
0 0 0 0 0 0 0 0 0 0 0 0 0 0 0 0 0 0 0 0 0 0 0 0 
0 0 0 0 0 0 0 0 0 0 0 0 0 0 0 
0 0 0 0 0 0 0 0 0 0 0 0 0 0 0 0 0 0 0 0 0 0 0 0 
0 0 0 0 0 0 0 0 0 0 0 0 0 0 0 0 0 0 0 0 0 0 0 0 
0 0 0 0 0 0 0 0 0 0 0 0 0 0 0 0 0 0 0 0 0 0 0 0 
0 0 0 0 0 0 0 0 0 0 0 0 0 0 0 0 0 0 0 0 0 0 0 0 
0 0 0 0 0 0 0 0 0 0 0 0 0 0 0 0 0 0 0 0 0 0 0 0 
0 0 0 0 0 0 0 0 0 0 0 0 0 0 0 0 0 0 0 0 0 0 0 0 
0 0 0 0 0 0 0 0 0 0 0 0 0 0 0 0 0 0 0 0 0 0 0 0 
0 0 0 0 0 0 0 0 0 0 0 0 0 0 0 0 0 0 0 0 0 0 0 0 
0 0 0 0 0 0 0 0 0 0 0 0 0 0 0 0 0 0 0 0 0 0 0 0 
0 0 0 0 0 0 0 0 0 0 0 0 0 0 0 0 0 0 0 0 0 0 0 0 
0 0 0 0 0 0 0 0 0 0 0 0 0 0 0 0 0 0 0 0 0 0 0 0 
0 0 0 0 0 0 0 0 0 0 0 0 0 0 0 0 0 0 0 0 0 0 0 0 
0 0 0 0 0 0 0 0 0 0 0 0 0 0 0 0 0 0 0 0 0 0 0 0 
0 0 0 0 0 0 0 0 0 0 0 0 0 0 0 2 1 1 51 29 18 108 79 55 
150 118 91 182 138 96 181 117 87 150 118 91 156 92 61 153 87 46 154 83 29 174 91 37 
186 105 52 186 105 52 201 119 56 199 114 47 199 113 42 194 110 39 201 125 56 211 133 62 
211 131 59 201 125 56 208 128 56 201 125 56 194 110 39 188 97 36 188 97 36 176 87 19 
154 83 29 128 64 26 154 83 29 55 53 51 0 0 0 0 0 0 0 0 0 0 0 0 
0 0 0 0 0 0 0 0 0 0 0 0 0 0 0 0 0 0 0 0 0 0 0 0 
0 0 0 0 0 0 0 0 0 0 0 0 0 0 0 0 0 0 0 0 0 0 0 0 
0 0 0 0 0 0 0 0 0 0 0 0 0 0 0 0 0 0 0 0 0 0 0 0 
0 0 0 0 0 0 0 0 0 0 0 0 0 0 0 0 0 0 0 0 0 0 0 0 
0 0 0 0 0 0 0 0 0 0 0 0 0 0 0 
0 0 0 0 0 0 0 0 0 0 0 0 0 0 0 0 0 0 0 0 0 0 0 0 
0 0 0 0 0 0 0 0 0 0 0 0 0 0 0 0 0 0 0 0 0 0 0 0 
0 0 0 0 0 0 0 0 0 0 0 0 0 0 0 0 0 0 0 0 0 0 0 0 
0 0 0 0 0 0 0 0 0 0 0 0 0 0 0 0 0 0 0 0 0 0 0 0 
0 0 0 0 0 0 0 0 0 0 0 0 0 0 0 0 0 0 0 0 0 0 0 0 
0 0 0 0 0 0 0 0 0 0 0 0 0 0 0 0 0 0 0 0 0 0 0 0 
0 0 0 0 0 0 0 0 0 0 0 0 0 0 0 0 0 0 0 0 0 0 0 0 
0 0 0 0 0 0 0 0 0 0 0 0 0 0 0 0 0 0 0 0 0 0 0 0 
0 0 0 0 0 0 0 0 0 0 0 0 0 0 0 0 0 0 0 0 0 0 0 0 
0 0 0 0 0 0 0 0 0 0 0 0 0 0 0 0 0 0 0 0 0 0 0 0 
0 0 0 0 0 0 0 0 0 0 0 0 0 0 0 0 0 0 0 0 0 0 0 0 
0 0 0 0 0 0 0 0 0 0 0 0 0 0 0 0 0 0 0 0 0 0 0 0 
0 0 0 0 0 0 0 0 0 0 0 0 0 0 0 0 0 0 0 0 0 0 0 0 
0 0 0 0 0 0 0 0 0 0 0 0 0 0 0 0 0 0 0 0 0 0 0 0 
0 0 0 14 12 9 55 53 51 110 92 87 150 118 91 181 117 87 181 117 87 150 118 91 
171 102 53 154 83 29 154 83 29 154 83 29 176 87 19 183 105 36 188 97 36 194 110 39 
192 106 35 199 113 42 192 106 35 188 97 36 174 91 37 174 91 37 174 91 37 174 91 37 
149 63 22 149 63 22 153 87 46 2 1 1 0 0 0 0 0 0 0 0 0 0 0 0 
0 0 0 0 0 0 0 0 0 0 0 0 0 0 0 0 0 0 0 0 0 0 0 0 
0 0 0 0 0 0 0 0 0 0 0 0 0 0 0 0 0 0 0 0 0 0 0 0 
0 0 0 0 0 0 0 0 0 0 0 0 0 0 0 0 0 0 0 0 0 0 0 0 
0 0 0 0 0 0 0 0 0 0 0 0 0 0 0 0 0 0 0 0 0 0 0 0 
0 0 0 0 0 0 0 0 0 0 0 0 0 0 0 
0 0 0 0 0 0 0 0 0 0 0 0 0 0 0 0 0 0 0 0 0 0 0 0 
0 0 0 0 0 0 0 0 0 0 0 0 0 0 0 0 0 0 0 0 0 0 0 0 
0 0 0 0 0 0 0 0 0 0 0 0 0 0 0 0 0 0 0 0 0 0 0 0 
0 0 0 0 0 0 0 0 0 0 0 0 0 0 0 0 0 0 0 0 0 0 0 0 
0 0 0 0 0 0 0 0 0 0 0 0 0 0 0 0 0 0 0 0 0 0 0 0 
0 0 0 0 0 0 0 0 0 0 0 0 0 0 0 0 0 0 0 0 0 0 0 0 
0 0 0 0 0 0 0 0 0 0 0 0 0 0 0 0 0 0 0 0 0 0 0 0 
0 0 0 0 0 0 0 0 0 0 0 0 0 0 0 0 0 0 0 0 0 0 0 0 
0 0 0 0 0 0 0 0 0 0 0 0 0 0 0 0 0 0 0 0 0 0 0 0 
0 0 0 0 0 0 0 0 0 0 0 0 0 0 0 0 0 0 0 0 0 0 0 0 
0 0 0 0 0 0 0 0 0 0 0 0 0 0 0 0 0 0 0 0 0 0 0 0 
0 0 0 0 0 0 0 0 0 0 0 0 0 0 0 0 0 0 0 0 0 0 0 0 
0 0 0 0 0 0 0 0 0 0 0 0 0 0 0 0 0 0 0 0 0 0 0 0 
0 0 0 0 0 0 0 0 0 0 0 0 0 0 0 0 0 0 0 0 0 0 0 0 
0 0 0 0 0 0 0 0 0 0 0 0 2 1 1 51 29 18 104 64 29 140 88 64 
182 138 96 156 92 61 149 63 22 149 63 22 154 83 29 154 83 29 176 87 19 188 97 36 
188 97 36 188 97 36 199 114 47 174 91 37 176 87 19 174 91 37 149 63 22 149 63 22 
149 63 22 154 83 29 51 29 18 0 0 0 0 0 0 0 0 0 0 0 0 0 0 0 
0 0 0 0 0 0 0 0 0 0 0 0 0 0 0 0 0 0 0 0 0 0 0 0 
0 0 0 0 0 0 0 0 0 0 0 0 0 0 0 0 0 0 0 0 0 0 0 0 
0 0 0 0 0 0 0 0 0 0 0 0 0 0 0 0 0 0 0 0 0 0 0 0 
0 0 0 0 0 0 0 0 0 0 0 0 0 0 0 0 0 0 0 0 0 0 0 0 
0 0 0 0 0 0 0 0 0 0 0 0 0 0 0 
0 0 0 0 0 0 0 0 0 0 0 0 0 0 0 0 0 0 0 0 0 0 0 0 
0 0 0 0 0 0 0 0 0 0 0 0 0 0 0 0 0 0 0 0 0 0 0 0 
0 0 0 0 0 0 0 0 0 0 0 0 0 0 0 0 0 0 0 0 0 0 0 0 
0 0 0 0 0 0 0 0 0 0 0 0 0 0 0 0 0 0 0 0 0 0 0 0 
0 0 0 0 0 0 0 0 0 0 0 0 0 0 0 0 0 0 0 0 0 0 0 0 
0 0 0 0 0 0 0 0 0 0 0 0 0 0 0 0 0 0 0 0 0 0 0 0 
0 0 0 0 0 0 0 0 0 0 0 0 0 0 0 0 0 0 0 0 0 0 0 0 
0 0 0 0 0 0 0 0 0 0 0 0 0 0 0 0 0 0 0 0 0 0 0 0 
0 0 0 0 0 0 0 0 0 0 0 0 0 0 0 0 0 0 0 0 0 0 0 0 
0 0 0 0 0 0 0 0 0 0 0 0 0 0 0 0 0 0 0 0 0 0 0 0 
0 0 0 0 0 0 0 0 0 0 0 0 0 0 0 0 0 0 0 0 0 0 0 0 
0 0 0 0 0 0 0 0 0 0 0 0 0 0 0 0 0 0 0 0 0 0 0 0 
0 0 0 0 0 0 0 0 0 0 0 0 0 0 0 0 0 0 0 0 0 0 0 0 
0 0 0 0 0 0 0 0 0 0 0 0 0 0 0 0 0 0 0 0 0 0 0 0 
0 0 0 0 0 0 0 0 0 0 0 0 0 0 0 0 0 0 0 0 0 0 0 0 
14 12 9 55 53 51 104 64 29 128 64 26 128 64 26 149 63 22 154 83 29 174 91 37 
174 91 37 176 87 19 174 91 37 176 87 19 154 83 29 154 83 29 154 83 29 153 87 46 
153 87 46 104 64 29 0 0 0 0 0 0 0 0 0 0 0 0 0 0 0 0 0 0 
0 0 0 0 0 0 0 0 0 0 0 0 0 0 0 0 0 0 0 0 0 0 0 0 
0 0 0 0 0 0 0 0 0 0 0 0 0 0 0 0 0 0 0 0 0 0 0 0 
0 0 0 0 0 0 0 0 0 0 0 0 0 0 0 0 0 0 0 0 0 0 0 0 
0 0 0 0 0 0 0 0 0 0 0 0 0 0 0 0 0 0 0 0 0 0 0 0 
0 0 0 0 0 0 0 0 0 0 0 0 0 0 0 
0 0 0 0 0 0 0 0 0 0 0 0 0 0 0 0 0 0 0 0 0 0 0 0 
0 0 0 0 0 0 0 0 0 0 0 0 0 0 0 0 0 0 0 0 0 0 0 0 
0 0 0 0 0 0 0 0 0 0 0 0 0 0 0 0 0 0 0 0 0 0 0 0 
0 0 0 0 0 0 0 0 0 0 0 0 0 0 0 0 0 0 0 0 0 0 0 0 
0 0 0 0 0 0 0 0 0 0 0 0 0 0 0 0 0 0 0 0 0 0 0 0 
0 0 0 0 0 0 0 0 0 0 0 0 0 0 0 0 0 0 0 0 0 0 0 0 
0 0 0 0 0 0 0 0 0 0 0 0 0 0 0 0 0 0 0 0 0 0 0 0 
0 0 0 0 0 0 0 0 0 0 0 0 0 0 0 0 0 0 0 0 0 0 0 0 
0 0 0 0 0 0 0 0 0 0 0 0 0 0 0 0 0 0 0 0 0 0 0 0 
0 0 0 0 0 0 0 0 0 0 0 0 0 0 0 0 0 0 0 0 0 0 0 0 
0 0 0 0 0 0 0 0 0 0 0 0 0 0 0 0 0 0 0 0 0 0 0 0 
0 0 0 0 0 0 0 0 0 0 0 0 0 0 0 0 0 0 0 0 0 0 0 0 
0 0 0 0 0 0 0 0 0 0 0 0 0 0 0 0 0 0 0 0 0 0 0 0 
0 0 0 0 0 0 0 0 0 0 0 0 0 0 0 0 0 0 0 0 0 0 0 0 
0 0 0 0 0 0 0 0 0 0 0 0 0 0 0 0 0 0 0 0 0 0 0 0 
0 0 0 0 0 0 0 0 0 0 0 0 51 29 18 104 64 29 104 64 29 137 77 46 
153 87 46 171 102 53 186 105 52 171 102 53 153 87 46 154 83 29 51 29 18 51 29 18 
51 29 18 0 0 0 0 0 0 0 0 0 0 0 0 0 0 0 0 0 0 0 0 0 
0 0 0 0 0 0 0 0 0 0 0 0 0 0 0 0 0 0 0 0 0 0 0 0 
0 0 0 0 0 0 0 0 0 0 0 0 0 0 0 0 0 0 0 0 0 0 0 0 
0 0 0 0 0 0 0 0 0 0 0 0 0 0 0 0 0 0 0 0 0 0 0 0 
0 0 0 0 0 0 0 0 0 0 0 0 0 0 0 0 0 0 0 0 0 0 0 0 
0 0 0 0 0 0 0 0 0 0 0 0 0 0 0 
0 0 0 0 0 0 0 0 0 0 0 0 0 0 0 0 0 0 0 0 0 0 0 0 
0 0 0 0 0 0 0 0 0 0 0 0 0 0 0 0 0 0 0 0 0 0 0 0 
0 0 0 0 0 0 0 0 0 0 0 0 0 0 0 0 0 0 0 0 0 0 0 0 
0 0 0 0 0 0 0 0 0 0 0 0 0 0 0 0 0 0 0 0 0 0 0 0 
0 0 0 0 0 0 0 0 0 0 0 0 0 0 0 0 0 0 0 0 0 0 0 0 
0 0 0 0 0 0 0 0 0 0 0 0 0 0 0 0 0 0 0 0 0 0 0 0 
0 0 0 0 0 0 0 0 0 0 0 0 0 0 0 0 0 0 0 0 0 0 0 0 
0 0 0 0 0 0 0 0 0 0 0 0 0 0 0 0 0 0 0 0 0 0 0 0 
0 0 0 0 0 0 0 0 0 0 0 0 0 0 0 0 0 0 0 0 0 0 0 0 
0 0 0 0 0 0 0 0 0 0 0 0 0 0 0 0 0 0 0 0 0 0 0 0 
0 0 0 0 0 0 0 0 0 0 0 0 0 0 0 0 0 0 0 0 0 0 0 0 
0 0 0 0 0 0 0 0 0 0 0 0 0 0 0 0 0 0 0 0 0 0 0 0 
0 0 0 0 0 0 0 0 0 0 0 0 0 0 0 0 0 0 0 0 0 0 0 0 
0 0 0 0 0 0 0 0 0 0 0 0 0 0 0 0 0 0 0 0 0 0 0 0 
0 0 0 0 0 0 0 0 0 0 0 0 0 0 0 0 0 0 0 0 0 0 0 0 
0 0 0 0 0 0 0 0 0 0 0 0 0 0 0 0 0 0 0 0 0 2 1 1 
2 1 1 51 29 18 51 29 18 2 1 1 2 1 1 14 12 9 0 0 0 0 0 0 
0 0 0 0 0 0 0 0 0 0 0 0 0 0 0 0 0 0 0 0 0 0 0 0 
0 0 0 0 0 0 0 0 0 0 0 0 0 0 0 0 0 0 0 0 0 0 0 0 
0 0 0 0 0 0 0 0 0 0 0 0 0 0 0 0 0 0 0 0 0 0 0 0 
0 0 0 0 0 0 0 0 0 0 0 0 0 0 0 0 0 0 0 0 0 0 0 0 
0 0 0 0 0 0 0 0 0 0 0 0 0 0 0 0 0 0 0 0 0 0 0 0 
0 0 0 0 0 0 0 0 0 0 0 0 0 0 0 
0 0 0 0 0 0 0 0 0 0 0 0 0 0 0 0 0 0 0 0 0 0 0 0 
0 0 0 0 0 0 0 0 0 0 0 0 0 0 0 0 0 0 0 0 0 0 0 0 
0 0 0 0 0 0 0 0 0 0 0 0 0 0 0 0 0 0 0 0 0 0 0 0 
0 0 0 0 0 0 0 0 0 0 0 0 0 0 0 0 0 0 0 0 0 0 0 0 
0 0 0 0 0 0 0 0 0 0 0 0 0 0 0 0 0 0 0 0 0 0 0 0 
0 0 0 0 0 0 0 0 0 0 0 0 0 0 0 0 0 0 0 0 0 0 0 0 
0 0 0 0 0 0 0 0 0 0 0 0 0 0 0 0 0 0 0 0 0 0 0 0 
0 0 0 0 0 0 0 0 0 0 0 0 0 0 0 0 0 0 0 0 0 0 0 0 
0 0 0 0 0 0 0 0 0 0 0 0 0 0 0 0 0 0 0 0 0 0 0 0 
0 0 0 0 0 0 0 0 0 0 0 0 0 0 0 0 0 0 0 0 0 0 0 0 
0 0 0 0 0 0 0 0 0 0 0 0 0 0 0 0 0 0 0 0 0 0 0 0 
0 0 0 0 0 0 0 0 0 0 0 0 0 0 0 0 0 0 0 0 0 0 0 0 
0 0 0 0 0 0 0 0 0 0 0 0 0 0 0 0 0 0 0 0 0 0 0 0 
0 0 0 0 0 0 0 0 0 0 0 0 0 0 0 0 0 0 0 0 0 0 0 0 
0 0 0 0 0 0 0 0 0 0 0 0 0 0 0 0 0 0 0 0 0 0 0 0 
0 0 0 0 0 0 0 0 0 0 0 0 0 0 0 0 0 0 0 0 0 0 0 0 
0 0 0 0 0 0 0 0 0 0 0 0 0 0 0 0 0 0 0 0 0 0 0 0 
0 0 0 0 0 0 0 0 0 0 0 0 0 0 0 0 0 0 0 0 0 0 0 0 
0 0 0 0 0 0 0 0 0 0 0 0 0 0 0 0 0 0 0 0 0 0 0 0 
0 0 0 0 0 0 0 0 0 0 0 0 0 0 0 0 0 0 0 0 0 0 0 0 
0 0 0 0 0 0 0 0 0 0 0 0 0 0 0 0 0 0 0 0 0 0 0 0 
0 0 0 0 0 0 0 0 0 0 0 0 0 0 0 0 0 0 0 0 0 0 0 0 
0 0 0 0 0 0 0 0 0 0 0 0 0 0 0 
0 0 0 0 0 0 0 0 0 0 0 0 0 0 0 0 0 0 0 0 0 0 0 0 
0 0 0 0 0 0 0 0 0 0 0 0 0 0 0 0 0 0 0 0 0 0 0 0 
0 0 0 0 0 0 0 0 0 0 0 0 0 0 0 0 0 0 0 0 0 0 0 0 
0 0 0 0 0 0 0 0 0 0 0 0 0 0 0 0 0 0 0 0 0 0 0 0 
0 0 0 0 0 0 0 0 0 0 0 0 0 0 0 0 0 0 0 0 0 0 0 0 
0 0 0 0 0 0 0 0 0 0 0 0 0 0 0 0 0 0 0 0 0 0 0 0 
0 0 0 0 0 0 0 0 0 0 0 0 0 0 0 0 0 0 0 0 0 0 0 0 
0 0 0 0 0 0 0 0 0 0 0 0 0 0 0 0 0 0 0 0 0 0 0 0 
0 0 0 0 0 0 0 0 0 0 0 0 0 0 0 0 0 0 0 0 0 0 0 0 
0 0 0 0 0 0 0 0 0 0 0 0 0 0 0 0 0 0 0 0 0 0 0 0 
0 0 0 0 0 0 0 0 0 0 0 0 0 0 0 0 0 0 0 0 0 0 0 0 
0 0 0 0 0 0 0 0 0 0 0 0 0 0 0 0 0 0 0 0 0 0 0 0 
0 0 0 0 0 0 0 0 0 0 0 0 0 0 0 0 0 0 0 0 0 0 0 0 
0 0 0 0 0 0 0 0 0 0 0 0 0 0 0 0 0 0 0 0 0 0 0 0 
0 0 0 0 0 0 0 0 0 0 0 0 0 0 0 0 0 0 0 0 0 0 0 0 
0 0 0 0 0 0 0 0 0 0 0 0 0 0 0 0 0 0 0 0 0 0 0 0 
0 0 0 0 0 0 0 0 0 0 0 0 0 0 0 0 0 0 0 0 0 0 0 0 
0 0 0 0 0 0 0 0 0 0 0 0 0 0 0 0 0 0 0 0 0 0 0 0 
0 0 0 0 0 0 0 0 0 0 0 0 0 0 0 0 0 0 0 0 0 0 0 0 
0 0 0 0 0 0 0 0 0 0 0 0 0 0 0 0 0 0 0 0 0 0 0 0 
0 0 0 0 0 0 0 0 0 0 0 0 0 0 0 0 0 0 0 0 0 0 0 0 
0 0 0 0 0 0 0 0 0 0 0 0 0 0 0 0 0 0 0 0 0 0 0 0 
0 0 0 0 0 0 0 0 0 0 0 0 0 0 0 
0 0 0 0 0 0 0 0 0 0 0 0 0 0 0 0 0 0 0 0 0 0 0 0 
0 0 0 0 0 0 0 0 0 0 0 0 0 0 0 0 0 0 0 0 0 0 0 0 
0 0 0 0 0 0 0 0 0 0 0 0 0 0 0 0 0 0 0 0 0 0 0 0 
0 0 0 0 0 0 0 0 0 0 0 0 0 0 0 0 0 0 0 0 0 0 0 0 
0 0 0 0 0 0 0 0 0 0 0 0 0 0 0 0 0 0 0 0 0 0 0 0 
0 0 0 0 0 0 0 0 0 0 0 0 0 0 0 0 0 0 0 0 0 0 0 0 
0 0 0 0 0 0 0 0 0 0 0 0 0 0 0 0 0 0 0 0 0 0 0 0 
0 0 0 0 0 0 0 0 0 0 0 0 0 0 0 0 0 0 0 0 0 0 0 0 
0 0 0 0 0 0 0 0 0 0 0 0 0 0 0 0 0 0 0 0 0 0 0 0 
0 0 0 0 0 0 0 0 0 0 0 0 0 0 0 0 0 0 0 0 0 0 0 0 
0 0 0 0 0 0 0 0 0 0 0 0 0 0 0 0 0 0 0 0 0 0 0 0 
0 0 0 0 0 0 0 0 0 0 0 0 0 0 0 0 0 0 0 0 0 0 0 0 
0 0 0 0 0 0 0 0 0 0 0 0 0 0 0 0 0 0 0 0 0 0 0 0 
0 0 0 0 0 0 0 0 0 0 0 0 0 0 0 0 0 0 0 0 0 0 0 0 
0 0 0 0 0 0 0 0 0 0 0 0 0 0 0 0 0 0 0 0 0 0 0 0 
0 0 0 0 0 0 0 0 0 0 0 0 0 0 0 0 0 0 0 0 0 0 0 0 
0 0 0 0 0 0 0 0 0 0 0 0 0 0 0 0 0 0 0 0 0 0 0 0 
0 0 0 0 0 0 0 0 0 0 0 0 0 0 0 0 0 0 0 0 0 0 0 0 
0 0 0 0 0 0 0 0 0 0 0 0 0 0 0 0 0 0 0 0 0 0 0 0 
0 0 0 0 0 0 0 0 0 0 0 0 0 0 0 0 0 0 0 0 0 0 0 0 
0 0 0 0 0 0 0 0 0 0 0 0 0 0 0 0 0 0 0 0 0 0 0 0 
0 0 0 0 0 0 0 0 0 0 0 0 0 0 0 0 0 0 0 0 0 0 0 0 
0 0 0 0 0 0 0 0 0 0 0 0 0 0 0 
0 0 0 0 0 0 0 0 0 0 0 0 0 0 0 0 0 0 0 0 0 0 0 0 
0 0 0 0 0 0 0 0 0 0 0 0 0 0 0 0 0 0 0 0 0 0 0 0 
0 0 0 0 0 0 0 0 0 0 0 0 0 0 0 0 0 0 0 0 0 0 0 0 
0 0 0 0 0 0 0 0 0 0 0 0 0 0 0 0 0 0 0 0 0 0 0 0 
0 0 0 0 0 0 0 0 0 0 0 0 0 0 0 0 0 0 0 0 0 0 0 0 
0 0 0 0 0 0 0 0 0 0 0 0 0 0 0 0 0 0 0 0 0 0 0 0 
0 0 0 0 0 0 0 0 0 0 0 0 0 0 0 0 0 0 0 0 0 0 0 0 
0 0 0 0 0 0 0 0 0 0 0 0 0 0 0 0 0 0 0 0 0 0 0 0 
0 0 0 0 0 0 0 0 0 0 0 0 0 0 0 0 0 0 0 0 0 0 0 0 
0 0 0 0 0 0 0 0 0 0 0 0 0 0 0 0 0 0 0 0 0 0 0 0 
0 0 0 0 0 0 0 0 0 0 0 0 0 0 0 0 0 0 0 0 0 0 0 0 
0 0 0 0 0 0 0 0 0 0 0 0 0 0 0 0 0 0 0 0 0 0 0 0 
0 0 0 0 0 0 0 0 0 0 0 0 0 0 0 0 0 0 0 0 0 0 0 0 
0 0 0 0 0 0 0 0 0 0 0 0 0 0 0 0 0 0 0 0 0 0 0 0 
0 0 0 0 0 0 0 0 0 0 0 0 0 0 0 0 0 0 0 0 0 0 0 0 
0 0 0 0 0 0 0 0 0 0 0 0 0 0 0 0 0 0 0 0 0 0 0 0 
0 0 0 0 0 0 0 0 0 0 0 0 0 0 0 0 0 0 0 0 0 0 0 0 
0 0 0 0 0 0 0 0 0 0 0 0 0 0 0 0 0 0 0 0 0 0 0 0 
0 0 0 0 0 0 0 0 0 0 0 0 0 0 0 0 0 0 0 0 0 0 0 0 
0 0 0 0 0 0 0 0 0 0 0 0 0 0 0 0 0 0 0 0 0 0 0 0 
0 0 0 0 0 0 0 0 0 0 0 0 0 0 0 0 0 0 0 0 0 0 0 0 
0 0 0 0 0 0 0 0 0 0 0 0 0 0 0 0 0 0 0 0 0 0 0 0 
0 0 0 0 0 0 0 0 0 0 0 0 0 0 0 
0 0 0 0 0 0 0 0 0 0 0 0 0 0 0 0 0 0 0 0 0 0 0 0 
0 0 0 0 0 0 0 0 0 0 0 0 0 0 0 0 0 0 0 0 0 0 0 0 
0 0 0 0 0 0 0 0 0 0 0 0 0 0 0 0 0 0 0 0 0 0 0 0 
0 0 0 0 0 0 0 0 0 0 0 0 0 0 0 0 0 0 0 0 0 0 0 0 
0 0 0 0 0 0 0 0 0 0 0 0 0 0 0 0 0 0 0 0 0 0 0 0 
0 0 0 0 0 0 0 0 0 0 0 0 0 0 0 0 0 0 0 0 0 0 0 0 
0 0 0 0 0 0 0 0 0 0 0 0 0 0 0 0 0 0 0 0 0 0 0 0 
0 0 0 0 0 0 0 0 0 0 0 0 0 0 0 0 0 0 0 0 0 0 0 0 
0 0 0 0 0 0 0 0 0 0 0 0 0 0 0 0 0 0 0 0 0 0 0 0 
0 0 0 0 0 0 0 0 0 0 0 0 0 0 0 0 0 0 0 0 0 0 0 0 
0 0 0 0 0 0 0 0 0 0 0 0 0 0 0 0 0 0 0 0 0 0 0 0 
0 0 0 0 0 0 0 0 0 0 0 0 0 0 0 0 0 0 0 0 0 0 0 0 
0 0 0 0 0 0 0 0 0 0 0 0 0 0 0 0 0 0 0 0 0 0 0 0 
0 0 0 0 0 0 0 0 0 0 0 0 0 0 0 0 0 0 0 0 0 0 0 0 
0 0 0 0 0 0 0 0 0 0 0 0 0 0 0 0 0 0 0 0 0 0 0 0 
0 0 0 0 0 0 0 0 0 0 0 0 0 0 0 0 0 0 0 0 0 0 0 0 
0 0 0 0 0 0 0 0 0 0 0 0 0 0 0 0 0 0 0 0 0 0 0 0 
0 0 0 0 0 0 0 0 0 0 0 0 0 0 0 0 0 0 0 0 0 0 0 0 
0 0 0 0 0 0 0 0 0 0 0 0 0 0 0 0 0 0 0 0 0 0 0 0 
0 0 0 0 0 0 0 0 0 0 0 0 0 0 0 0 0 0 0 0 0 0 0 0 
0 0 0 0 0 0 0 0 0 0 0 0 0 0 0 0 0 0 0 0 0 0 0 0 
0 0 0 0 0 0 0 0 0 0 0 0 0 0 0 0 0 0 0 0 0 0 0 0 
0 0 0 0 0 0 0 0 0 0 0 0 0 0 0 
0 0 0 0 0 0 0 0 0 0 0 0 0 0 0 0 0 0 0 0 0 0 0 0 
0 0 0 0 0 0 0 0 0 0 0 0 0 0 0 0 0 0 0 0 0 0 0 0 
0 0 0 0 0 0 0 0 0 0 0 0 0 0 0 0 0 0 0 0 0 0 0 0 
0 0 0 0 0 0 0 0 0 0 0 0 0 0 0 0 0 0 0 0 0 0 0 0 
0 0 0 0 0 0 0 0 0 0 0 0 0 0 0 0 0 0 0 0 0 0 0 0 
0 0 0 0 0 0 0 0 0 0 0 0 0 0 0 0 0 0 0 0 0 0 0 0 
0 0 0 0 0 0 0 0 0 0 0 0 0 0 0 0 0 0 0 0 0 0 0 0 
0 0 0 0 0 0 0 0 0 0 0 0 0 0 0 0 0 0 0 0 0 0 0 0 
0 0 0 0 0 0 0 0 0 0 0 0 0 0 0 0 0 0 0 0 0 0 0 0 
0 0 0 0 0 0 0 0 0 0 0 0 0 0 0 0 0 0 0 0 0 0 0 0 
0 0 0 0 0 0 0 0 0 0 0 0 0 0 0 0 0 0 0 0 0 0 0 0 
0 0 0 0 0 0 0 0 0 0 0 0 0 0 0 0 0 0 0 0 0 0 0 0 
0 0 0 0 0 0 0 0 0 0 0 0 0 0 0 0 0 0 0 0 0 0 0 0 
0 0 0 0 0 0 0 0 0 0 0 0 0 0 0 0 0 0 0 0 0 0 0 0 
0 0 0 0 0 0 0 0 0 0 0 0 0 0 0 0 0 0 0 0 0 0 0 0 
0 0 0 0 0 0 0 0 0 0 0 0 0 0 0 0 0 0 0 0 0 0 0 0 
0 0 0 0 0 0 0 0 0 0 0 0 0 0 0 0 0 0 0 0 0 0 0 0 
0 0 0 0 0 0 0 0 0 0 0 0 0 0 0 0 0 0 0 0 0 0 0 0 
0 0 0 0 0 0 0 0 0 0 0 0 0 0 0 0 0 0 0 0 0 0 0 0 
0 0 0 0 0 0 0 0 0 0 0 0 0 0 0 0 0 0 0 0 0 0 0 0 
0 0 0 0 0 0 0 0 0 0 0 0 0 0 0 0 0 0 0 0 0 0 0 0 
0 0 0 0 0 0 0 0 0 0 0 0 0 0 0 0 0 0 0 0 0 0 0 0 
0 0 0 0 0 0 0 0 0 0 0 0 0 0 0 
0 0 0 0 0 0 0 0 0 0 0 0 0 0 0 0 0 0 0 0 0 0 0 0 
0 0 0 0 0 0 0 0 0 0 0 0 0 0 0 0 0 0 0 0 0 0 0 0 
0 0 0 0 0 0 0 0 0 0 0 0 0 0 0 0 0 0 0 0 0 0 0 0 
0 0 0 0 0 0 0 0 0 0 0 0 0 0 0 0 0 0 0 0 0 0 0 0 
0 0 0 0 0 0 0 0 0 0 0 0 0 0 0 0 0 0 0 0 0 0 0 0 
0 0 0 0 0 0 0 0 0 0 0 0 0 0 0 0 0 0 0 0 0 0 0 0 
0 0 0 0 0 0 0 0 0 0 0 0 0 0 0 0 0 0 0 0 0 0 0 0 
0 0 0 0 0 0 0 0 0 0 0 0 0 0 0 0 0 0 0 0 0 0 0 0 
0 0 0 0 0 0 0 0 0 0 0 0 0 0 0 0 0 0 0 0 0 0 0 0 
0 0 0 0 0 0 0 0 0 0 0 0 0 0 0 0 0 0 0 0 0 0 0 0 
0 0 0 0 0 0 0 0 0 0 0 0 0 0 0 0 0 0 0 0 0 0 0 0 
0 0 0 0 0 0 0 0 0 0 0 0 0 0 0 0 0 0 0 0 0 0 0 0 
0 0 0 0 0 0 0 0 0 0 0 0 0 0 0 0 0 0 0 0 0 0 0 0 
0 0 0 0 0 0 0 0 0 0 0 0 0 0 0 0 0 0 0 0 0 0 0 0 
0 0 0 0 0 0 0 0 0 0 0 0 0 0 0 0 0 0 0 0 0 0 0 0 
0 0 0 0 0 0 0 0 0 0 0 0 0 0 0 0 0 0 0 0 0 0 0 0 
0 0 0 0 0 0 0 0 0 0 0 0 0 0 0 0 0 0 0 0 0 0 0 0 
0 0 0 0 0 0 0 0 0 0 0 0 0 0 0 0 0 0 0 0 0 0 0 0 
0 0 0 0 0 0 0 0 0 0 0 0 0 0 0 0 0 0 0 0 0 0 0 0 
0 0 0 0 0 0 0 0 0 0 0 0 0 0 0 0 0 0 0 0 0 0 0 0 
0 0 0 0 0 0 0 0 0 0 0 0 0 0 0 0 0 0 0 0 0 0 0 0 
0 0 0 0 0 0 0 0 0 0 0 0 0 0 0 0 0 0 0 0 0 0 0 0 
0 0 0 0 0 0 0 0 0 0 0 0 0 0 0 
0 0 0 0 0 0 0 0 0 0 0 0 0 0 0 0 0 0 0 0 0 0 0 0 
0 0 0 0 0 0 0 0 0 0 0 0 0 0 0 0 0 0 0 0 0 0 0 0 
0 0 0 0 0 0 0 0 0 0 0 0 0 0 0 0 0 0 0 0 0 0 0 0 
0 0 0 0 0 0 0 0 0 0 0 0 0 0 0 0 0 0 0 0 0 0 0 0 
0 0 0 0 0 0 0 0 0 0 0 0 0 0 0 0 0 0 0 0 0 0 0 0 
0 0 0 0 0 0 0 0 0 0 0 0 0 0 0 0 0 0 0 0 0 0 0 0 
0 0 0 0 0 0 0 0 0 0 0 0 0 0 0 0 0 0 0 0 0 0 0 0 
0 0 0 0 0 0 0 0 0 0 0 0 0 0 0 0 0 0 0 0 0 0 0 0 
0 0 0 0 0 0 0 0 0 0 0 0 0 0 0 0 0 0 0 0 0 0 0 0 
0 0 0 0 0 0 0 0 0 0 0 0 0 0 0 0 0 0 0 0 0 0 0 0 
0 0 0 0 0 0 0 0 0 0 0 0 0 0 0 0 0 0 0 0 0 0 0 0 
0 0 0 0 0 0 0 0 0 0 0 0 0 0 0 0 0 0 0 0 0 0 0 0 
0 0 0 0 0 0 0 0 0 0 0 0 0 0 0 0 0 0 0 0 0 0 0 0 
0 0 0 0 0 0 0 0 0 0 0 0 0 0 0 0 0 0 0 0 0 0 0 0 
0 0 0 0 0 0 0 0 0 0 0 0 0 0 0 0 0 0 0 0 0 0 0 0 
0 0 0 0 0 0 0 0 0 0 0 0 0 0 0 0 0 0 0 0 0 0 0 0 
0 0 0 0 0 0 0 0 0 0 0 0 0 0 0 0 0 0 0 0 0 0 0 0 
0 0 0 0 0 0 0 0 0 0 0 0 0 0 0 0 0 0 0 0 0 0 0 0 
0 0 0 0 0 0 0 0 0 0 0 0 0 0 0 0 0 0 0 0 0 0 0 0 
0 0 0 0 0 0 0 0 0 0 0 0 0 0 0 0 0 0 0 0 0 0 0 0 
0 0 0 0 0 0 0 0 0 0 0 0 0 0 0 0 0 0 0 0 0 0 0 0 
0 0 0 0 0 0 0 0 0 0 0 0 0 0 0 0 0 0 0 0 0 0 0 0 
0 0 0 0 0 0 0 0 0 0 0 0 0 0 0 
0 0 0 0 0 0 0 0 0 0 0 0 0 0 0 0 0 0 0 0 0 0 0 0 
0 0 0 0 0 0 0 0 0 0 0 0 0 0 0 0 0 0 0 0 0 0 0 0 
0 0 0 0 0 0 0 0 0 0 0 0 0 0 0 0 0 0 0 0 0 0 0 0 
0 0 0 0 0 0 0 0 0 0 0 0 0 0 0 0 0 0 0 0 0 0 0 0 
0 0 0 0 0 0 0 0 0 0 0 0 0 0 0 0 0 0 0 0 0 0 0 0 
0 0 0 0 0 0 0 0 0 0 0 0 0 0 0 0 0 0 0 0 0 0 0 0 
0 0 0 0 0 0 0 0 0 0 0 0 0 0 0 0 0 0 0 0 0 0 0 0 
0 0 0 0 0 0 0 0 0 0 0 0 0 0 0 0 0 0 0 0 0 0 0 0 
0 0 0 0 0 0 0 0 0 0 0 0 0 0 0 0 0 0 0 0 0 0 0 0 
0 0 0 0 0 0 0 0 0 0 0 0 0 0 0 0 0 0 0 0 0 0 0 0 
0 0 0 0 0 0 0 0 0 0 0 0 0 0 0 0 0 0 0 0 0 0 0 0 
0 0 0 0 0 0 0 0 0 0 0 0 0 0 0 0 0 0 0 0 0 0 0 0 
0 0 0 0 0 0 0 0 0 0 0 0 0 0 0 0 0 0 0 0 0 0 0 0 
0 0 0 0 0 0 0 0 0 0 0 0 0 0 0 0 0 0 0 0 0 0 0 0 
0 0 0 0 0 0 0 0 0 0 0 0 0 0 0 0 0 0 0 0 0 0 0 0 
0 0 0 0 0 0 0 0 0 0 0 0 0 0 0 0 0 0 0 0 0 0 0 0 
0 0 0 0 0 0 0 0 0 0 0 0 0 0 0 0 0 0 0 0 0 0 0 0 
0 0 0 0 0 0 0 0 0 0 0 0 0 0 0 0 0 0 0 0 0 0 0 0 
0 0 0 0 0 0 0 0 0 0 0 0 0 0 0 0 0 0 0 0 0 0 0 0 
0 0 0 0 0 0 0 0 0 0 0 0 0 0 0 0 0 0 0 0 0 0 0 0 
0 0 0 0 0 0 0 0 0 0 0 0 0 0 0 0 0 0 0 0 0 0 0 0 
0 0 0 0 0 0 0 0 0 0 0 0 0 0 0 0 0 0 0 0 0 0 0 0 
0 0 0 0 0 0 0 0 0 0 0 0 0 0 0 
0 0 0 0 0 0 0 0 0 0 0 0 0 0 0 0 0 0 0 0 0 0 0 0 
0 0 0 0 0 0 0 0 0 0 0 0 0 0 0 0 0 0 0 0 0 0 0 0 
0 0 0 0 0 0 0 0 0 0 0 0 0 0 0 0 0 0 0 0 0 0 0 0 
0 0 0 0 0 0 0 0 0 0 0 0 0 0 0 0 0 0 0 0 0 0 0 0 
0 0 0 0 0 0 0 0 0 0 0 0 0 0 0 0 0 0 0 0 0 0 0 0 
0 0 0 0 0 0 0 0 0 0 0 0 0 0 0 0 0 0 0 0 0 0 0 0 
0 0 0 0 0 0 0 0 0 0 0 0 0 0 0 0 0 0 0 0 0 0 0 0 
0 0 0 0 0 0 0 0 0 0 0 0 0 0 0 0 0 0 0 0 0 0 0 0 
0 0 0 0 0 0 0 0 0 0 0 0 0 0 0 0 0 0 0 0 0 0 0 0 
0 0 0 0 0 0 0 0 0 0 0 0 0 0 0 0 0 0 0 0 0 0 0 0 
0 0 0 0 0 0 0 0 0 0 0 0 0 0 0 0 0 0 0 0 0 0 0 0 
0 0 0 0 0 0 0 0 0 0 0 0 0 0 0 0 0 0 0 0 0 0 0 0 
0 0 0 0 0 0 0 0 0 0 0 0 0 0 0 0 0 0 0 0 0 0 0 0 
0 0 0 0 0 0 0 0 0 0 0 0 0 0 0 0 0 0 0 0 0 0 0 0 
0 0 0 0 0 0 0 0 0 0 0 0 0 0 0 0 0 0 0 0 0 0 0 0 
0 0 0 0 0 0 0 0 0 0 0 0 0 0 0 0 0 0 0 0 0 0 0 0 
0 0 0 0 0 0 0 0 0 0 0 0 0 0 0 0 0 0 0 0 0 0 0 0 
0 0 0 0 0 0 0 0 0 0 0 0 0 0 0 0 0 0 0 0 0 0 0 0 
0 0 0 0 0 0 0 0 0 0 0 0 0 0 0 0 0 0 0 0 0 0 0 0 
0 0 0 0 0 0 0 0 0 0 0 0 0 0 0 0 0 0 0 0 0 0 0 0 
0 0 0 0 0 0 0 0 0 0 0 0 0 0 0 0 0 0 0 0 0 0 0 0 
0 0 0 0 0 0 0 0 0 0 0 0 0 0 0 0 0 0 0 0 0 0 0 0 
0 0 0 0 0 0 0 0 0 0 0 0 0 0 0 
0 0 0 0 0 0 0 0 0 0 0 0 0 0 0 0 0 0 0 0 0 0 0 0 
0 0 0 0 0 0 0 0 0 0 0 0 0 0 0 0 0 0 0 0 0 0 0 0 
0 0 0 0 0 0 0 0 0 0 0 0 0 0 0 0 0 0 0 0 0 0 0 0 
0 0 0 0 0 0 0 0 0 0 0 0 0 0 0 0 0 0 0 0 0 0 0 0 
0 0 0 0 0 0 0 0 0 0 0 0 0 0 0 0 0 0 0 0 0 0 0 0 
0 0 0 0 0 0 0 0 0 0 0 0 0 0 0 0 0 0 0 0 0 0 0 0 
0 0 0 0 0 0 0 0 0 0 0 0 0 0 0 0 0 0 0 0 0 0 0 0 
0 0 0 0 0 0 0 0 0 0 0 0 0 0 0 0 0 0 0 0 0 0 0 0 
0 0 0 0 0 0 0 0 0 0 0 0 0 0 0 0 0 0 0 0 0 0 0 0 
0 0 0 0 0 0 0 0 0 0 0 0 0 0 0 0 0 0 0 0 0 0 0 0 
0 0 0 0 0 0 0 0 0 0 0 0 0 0 0 0 0 0 0 0 0 0 0 0 
0 0 0 0 0 0 0 0 0 0 0 0 0 0 0 0 0 0 0 0 0 0 0 0 
0 0 0 0 0 0 0 0 0 0 0 0 0 0 0 0 0 0 0 0 0 0 0 0 
0 0 0 0 0 0 0 0 0 0 0 0 0 0 0 0 0 0 0 0 0 0 0 0 
0 0 0 0 0 0 0 0 0 0 0 0 0 0 0 0 0 0 0 0 0 0 0 0 
0 0 0 0 0 0 0 0 0 0 0 0 0 0 0 0 0 0 0 0 0 0 0 0 
0 0 0 0 0 0 0 0 0 0 0 0 0 0 0 0 0 0 0 0 0 0 0 0 
0 0 0 0 0 0 0 0 0 0 0 0 0 0 0 0 0 0 0 0 0 0 0 0 
0 0 0 0 0 0 0 0 0 0 0 0 0 0 0 0 0 0 0 0 0 0 0 0 
0 0 0 0 0 0 0 0 0 0 0 0 0 0 0 0 0 0 0 0 0 0 0 0 
0 0 0 0 0 0 0 0 0 0 0 0 0 0 0 0 0 0 0 0 0 0 0 0 
0 0 0 0 0 0 0 0 0 0 0 0 0 0 0 0 0 0 0 0 0 0 0 0 
0 0 0 0 0 0 0 0 0 0 0 0 0 0 0 
0 0 0 0 0 0 0 0 0 0 0 0 0 0 0 0 0 0 0 0 0 0 0 0 
0 0 0 0 0 0 0 0 0 0 0 0 0 0 0 0 0 0 0 0 0 0 0 0 
0 0 0 0 0 0 0 0 0 0 0 0 0 0 0 0 0 0 0 0 0 0 0 0 
0 0 0 0 0 0 0 0 0 0 0 0 0 0 0 0 0 0 0 0 0 0 0 0 
0 0 0 0 0 0 0 0 0 0 0 0 0 0 0 0 0 0 0 0 0 0 0 0 
0 0 0 0 0 0 0 0 0 0 0 0 0 0 0 0 0 0 0 0 0 0 0 0 
0 0 0 0 0 0 0 0 0 0 0 0 0 0 0 0 0 0 0 0 0 0 0 0 
0 0 0 0 0 0 0 0 0 0 0 0 0 0 0 0 0 0 0 0 0 0 0 0 
0 0 0 0 0 0 0 0 0 0 0 0 0 0 0 0 0 0 0 0 0 0 0 0 
0 0 0 0 0 0 0 0 0 0 0 0 0 0 0 0 0 0 0 0 0 0 0 0 
0 0 0 0 0 0 0 0 0 0 0 0 0 0 0 0 0 0 0 0 0 0 0 0 
0 0 0 0 0 0 0 0 0 0 0 0 0 0 0 0 0 0 0 0 0 0 0 0 
0 0 0 0 0 0 0 0 0 0 0 0 0 0 0 0 0 0 0 0 0 0 0 0 
0 0 0 0 0 0 0 0 0 0 0 0 0 0 0 0 0 0 0 0 0 0 0 0 
0 0 0 0 0 0 0 0 0 0 0 0 0 0 0 0 0 0 0 0 0 0 0 0 
0 0 0 0 0 0 0 0 0 0 0 0 0 0 0 0 0 0 0 0 0 0 0 0 
0 0 0 0 0 0 0 0 0 0 0 0 0 0 0 0 0 0 0 0 0 0 0 0 
0 0 0 0 0 0 0 0 0 0 0 0 0 0 0 0 0 0 0 0 0 0 0 0 
0 0 0 0 0 0 0 0 0 0 0 0 0 0 0 0 0 0 0 0 0 0 0 0 
0 0 0 0 0 0 0 0 0 0 0 0 0 0 0 0 0 0 0 0 0 0 0 0 
0 0 0 0 0 0 0 0 0 0 0 0 0 0 0 0 0 0 0 0 0 0 0 0 
0 0 0 0 0 0 0 0 0 0 0 0 0 0 0 0 0 0 0 0 0 0 0 0 
0 0 0 0 0 0 0 0 0 0 0 0 0 0 0 
0 0 0 0 0 0 0 0 0 0 0 0 0 0 0 0 0 0 0 0 0 0 0 0 
0 0 0 0 0 0 0 0 0 0 0 0 0 0 0 0 0 0 0 0 0 0 0 0 
0 0 0 0 0 0 0 0 0 0 0 0 0 0 0 0 0 0 0 0 0 0 0 0 
0 0 0 0 0 0 0 0 0 0 0 0 0 0 0 0 0 0 0 0 0 0 0 0 
0 0 0 0 0 0 0 0 0 0 0 0 0 0 0 0 0 0 0 0 0 0 0 0 
0 0 0 0 0 0 0 0 0 0 0 0 0 0 0 0 0 0 0 0 0 0 0 0 
0 0 0 0 0 0 0 0 0 0 0 0 0 0 0 0 0 0 0 0 0 0 0 0 
0 0 0 0 0 0 0 0 0 0 0 0 0 0 0 0 0 0 0 0 0 0 0 0 
0 0 0 0 0 0 0 0 0 0 0 0 0 0 0 0 0 0 0 0 0 0 0 0 
0 0 0 0 0 0 0 0 0 0 0 0 0 0 0 0 0 0 0 0 0 0 0 0 
0 0 0 0 0 0 0 0 0 0 0 0 0 0 0 0 0 0 0 0 0 0 0 0 
0 0 0 0 0 0 0 0 0 0 0 0 0 0 0 0 0 0 0 0 0 0 0 0 
0 0 0 0 0 0 0 0 0 0 0 0 0 0 0 0 0 0 0 0 0 0 0 0 
0 0 0 0 0 0 0 0 0 0 0 0 0 0 0 0 0 0 0 0 0 0 0 0 
0 0 0 0 0 0 0 0 0 0 0 0 0 0 0 0 0 0 0 0 0 0 0 0 
0 0 0 0 0 0 0 0 0 0 0 0 0 0 0 0 0 0 0 0 0 0 0 0 
0 0 0 0 0 0 0 0 0 0 0 0 0 0 0 0 0 0 0 0 0 0 0 0 
0 0 0 0 0 0 0 0 0 0 0 0 0 0 0 0 0 0 0 0 0 0 0 0 
0 0 0 0 0 0 0 0 0 0 0 0 0 0 0 0 0 0 0 0 0 0 0 0 
0 0 0 0 0 0 0 0 0 0 0 0 0 0 0 0 0 0 0 0 0 0 0 0 
0 0 0 0 0 0 0 0 0 0 0 0 0 0 0 0 0 0 0 0 0 0 0 0 
0 0 0 0 0 0 0 0 0 0 0 0 0 0 0 0 0 0 0 0 0 0 0 0 
0 0 0 0 0 0 0 0 0 0 0 0 0 0 0 
0 0 0 0 0 0 0 0 0 0 0 0 0 0 0 0 0 0 0 0 0 0 0 0 
0 0 0 0 0 0 0 0 0 0 0 0 0 0 0 0 0 0 0 0 0 0 0 0 
0 0 0 0 0 0 0 0 0 0 0 0 0 0 0 0 0 0 0 0 0 0 0 0 
0 0 0 0 0 0 0 0 0 0 0 0 0 0 0 0 0 0 0 0 0 0 0 0 
0 0 0 0 0 0 0 0 0 0 0 0 0 0 0 0 0 0 0 0 0 0 0 0 
0 0 0 0 0 0 0 0 0 0 0 0 0 0 0 0 0 0 0 0 0 0 0 0 
0 0 0 0 0 0 0 0 0 0 0 0 0 0 0 0 0 0 0 0 0 0 0 0 
0 0 0 0 0 0 0 0 0 0 0 0 0 0 0 0 0 0 0 0 0 0 0 0 
0 0 0 0 0 0 0 0 0 0 0 0 0 0 0 0 0 0 0 0 0 0 0 0 
0 0 0 0 0 0 0 0 0 0 0 0 0 0 0 0 0 0 0 0 0 0 0 0 
0 0 0 0 0 0 0 0 0 0 0 0 0 0 0 0 0 0 0 0 0 0 0 0 
0 0 0 0 0 0 0 0 0 0 0 0 0 0 0 0 0 0 0 0 0 0 0 0 
0 0 0 0 0 0 0 0 0 0 0 0 0 0 0 0 0 0 0 0 0 0 0 0 
0 0 0 0 0 0 0 0 0 0 0 0 0 0 0 0 0 0 0 0 0 0 0 0 
0 0 0 0 0 0 0 0 0 0 0 0 0 0 0 0 0 0 0 0 0 0 0 0 
0 0 0 0 0 0 0 0 0 0 0 0 0 0 0 0 0 0 0 0 0 0 0 0 
0 0 0 0 0 0 0 0 0 0 0 0 0 0 0 0 0 0 0 0 0 0 0 0 
0 0 0 0 0 0 0 0 0 0 0 0 0 0 0 0 0 0 0 0 0 0 0 0 
0 0 0 0 0 0 0 0 0 0 0 0 0 0 0 0 0 0 0 0 0 0 0 0 
0 0 0 0 0 0 0 0 0 0 0 0 0 0 0 0 0 0 0 0 0 0 0 0 
0 0 0 0 0 0 0 0 0 0 0 0 0 0 0 0 0 0 0 0 0 0 0 0 
0 0 0 0 0 0 0 0 0 0 0 0 0 0 0 0 0 0 0 0 0 0 0 0 
0 0 0 0 0 0 0 0 0 0 0 0 0 0 0 
0 0 0 0 0 0 0 0 0 0 0 0 0 0 0 0 0 0 0 0 0 0 0 0 
0 0 0 0 0 0 0 0 0 0 0 0 0 0 0 0 0 0 0 0 0 0 0 0 
0 0 0 0 0 0 0 0 0 0 0 0 0 0 0 0 0 0 0 0 0 0 0 0 
0 0 0 0 0 0 0 0 0 0 0 0 0 0 0 0 0 0 0 0 0 0 0 0 
0 0 0 0 0 0 0 0 0 0 0 0 0 0 0 0 0 0 0 0 0 0 0 0 
0 0 0 0 0 0 0 0 0 0 0 0 0 0 0 0 0 0 0 0 0 0 0 0 
0 0 0 0 0 0 0 0 0 0 0 0 0 0 0 0 0 0 0 0 0 0 0 0 
0 0 0 0 0 0 0 0 0 0 0 0 0 0 0 0 0 0 0 0 0 0 0 0 
0 0 0 0 0 0 0 0 0 0 0 0 0 0 0 0 0 0 0 0 0 0 0 0 
0 0 0 0 0 0 0 0 0 0 0 0 0 0 0 0 0 0 0 0 0 0 0 0 
0 0 0 0 0 0 0 0 0 0 0 0 0 0 0 0 0 0 0 0 0 0 0 0 
0 0 0 0 0 0 0 0 0 0 0 0 0 0 0 0 0 0 0 0 0 0 0 0 
0 0 0 0 0 0 0 0 0 0 0 0 0 0 0 0 0 0 0 0 0 0 0 0 
0 0 0 0 0 0 0 0 0 0 0 0 0 0 0 0 0 0 0 0 0 0 0 0 
0 0 0 0 0 0 0 0 0 0 0 0 0 0 0 0 0 0 0 0 0 0 0 0 
0 0 0 0 0 0 0 0 0 0 0 0 0 0 0 0 0 0 0 0 0 0 0 0 
0 0 0 0 0 0 0 0 0 0 0 0 0 0 0 0 0 0 0 0 0 0 0 0 
0 0 0 0 0 0 0 0 0 0 0 0 0 0 0 0 0 0 0 0 0 0 0 0 
0 0 0 0 0 0 0 0 0 0 0 0 0 0 0 0 0 0 0 0 0 0 0 0 
0 0 0 0 0 0 0 0 0 0 0 0 0 0 0 0 0 0 0 0 0 0 0 0 
0 0 0 0 0 0 0 0 0 0 0 0 0 0 0 0 0 0 0 0 0 0 0 0 
0 0 0 0 0 0 0 0 0 0 0 0 0 0 0 0 0 0 0 0 0 0 0 0 
0 0 0 0 0 0 0 0 0 0 0 0 0 0 0 
0 0 0 0 0 0 0 0 0 0 0 0 0 0 0 0 0 0 0 0 0 0 0 0 
0 0 0 0 0 0 0 0 0 0 0 0 0 0 0 0 0 0 0 0 0 0 0 0 
0 0 0 0 0 0 0 0 0 0 0 0 0 0 0 0 0 0 0 0 0 0 0 0 
0 0 0 0 0 0 0 0 0 0 0 0 0 0 0 0 0 0 0 0 0 0 0 0 
0 0 0 0 0 0 0 0 0 0 0 0 0 0 0 0 0 0 0 0 0 0 0 0 
0 0 0 0 0 0 0 0 0 0 0 0 0 0 0 0 0 0 0 0 0 0 0 0 
0 0 0 0 0 0 0 0 0 0 0 0 0 0 0 0 0 0 0 0 0 0 0 0 
0 0 0 0 0 0 0 0 0 0 0 0 0 0 0 0 0 0 0 0 0 0 0 0 
0 0 0 0 0 0 0 0 0 0 0 0 0 0 0 0 0 0 0 0 0 0 0 0 
0 0 0 0 0 0 0 0 0 0 0 0 0 0 0 0 0 0 0 0 0 0 0 0 
0 0 0 0 0 0 0 0 0 0 0 0 0 0 0 0 0 0 0 0 0 0 0 0 
0 0 0 0 0 0 0 0 0 0 0 0 0 0 0 0 0 0 0 0 0 0 0 0 
0 0 0 0 0 0 0 0 0 0 0 0 0 0 0 0 0 0 0 0 0 0 0 0 
0 0 0 0 0 0 0 0 0 0 0 0 0 0 0 0 0 0 0 0 0 0 0 0 
0 0 0 0 0 0 0 0 0 0 0 0 0 0 0 0 0 0 0 0 0 0 0 0 
0 0 0 0 0 0 0 0 0 0 0 0 0 0 0 0 0 0 0 0 0 0 0 0 
0 0 0 0 0 0 0 0 0 0 0 0 0 0 0 0 0 0 0 0 0 0 0 0 
0 0 0 0 0 0 0 0 0 0 0 0 0 0 0 0 0 0 0 0 0 0 0 0 
0 0 0 0 0 0 0 0 0 0 0 0 0 0 0 0 0 0 0 0 0 0 0 0 
0 0 0 0 0 0 0 0 0 0 0 0 0 0 0 0 0 0 0 0 0 0 0 0 
0 0 0 0 0 0 0 0 0 0 0 0 0 0 0 0 0 0 0 0 0 0 0 0 
0 0 0 0 0 0 0 0 0 0 0 0 0 0 0 0 0 0 0 0 0 0 0 0 
0 0 0 0 0 0 0 0 0 0 0 0 0 0 0 
0 0 0 0 0 0 0 0 0 0 0 0 0 0 0 0 0 0 0 0 0 0 0 0 
0 0 0 0 0 0 0 0 0 0 0 0 0 0 0 0 0 0 0 0 0 0 0 0 
0 0 0 0 0 0 0 0 0 0 0 0 0 0 0 0 0 0 0 0 0 0 0 0 
0 0 0 0 0 0 0 0 0 0 0 0 0 0 0 0 0 0 0 0 0 0 0 0 
0 0 0 0 0 0 0 0 0 0 0 0 0 0 0 0 0 0 0 0 0 0 0 0 
0 0 0 0 0 0 0 0 0 0 0 0 0 0 0 0 0 0 0 0 0 0 0 0 
0 0 0 0 0 0 0 0 0 0 0 0 0 0 0 0 0 0 0 0 0 0 0 0 
0 0 0 0 0 0 0 0 0 0 0 0 0 0 0 0 0 0 0 0 0 0 0 0 
0 0 0 0 0 0 0 0 0 0 0 0 0 0 0 0 0 0 0 0 0 0 0 0 
0 0 0 0 0 0 0 0 0 0 0 0 0 0 0 0 0 0 0 0 0 0 0 0 
0 0 0 0 0 0 0 0 0 0 0 0 0 0 0 0 0 0 0 0 0 0 0 0 
0 0 0 0 0 0 0 0 0 0 0 0 0 0 0 0 0 0 0 0 0 0 0 0 
0 0 0 0 0 0 0 0 0 0 0 0 0 0 0 0 0 0 0 0 0 0 0 0 
0 0 0 0 0 0 0 0 0 0 0 0 0 0 0 0 0 0 0 0 0 0 0 0 
0 0 0 0 0 0 0 0 0 0 0 0 0 0 0 0 0 0 0 0 0 0 0 0 
0 0 0 0 0 0 0 0 0 0 0 0 0 0 0 0 0 0 0 0 0 0 0 0 
0 0 0 0 0 0 0 0 0 0 0 0 0 0 0 0 0 0 0 0 0 0 0 0 
0 0 0 0 0 0 0 0 0 0 0 0 0 0 0 0 0 0 0 0 0 0 0 0 
0 0 0 0 0 0 0 0 0 0 0 0 0 0 0 0 0 0 0 0 0 0 0 0 
0 0 0 0 0 0 0 0 0 0 0 0 0 0 0 0 0 0 0 0 0 0 0 0 
0 0 0 0 0 0 0 0 0 0 0 0 0 0 0 0 0 0 0 0 0 0 0 0 
0 0 0 0 0 0 0 0 0 0 0 0 0 0 0 0 0 0 0 0 0 0 0 0 
0 0 0 0 0 0 0 0 0 0 0 0 0 0 0 
0 0 0 0 0 0 0 0 0 0 0 0 0 0 0 0 0 0 0 0 0 0 0 0 
0 0 0 0 0 0 0 0 0 0 0 0 0 0 0 0 0 0 0 0 0 0 0 0 
0 0 0 0 0 0 0 0 0 0 0 0 0 0 0 0 0 0 0 0 0 0 0 0 
0 0 0 0 0 0 0 0 0 0 0 0 0 0 0 0 0 0 0 0 0 0 0 0 
0 0 0 0 0 0 0 0 0 0 0 0 0 0 0 0 0 0 0 0 0 0 0 0 
0 0 0 0 0 0 0 0 0 0 0 0 0 0 0 0 0 0 0 0 0 0 0 0 
0 0 0 0 0 0 0 0 0 0 0 0 0 0 0 0 0 0 0 0 0 0 0 0 
0 0 0 0 0 0 0 0 0 0 0 0 0 0 0 0 0 0 0 0 0 0 0 0 
0 0 0 0 0 0 0 0 0 0 0 0 0 0 0 0 0 0 0 0 0 0 0 0 
0 0 0 0 0 0 0 0 0 0 0 0 0 0 0 0 0 0 0 0 0 0 0 0 
0 0 0 0 0 0 0 0 0 0 0 0 0 0 0 0 0 0 0 0 0 0 0 0 
0 0 0 0 0 0 0 0 0 0 0 0 0 0 0 0 0 0 0 0 0 0 0 0 
0 0 0 0 0 0 0 0 0 0 0 0 0 0 0 0 0 0 0 0 0 0 0 0 
0 0 0 0 0 0 0 0 0 0 0 0 0 0 0 0 0 0 0 0 0 0 0 0 
0 0 0 0 0 0 0 0 0 0 0 0 0 0 0 0 0 0 0 0 0 0 0 0 
0 0 0 0 0 0 0 0 0 0 0 0 0 0 0 0 0 0 0 0 0 0 0 0 
0 0 0 0 0 0 0 0 0 0 0 0 0 0 0 0 0 0 0 0 0 0 0 0 
0 0 0 0 0 0 0 0 0 0 0 0 0 0 0 0 0 0 0 0 0 0 0 0 
0 0 0 0 0 0 0 0 0 0 0 0 0 0 0 0 0 0 0 0 0 0 0 0 
0 0 0 0 0 0 0 0 0 0 0 0 0 0 0 0 0 0 0 0 0 0 0 0 
0 0 0 0 0 0 0 0 0 0 0 0 0 0 0 0 0 0 0 0 0 0 0 0 
0 0 0 0 0 0 0 0 0 0 0 0 0 0 0 0 0 0 0 0 0 0 0 0 
0 0 0 0 0 0 0 0 0 0 0 0 0 0 0 
0 0 0 0 0 0 0 0 0 0 0 0 0 0 0 0 0 0 0 0 0 0 0 0 
0 0 0 0 0 0 0 0 0 0 0 0 0 0 0 0 0 0 0 0 0 0 0 0 
0 0 0 0 0 0 0 0 0 0 0 0 0 0 0 0 0 0 0 0 0 0 0 0 
0 0 0 0 0 0 0 0 0 0 0 0 0 0 0 0 0 0 0 0 0 0 0 0 
0 0 0 0 0 0 0 0 0 0 0 0 0 0 0 0 0 0 0 0 0 0 0 0 
0 0 0 0 0 0 0 0 0 0 0 0 0 0 0 0 0 0 0 0 0 0 0 0 
0 0 0 0 0 0 0 0 0 0 0 0 0 0 0 0 0 0 0 0 0 0 0 0 
0 0 0 0 0 0 0 0 0 0 0 0 0 0 0 0 0 0 0 0 0 0 0 0 
0 0 0 0 0 0 0 0 0 0 0 0 0 0 0 0 0 0 0 0 0 0 0 0 
0 0 0 0 0 0 0 0 0 0 0 0 0 0 0 0 0 0 0 0 0 0 0 0 
0 0 0 0 0 0 0 0 0 0 0 0 0 0 0 0 0 0 0 0 0 0 0 0 
0 0 0 0 0 0 0 0 0 0 0 0 0 0 0 0 0 0 0 0 0 0 0 0 
0 0 0 0 0 0 0 0 0 0 0 0 0 0 0 0 0 0 0 0 0 0 0 0 
0 0 0 0 0 0 0 0 0 0 0 0 0 0 0 0 0 0 0 0 0 0 0 0 
0 0 0 0 0 0 0 0 0 0 0 0 0 0 0 0 0 0 0 0 0 0 0 0 
0 0 0 0 0 0 0 0 0 0 0 0 0 0 0 0 0 0 0 0 0 0 0 0 
0 0 0 0 0 0 0 0 0 0 0 0 0 0 0 0 0 0 0 0 0 0 0 0 
0 0 0 0 0 0 0 0 0 0 0 0 0 0 0 0 0 0 0 0 0 0 0 0 
0 0 0 0 0 0 0 0 0 0 0 0 0 0 0 0 0 0 0 0 0 0 0 0 
0 0 0 0 0 0 0 0 0 0 0 0 0 0 0 0 0 0 0 0 0 0 0 0 
0 0 0 0 0 0 0 0 0 0 0 0 0 0 0 0 0 0 0 0 0 0 0 0 
0 0 0 0 0 0 0 0 0 0 0 0 0 0 0 0 0 0 0 0 0 0 0 0 
0 0 0 0 0 0 0 0 0 0 0 0 0 0 0 
0 0 0 0 0 0 0 0 0 0 0 0 0 0 0 0 0 0 0 0 0 0 0 0 
0 0 0 0 0 0 0 0 0 0 0 0 0 0 0 0 0 0 0 0 0 0 0 0 
0 0 0 0 0 0 0 0 0 0 0 0 0 0 0 0 0 0 0 0 0 0 0 0 
0 0 0 0 0 0 0 0 0 0 0 0 0 0 0 0 0 0 0 0 0 0 0 0 
0 0 0 0 0 0 0 0 0 0 0 0 0 0 0 0 0 0 0 0 0 0 0 0 
0 0 0 0 0 0 0 0 0 0 0 0 0 0 0 0 0 0 0 0 0 0 0 0 
0 0 0 0 0 0 0 0 0 0 0 0 0 0 0 0 0 0 0 0 0 0 0 0 
0 0 0 0 0 0 0 0 0 0 0 0 0 0 0 0 0 0 0 0 0 0 0 0 
0 0 0 0 0 0 0 0 0 0 0 0 0 0 0 0 0 0 0 0 0 0 0 0 
0 0 0 0 0 0 0 0 0 0 0 0 0 0 0 0 0 0 0 0 0 0 0 0 
0 0 0 0 0 0 0 0 0 0 0 0 0 0 0 0 0 0 0 0 0 0 0 0 
0 0 0 0 0 0 0 0 0 0 0 0 0 0 0 0 0 0 0 0 0 0 0 0 
0 0 0 0 0 0 0 0 0 0 0 0 0 0 0 0 0 0 0 0 0 0 0 0 
0 0 0 0 0 0 0 0 0 0 0 0 0 0 0 0 0 0 0 0 0 0 0 0 
0 0 0 0 0 0 0 0 0 0 0 0 0 0 0 0 0 0 0 0 0 0 0 0 
0 0 0 0 0 0 0 0 0 0 0 0 0 0 0 0 0 0 0 0 0 0 0 0 
0 0 0 0 0 0 0 0 0 0 0 0 0 0 0 0 0 0 0 0 0 0 0 0 
0 0 0 0 0 0 0 0 0 0 0 0 0 0 0 0 0 0 0 0 0 0 0 0 
0 0 0 0 0 0 0 0 0 0 0 0 0 0 0 0 0 0 0 0 0 0 0 0 
0 0 0 0 0 0 0 0 0 0 0 0 0 0 0 0 0 0 0 0 0 0 0 0 
0 0 0 0 0 0 0 0 0 0 0 0 0 0 0 0 0 0 0 0 0 0 0 0 
0 0 0 0 0 0 0 0 0 0 0 0 0 0 0 0 0 0 0 0 0 0 0 0 
0 0 0 0 0 0 0 0 0 0 0 0 0 0 0 
0 0 0 0 0 0 0 0 0 0 0 0 0 0 0 0 0 0 0 0 0 0 0 0 
0 0 0 0 0 0 0 0 0 0 0 0 0 0 0 0 0 0 0 0 0 0 0 0 
0 0 0 0 0 0 0 0 0 0 0 0 0 0 0 0 0 0 0 0 0 0 0 0 
0 0 0 0 0 0 0 0 0 0 0 0 0 0 0 0 0 0 0 0 0 0 0 0 
0 0 0 0 0 0 0 0 0 0 0 0 0 0 0 0 0 0 0 0 0 0 0 0 
0 0 0 0 0 0 0 0 0 0 0 0 0 0 0 0 0 0 0 0 0 0 0 0 
0 0 0 0 0 0 0 0 0 0 0 0 0 0 0 0 0 0 0 0 0 0 0 0 
0 0 0 0 0 0 0 0 0 0 0 0 0 0 0 0 0 0 0 0 0 0 0 0 
0 0 0 0 0 0 0 0 0 0 0 0 0 0 0 0 0 0 0 0 0 0 0 0 
0 0 0 0 0 0 0 0 0 0 0 0 0 0 0 0 0 0 0 0 0 0 0 0 
0 0 0 0 0 0 0 0 0 0 0 0 0 0 0 0 0 0 0 0 0 0 0 0 
0 0 0 0 0 0 0 0 0 0 0 0 0 0 0 0 0 0 0 0 0 0 0 0 
0 0 0 0 0 0 0 0 0 0 0 0 0 0 0 0 0 0 0 0 0 0 0 0 
0 0 0 0 0 0 0 0 0 0 0 0 0 0 0 0 0 0 0 0 0 0 0 0 
0 0 0 0 0 0 0 0 0 0 0 0 0 0 0 0 0 0 0 0 0 0 0 0 
0 0 0 0 0 0 0 0 0 0 0 0 0 0 0 0 0 0 0 0 0 0 0 0 
0 0 0 0 0 0 0 0 0 0 0 0 0 0 0 0 0 0 0 0 0 0 0 0 
0 0 0 0 0 0 0 0 0 0 0 0 0 0 0 0 0 0 0 0 0 0 0 0 
0 0 0 0 0 0 0 0 0 0 0 0 0 0 0 0 0 0 0 0 0 0 0 0 
0 0 0 0 0 0 0 0 0 0 0 0 0 0 0 0 0 0 0 0 0 0 0 0 
0 0 0 0 0 0 0 0 0 0 0 0 0 0 0 0 0 0 0 0 0 0 0 0 
0 0 0 0 0 0 0 0 0 0 0 0 0 0 0 0 0 0 0 0 0 0 0 0 
0 0 0 0 0 0 0 0 0 0 0 0 0 0 0 
0 0 0 0 0 0 0 0 0 0 0 0 0 0 0 0 0 0 0 0 0 0 0 0 
0 0 0 0 0 0 0 0 0 0 0 0 0 0 0 0 0 0 0 0 0 0 0 0 
0 0 0 0 0 0 0 0 0 0 0 0 0 0 0 0 0 0 0 0 0 0 0 0 
0 0 0 0 0 0 0 0 0 0 0 0 0 0 0 0 0 0 0 0 0 0 0 0 
0 0 0 0 0 0 0 0 0 0 0 0 0 0 0 0 0 0 0 0 0 0 0 0 
0 0 0 0 0 0 0 0 0 0 0 0 0 0 0 0 0 0 0 0 0 0 0 0 
0 0 0 0 0 0 0 0 0 0 0 0 0 0 0 0 0 0 0 0 0 0 0 0 
0 0 0 0 0 0 0 0 0 0 0 0 0 0 0 0 0 0 0 0 0 0 0 0 
0 0 0 0 0 0 0 0 0 0 0 0 0 0 0 0 0 0 0 0 0 0 0 0 
0 0 0 0 0 0 0 0 0 0 0 0 0 0 0 0 0 0 0 0 0 0 0 0 
0 0 0 0 0 0 0 0 0 0 0 0 0 0 0 0 0 0 0 0 0 0 0 0 
0 0 0 0 0 0 0 0 0 0 0 0 0 0 0 0 0 0 0 0 0 0 0 0 
0 0 0 0 0 0 0 0 0 0 0 0 0 0 0 0 0 0 0 0 0 0 0 0 
0 0 0 0 0 0 0 0 0 0 0 0 0 0 0 0 0 0 0 0 0 0 0 0 
0 0 0 0 0 0 0 0 0 0 0 0 0 0 0 0 0 0 0 0 0 0 0 0 
0 0 0 0 0 0 0 0 0 0 0 0 0 0 0 0 0 0 0 0 0 0 0 0 
0 0 0 0 0 0 0 0 0 0 0 0 0 0 0 0 0 0 0 0 0 0 0 0 
0 0 0 0 0 0 0 0 0 0 0 0 0 0 0 0 0 0 0 0 0 0 0 0 
0 0 0 0 0 0 0 0 0 0 0 0 0 0 0 0 0 0 0 0 0 0 0 0 
0 0 0 0 0 0 0 0 0 0 0 0 0 0 0 0 0 0 0 0 0 0 0 0 
0 0 0 0 0 0 0 0 0 0 0 0 0 0 0 0 0 0 0 0 0 0 0 0 
0 0 0 0 0 0 0 0 0 0 0 0 0 0 0 0 0 0 0 0 0 0 0 0 
0 0 0 0 0 0 0 0 0 0 0 0 0 0 0 
0 0 0 0 0 0 0 0 0 0 0 0 0 0 0 0 0 0 0 0 0 0 0 0 
0 0 0 0 0 0 0 0 0 0 0 0 0 0 0 0 0 0 0 0 0 0 0 0 
0 0 0 0 0 0 0 0 0 0 0 0 0 0 0 0 0 0 0 0 0 0 0 0 
0 0 0 0 0 0 0 0 0 0 0 0 0 0 0 0 0 0 0 0 0 0 0 0 
0 0 0 0 0 0 0 0 0 0 0 0 0 0 0 0 0 0 0 0 0 0 0 0 
0 0 0 0 0 0 0 0 0 0 0 0 0 0 0 0 0 0 0 0 0 0 0 0 
0 0 0 0 0 0 0 0 0 0 0 0 0 0 0 0 0 0 0 0 0 0 0 0 
0 0 0 0 0 0 0 0 0 0 0 0 0 0 0 0 0 0 0 0 0 0 0 0 
0 0 0 0 0 0 0 0 0 0 0 0 0 0 0 0 0 0 0 0 0 0 0 0 
0 0 0 0 0 0 0 0 0 0 0 0 0 0 0 0 0 0 0 0 0 0 0 0 
0 0 0 0 0 0 0 0 0 0 0 0 0 0 0 0 0 0 0 0 0 0 0 0 
0 0 0 0 0 0 0 0 0 0 0 0 0 0 0 0 0 0 0 0 0 0 0 0 
0 0 0 0 0 0 0 0 0 0 0 0 0 0 0 0 0 0 0 0 0 0 0 0 
0 0 0 0 0 0 0 0 0 0 0 0 0 0 0 0 0 0 0 0 0 0 0 0 
0 0 0 0 0 0 0 0 0 0 0 0 0 0 0 0 0 0 0 0 0 0 0 0 
0 0 0 0 0 0 0 0 0 0 0 0 0 0 0 0 0 0 0 0 0 0 0 0 
0 0 0 0 0 0 0 0 0 0 0 0 0 0 0 0 0 0 0 0 0 0 0 0 
0 0 0 0 0 0 0 0 0 0 0 0 0 0 0 0 0 0 0 0 0 0 0 0 
0 0 0 0 0 0 0 0 0 0 0 0 0 0 0 0 0 0 0 0 0 0 0 0 
0 0 0 0 0 0 0 0 0 0 0 0 0 0 0 0 0 0 0 0 0 0 0 0 
0 0 0 0 0 0 0 0 0 0 0 0 0 0 0 0 0 0 0 0 0 0 0 0 
0 0 0 0 0 0 0 0 0 0 0 0 0 0 0 0 0 0 0 0 0 0 0 0 
0 0 0 0 0 0 0 0 0 0 0 0 0 0 0 
0 0 0 0 0 0 0 0 0 0 0 0 0 0 0 0 0 0 0 0 0 0 0 0 
0 0 0 0 0 0 0 0 0 0 0 0 0 0 0 0 0 0 0 0 0 0 0 0 
0 0 0 0 0 0 0 0 0 0 0 0 0 0 0 0 0 0 0 0 0 0 0 0 
0 0 0 0 0 0 0 0 0 0 0 0 0 0 0 0 0 0 0 0 0 0 0 0 
0 0 0 0 0 0 0 0 0 0 0 0 0 0 0 0 0 0 0 0 0 0 0 0 
0 0 0 0 0 0 0 0 0 0 0 0 0 0 0 0 0 0 0 0 0 0 0 0 
0 0 0 0 0 0 0 0 0 0 0 0 0 0 0 0 0 0 0 0 0 0 0 0 
0 0 0 0 0 0 0 0 0 0 0 0 0 0 0 0 0 0 0 0 0 0 0 0 
0 0 0 0 0 0 0 0 0 0 0 0 0 0 0 0 0 0 0 0 0 0 0 0 
0 0 0 0 0 0 0 0 0 0 0 0 0 0 0 0 0 0 0 0 0 0 0 0 
0 0 0 0 0 0 0 0 0 0 0 0 0 0 0 0 0 0 0 0 0 0 0 0 
0 0 0 0 0 0 0 0 0 0 0 0 0 0 0 0 0 0 0 0 0 0 0 0 
0 0 0 0 0 0 0 0 0 0 0 0 0 0 0 0 0 0 0 0 0 0 0 0 
0 0 0 0 0 0 0 0 0 0 0 0 0 0 0 0 0 0 0 0 0 0 0 0 
0 0 0 0 0 0 0 0 0 0 0 0 0 0 0 0 0 0 0 0 0 0 0 0 
0 0 0 0 0 0 0 0 0 0 0 0 0 0 0 0 0 0 0 0 0 0 0 0 
0 0 0 0 0 0 0 0 0 0 0 0 0 0 0 0 0 0 0 0 0 0 0 0 
0 0 0 0 0 0 0 0 0 0 0 0 0 0 0 0 0 0 0 0 0 0 0 0 
0 0 0 0 0 0 0 0 0 0 0 0 0 0 0 0 0 0 0 0 0 0 0 0 
0 0 0 0 0 0 0 0 0 0 0 0 0 0 0 0 0 0 0 0 0 0 0 0 
0 0 0 0 0 0 0 0 0 0 0 0 0 0 0 0 0 0 0 0 0 0 0 0 
0 0 0 0 0 0 0 0 0 0 0 0 0 0 0 0 0 0 0 0 0 0 0 0 
0 0 0 0 0 0 0 0 0 0 0 0 0 0 0 
0 0 0 0 0 0 0 0 0 0 0 0 0 0 0 0 0 0 0 0 0 0 0 0 
0 0 0 0 0 0 0 0 0 0 0 0 0 0 0 0 0 0 0 0 0 0 0 0 
0 0 0 0 0 0 0 0 0 0 0 0 0 0 0 0 0 0 0 0 0 0 0 0 
0 0 0 0 0 0 0 0 0 0 0 0 0 0 0 0 0 0 0 0 0 0 0 0 
0 0 0 0 0 0 0 0 0 0 0 0 0 0 0 0 0 0 0 0 0 0 0 0 
0 0 0 0 0 0 0 0 0 0 0 0 0 0 0 0 0 0 0 0 0 0 0 0 
0 0 0 0 0 0 0 0 0 0 0 0 0 0 0 0 0 0 0 0 0 0 0 0 
0 0 0 0 0 0 0 0 0 0 0 0 0 0 0 0 0 0 0 0 0 0 0 0 
0 0 0 0 0 0 0 0 0 0 0 0 0 0 0 0 0 0 0 0 0 0 0 0 
0 0 0 0 0 0 0 0 0 0 0 0 0 0 0 0 0 0 0 0 0 0 0 0 
0 0 0 0 0 0 0 0 0 0 0 0 0 0 0 0 0 0 0 0 0 0 0 0 
0 0 0 0 0 0 0 0 0 0 0 0 0 0 0 0 0 0 0 0 0 0 0 0 
0 0 0 0 0 0 0 0 0 0 0 0 0 0 0 0 0 0 0 0 0 0 0 0 
0 0 0 0 0 0 0 0 0 0 0 0 0 0 0 0 0 0 0 0 0 0 0 0 
0 0 0 0 0 0 0 0 0 0 0 0 0 0 0 0 0 0 0 0 0 0 0 0 
0 0 0 0 0 0 0 0 0 0 0 0 0 0 0 0 0 0 0 0 0 0 0 0 
0 0 0 0 0 0 0 0 0 0 0 0 0 0 0 0 0 0 0 0 0 0 0 0 
0 0 0 0 0 0 0 0 0 0 0 0 0 0 0 0 0 0 0 0 0 0 0 0 
0 0 0 0 0 0 0 0 0 0 0 0 0 0 0 0 0 0 0 0 0 0 0 0 
0 0 0 0 0 0 0 0 0 0 0 0 0 0 0 0 0 0 0 0 0 0 0 0 
0 0 0 0 0 0 0 0 0 0 0 0 0 0 0 0 0 0 0 0 0 0 0 0 
0 0 0 0 0 0 0 0 0 0 0 0 0 0 0 0 0 0 0 0 0 0 0 0 
0 0 0 0 0 0 0 0 0 0 0 0 0 0 0 
0 0 0 0 0 0 0 0 0 0 0 0 0 0 0 0 0 0 0 0 0 0 0 0 
0 0 0 0 0 0 0 0 0 0 0 0 0 0 0 0 0 0 0 0 0 0 0 0 
0 0 0 0 0 0 0 0 0 0 0 0 0 0 0 0 0 0 0 0 0 0 0 0 
0 0 0 0 0 0 0 0 0 0 0 0 0 0 0 0 0 0 0 0 0 0 0 0 
0 0 0 0 0 0 0 0 0 0 0 0 0 0 0 0 0 0 0 0 0 0 0 0 
0 0 0 0 0 0 0 0 0 0 0 0 0 0 0 0 0 0 0 0 0 0 0 0 
0 0 0 0 0 0 0 0 0 0 0 0 0 0 0 0 0 0 0 0 0 0 0 0 
0 0 0 0 0 0 0 0 0 0 0 0 0 0 0 0 0 0 0 0 0 0 0 0 
0 0 0 0 0 0 0 0 0 0 0 0 0 0 0 0 0 0 0 0 0 0 0 0 
0 0 0 0 0 0 0 0 0 0 0 0 0 0 0 0 0 0 0 0 0 0 0 0 
0 0 0 0 0 0 0 0 0 0 0 0 0 0 0 0 0 0 0 0 0 0 0 0 
0 0 0 0 0 0 0 0 0 0 0 0 0 0 0 0 0 0 0 0 0 0 0 0 
0 0 0 0 0 0 0 0 0 0 0 0 0 0 0 0 0 0 0 0 0 0 0 0 
0 0 0 0 0 0 0 0 0 0 0 0 0 0 0 0 0 0 0 0 0 0 0 0 
0 0 0 0 0 0 0 0 0 0 0 0 0 0 0 0 0 0 0 0 0 0 0 0 
0 0 0 0 0 0 0 0 0 0 0 0 0 0 0 0 0 0 0 0 0 0 0 0 
0 0 0 0 0 0 0 0 0 0 0 0 0 0 0 0 0 0 0 0 0 0 0 0 
0 0 0 0 0 0 0 0 0 0 0 0 0 0 0 0 0 0 0 0 0 0 0 0 
0 0 0 0 0 0 0 0 0 0 0 0 0 0 0 0 0 0 0 0 0 0 0 0 
0 0 0 0 0 0 0 0 0 0 0 0 0 0 0 0 0 0 0 0 0 0 0 0 
0 0 0 0 0 0 0 0 0 0 0 0 0 0 0 0 0 0 0 0 0 0 0 0 
0 0 0 0 0 0 0 0 0 0 0 0 0 0 0 0 0 0 0 0 0 0 0 0 
0 0 0 0 0 0 0 0 0 0 0 0 0 0 0 
0 0 0 0 0 0 0 0 0 0 0 0 0 0 0 0 0 0 0 0 0 0 0 0 
0 0 0 0 0 0 0 0 0 0 0 0 0 0 0 0 0 0 0 0 0 0 0 0 
0 0 0 0 0 0 0 0 0 0 0 0 0 0 0 0 0 0 0 0 0 0 0 0 
0 0 0 0 0 0 0 0 0 0 0 0 0 0 0 0 0 0 0 0 0 0 0 0 
0 0 0 0 0 0 0 0 0 0 0 0 0 0 0 0 0 0 0 0 0 0 0 0 
0 0 0 0 0 0 0 0 0 0 0 0 0 0 0 0 0 0 0 0 0 0 0 0 
0 0 0 0 0 0 0 0 0 0 0 0 0 0 0 0 0 0 0 0 0 0 0 0 
0 0 0 0 0 0 0 0 0 0 0 0 0 0 0 0 0 0 0 0 0 0 0 0 
0 0 0 0 0 0 0 0 0 0 0 0 0 0 0 0 0 0 0 0 0 0 0 0 
0 0 0 0 0 0 0 0 0 0 0 0 0 0 0 0 0 0 0 0 0 0 0 0 
0 0 0 0 0 0 0 0 0 0 0 0 0 0 0 0 0 0 0 0 0 0 0 0 
0 0 0 0 0 0 0 0 0 0 0 0 0 0 0 0 0 0 0 0 0 0 0 0 
0 0 0 0 0 0 0 0 0 0 0 0 0 0 0 0 0 0 0 0 0 0 0 0 
0 0 0 0 0 0 0 0 0 0 0 0 0 0 0 0 0 0 0 0 0 0 0 0 
0 0 0 0 0 0 0 0 0 0 0 0 0 0 0 0 0 0 0 0 0 0 0 0 
0 0 0 0 0 0 0 0 0 0 0 0 0 0 0 0 0 0 0 0 0 0 0 0 
0 0 0 0 0 0 0 0 0 0 0 0 0 0 0 0 0 0 0 0 0 0 0 0 
0 0 0 0 0 0 0 0 0 0 0 0 0 0 0 0 0 0 0 0 0 0 0 0 
0 0 0 0 0 0 0 0 0 0 0 0 0 0 0 0 0 0 0 0 0 0 0 0 
0 0 0 0 0 0 0 0 0 0 0 0 0 0 0 0 0 0 0 0 0 0 0 0 
0 0 0 0 0 0 0 0 0 0 0 0 0 0 0 0 0 0 0 0 0 0 0 0 
0 0 0 0 0 0 0 0 0 0 0 0 0 0 0 0 0 0 0 0 0 0 0 0 
0 0 0 0 0 0 0 0 0 0 0 0 0 0 0 
0 0 0 0 0 0 0 0 0 0 0 0 0 0 0 0 0 0 0 0 0 0 0 0 
0 0 0 0 0 0 0 0 0 0 0 0 0 0 0 0 0 0 0 0 0 0 0 0 
0 0 0 0 0 0 0 0 0 0 0 0 0 0 0 0 0 0 0 0 0 0 0 0 
0 0 0 0 0 0 0 0 0 0 0 0 0 0 0 0 0 0 0 0 0 0 0 0 
0 0 0 0 0 0 0 0 0 0 0 0 0 0 0 0 0 0 0 0 0 0 0 0 
0 0 0 0 0 0 0 0 0 0 0 0 0 0 0 0 0 0 0 0 0 0 0 0 
0 0 0 0 0 0 0 0 0 0 0 0 0 0 0 0 0 0 0 0 0 0 0 0 
0 0 0 0 0 0 0 0 0 0 0 0 0 0 0 0 0 0 0 0 0 0 0 0 
0 0 0 0 0 0 0 0 0 0 0 0 0 0 0 0 0 0 0 0 0 0 0 0 
0 0 0 0 0 0 0 0 0 0 0 0 0 0 0 0 0 0 0 0 0 0 0 0 
0 0 0 0 0 0 0 0 0 0 0 0 0 0 0 0 0 0 0 0 0 0 0 0 
0 0 0 0 0 0 0 0 0 0 0 0 0 0 0 0 0 0 0 0 0 0 0 0 
0 0 0 0 0 0 0 0 0 0 0 0 0 0 0 0 0 0 0 0 0 0 0 0 
0 0 0 0 0 0 0 0 0 0 0 0 0 0 0 0 0 0 0 0 0 0 0 0 
0 0 0 0 0 0 0 0 0 0 0 0 0 0 0 0 0 0 0 0 0 0 0 0 
0 0 0 0 0 0 0 0 0 0 0 0 0 0 0 0 0 0 0 0 0 0 0 0 
0 0 0 0 0 0 0 0 0 0 0 0 0 0 0 0 0 0 0 0 0 0 0 0 
0 0 0 0 0 0 0 0 0 0 0 0 0 0 0 0 0 0 0 0 0 0 0 0 
0 0 0 0 0 0 0 0 0 0 0 0 0 0 0 0 0 0 0 0 0 0 0 0 
0 0 0 0 0 0 0 0 0 0 0 0 0 0 0 0 0 0 0 0 0 0 0 0 
0 0 0 0 0 0 0 0 0 0 0 0 0 0 0 0 0 0 0 0 0 0 0 0 
0 0 0 0 0 0 0 0 0 0 0 0 0 0 0 0 0 0 0 0 0 0 0 0 
0 0 0 0 0 0 0 0 0 0 0 0 0 0 0 
